; generated by SuperSlicer 2.4 on 2022-10-07 at 21:50:20 UTC


;
;

;
;
; 

; external perimeters extrusion width = 0.40mm
; perimeters extrusion width = 0.50mm
; infill extrusion width = 0.72mm
; solid infill extrusion width = 0.56mm
; top infill extrusion width = 0.40mm

; object:{"name":"Voron_Design_Cube_v7","id":"Voron_Design_Cube_v7 id:0 copy 0","object_center":[200.000000,200.000000,0.000000],"boundingbox_center":[200.000000,200.000000,15.000000],"boundingbox_size":[30.000000,30.000000,30.000000]}
; plater:{"center":[200.000000,200.000000,0.000000],"boundingbox_center":[200.000000,200.000000,15.000000],"boundingbox_size":[30.000000,30.000000,30.000000]}

M73 P0 R57
;TYPE:Custom
; custom gcode: start_gcode
PRINT_START BED=110 HOTEND=250 CHAMBER=50
; custom gcode end: start_gcode
M107
G21 ; set units to millimeters
G90 ; use absolute coordinates
M83 ; use relative distances for extrusion
; custom gcode: start_filament_gcode
; Filament gcode
;SET_PRESSURE_ADVANCE EXTRUDER=extruder ADVANCE=0.04 ; comnmented out | Tune for filament
; custom gcode end: start_filament_gcode
M104 S250 ; set temperature
M109 S250 ; set temperature and wait for it to be reached
M190 S110 ; set bed temperature and wait for it to be reached
;LAYER_CHANGE
;Z:0.24
;HEIGHT:0.24
G1 Z0.24 F1800
G92 E0
G1 E-1.2
M204 S2000
G1 X213.187 Y216.71 F18000
G1 E1.2 F1800
;TYPE:Skirt
;WIDTH:0.5
;HEIGHT:0.25
G1 X211.947 Y217.95 E0.07516
G1 X211.576 Y218.248 E0.02042
G1 X211.09 Y218.546 E0.02442
G1 X210.474 Y218.813 E0.02881
G1 X210.055 Y218.942 E0.01879
G1 X209.599 Y219.029 E0.0199
G1 X209.173 Y219.06 E0.0183
G1 X207.523 Y219.06 E0.07074
G1 E-1.2
; acceleration to travel
M204 S10000
G1 X212.516 Y216.304 F18000
; decel to extrusion
M204 S2000
G1 X213.514 Y215.753
; end travel
G1 E1.2 F1800
G1 X211.651 Y217.616 E0.11296
G1 X211.321 Y217.881 E0.01813
G1 X210.883 Y218.151 E0.02207
G1 X210.315 Y218.396 E0.02652
G1 X209.947 Y218.509 E0.01649
G1 X209.539 Y218.587 E0.0178
G1 X209.171 Y218.614 E0.01583
G1 X206.612 Y218.614 E0.1097
G1 X206.03 Y218.168 E0.03143
G1 X209.168 Y218.168 E0.13453
G1 X209.835 Y218.077 E0.02884
G1 X210.154 Y217.979 E0.01432
G1 X210.674 Y217.756 E0.02423
G1 X211.067 Y217.515 E0.01978
G1 X211.348 Y217.288 E0.01549
G1 X213.61 Y215.027 E0.1371
G1 X213.585 Y214.421 E0.02597
G1 X211.051 Y216.955 E0.15359
G1 X210.815 Y217.146 E0.01303
G1 X210.468 Y217.36 E0.01749
G1 X209.73 Y217.643 E0.03387
G1 X209.166 Y217.721 E0.02439
G1 X205.619 Y217.721 E0.15206
G1 X205.277 Y217.275 E0.02412
G1 X209.165 Y217.275 E0.16668
G1 X209.625 Y217.209 E0.01994
G1 X210.256 Y216.967 E0.02895
G1 X210.746 Y216.629 E0.02554
G1 X213.511 Y213.864 E0.16763
G1 X213.864 Y213.511 E0.02136
G1 X216.613 Y210.762 E0.16669
G1 X216.915 Y210.352 E0.02181
G1 X217.169 Y209.768 E0.02732
G1 X217.275 Y209.17 E0.026
G1 X217.275 Y205.277 E0.16692
G1 X216.829 Y205.029 E0.02188
G1 X216.829 Y209.162 E0.17718
G1 X216.743 Y209.636 E0.02062
G1 X216.528 Y210.13 E0.0231
G1 X216.296 Y210.448 E0.01689
G1 X213.371 Y213.373 E0.17732
G1 X210.44 Y216.303 E0.17766
G1 X210.053 Y216.57 E0.02016
G1 X209.52 Y216.776 E0.0245
G1 X209.162 Y216.829 E0.01549
G1 X205.029 Y216.829 E0.17718
G1 X204.844 Y216.382 E0.02071
G1 X209.157 Y216.382 E0.18487
G1 X209.417 Y216.342 E0.01127
G1 X209.847 Y216.174 E0.01982
G1 X210.137 Y215.976 E0.01501
G1 X215.976 Y210.137 E0.35403
G1 X216.143 Y209.905 E0.01221
G1 X216.317 Y209.501 E0.01888
G1 X216.382 Y209.157 E0.01501
G1 X216.382 Y204.844 E0.18487
G1 X215.936 Y204.677 E0.02043
G1 X215.936 Y209.146 E0.19157
G1 X215.893 Y209.361 E0.00939
G1 X215.754 Y209.685 E0.01513
G1 X215.653 Y209.829 E0.00752
G1 X209.829 Y215.653 E0.35309
G1 X209.646 Y215.775 E0.00939
G1 X209.319 Y215.906 E0.01513
G1 X209.146 Y215.936 E0.00752
G1 X204.677 Y215.936 E0.19157
G1 X204.616 Y215.477 E0.01985
G1 X209.21 Y215.472 E0.19692
G1 X209.529 Y215.322 E0.0151
G1 X215.371 Y209.455 E0.35491
G1 X215.49 Y209.124 E0.0151
G1 X215.485 Y204.618 E0.19317
G1 X215.043 Y204.559 E0.01912
G1 X215.043 Y209.08 E0.19378
G1 X214.975 Y209.244 E0.00761
G1 X209.244 Y214.975 E0.34744
G1 X209.08 Y215.043 E0.00761
G1 X204.559 Y215.043 E0.19378
G1 E-1.2
; acceleration to travel
M204 S10000
G1 X215.528 Y207.19 F18000
; decel to extrusion
M204 S2000
G1 X217.721 Y205.619
; end travel
G1 E1.2 F1800
G1 X217.721 Y209.177 E0.15253
G1 X217.621 Y209.815 E0.02766
G1 X217.312 Y210.557 E0.03446
G1 X216.932 Y211.075 E0.02754
G1 X214.421 Y213.585 E0.15218
G1 X215.027 Y213.61 E0.02598
G1 X217.258 Y211.38 E0.13521
G1 X217.487 Y211.106 E0.01532
G1 X217.704 Y210.771 E0.01709
G1 X218.05 Y209.94 E0.03861
G1 X218.135 Y209.543 E0.01738
G1 X218.167 Y209.185 E0.01543
G1 X218.167 Y206.03 E0.13524
G1 X218.614 Y206.611 E0.03142
G1 X218.614 Y209.198 E0.11086
G1 X218.576 Y209.612 E0.01784
G1 X218.482 Y210.053 E0.01932
G1 X218.376 Y210.364 E0.01409
G1 X218.101 Y210.975 E0.02873
G1 X217.847 Y211.37 E0.02013
G1 X217.579 Y211.69 E0.0179
G1 X215.754 Y213.514 E0.11061
G1 E-1.2
; acceleration to travel
M204 S10000
G1 X218.509 Y208.521 F18000
; decel to extrusion
M204 S2000
G1 X219.06 Y207.522
; end travel
G1 E1.2 F1800
G1 X219.06 Y209.206 E0.07218
G1 X219.017 Y209.68 E0.02042
G1 X218.911 Y210.173 E0.0216
G1 X218.79 Y210.533 E0.01627
G1 X218.494 Y211.187 E0.03077
G1 X218.207 Y211.634 E0.02278
G1 X217.9 Y212 E0.02048
G1 X216.713 Y213.186 E0.07192
G1 E-1.2
; acceleration to travel
M204 S10000
G1 X215.322 Y198.398 F18000
; decel to extrusion
M204 S2000
G1 X215.043 Y195.441
; end travel
G1 E1.2 F1800
G1 X215.043 Y190.92 E0.19378
G1 X214.975 Y190.756 E0.00761
G1 X209.244 Y185.025 E0.34744
G1 X209.08 Y184.957 E0.00761
G1 X205.298 Y184.957 E0.16213
G1 X205.39 Y184.528 E0.01882
G1 X209.21 Y184.528 E0.16376
G1 X209.529 Y184.678 E0.0151
G1 X215.322 Y190.471 E0.35121
G1 X215.472 Y190.79 E0.0151
G1 X215.477 Y195.384 E0.19692
G1 X215.936 Y195.323 E0.01985
G1 X215.936 Y190.854 E0.19157
G1 X215.906 Y190.681 E0.00752
G1 X215.775 Y190.354 E0.01513
G1 X215.653 Y190.171 E0.00939
G1 X209.829 Y184.347 E0.35309
G1 X209.646 Y184.225 E0.00939
G1 X209.189 Y184.068 E0.02071
G1 X205.58 Y184.068 E0.15471
G1 X205.766 Y183.619 E0.02083
G1 X209.179 Y183.619 E0.14627
G1 X209.501 Y183.683 E0.01408
G1 X209.827 Y183.817 E0.01514
G1 X210.137 Y184.024 E0.01593
G1 X215.976 Y189.864 E0.35403
G1 X216.174 Y190.153 E0.01501
G1 X216.336 Y190.562 E0.01888
G1 X216.382 Y190.843 E0.01221
G1 X216.382 Y195.156 E0.18487
G1 X216.829 Y194.971 E0.02071
G1 X216.829 Y190.838 E0.17718
G1 X216.768 Y190.448 E0.01689
G1 X216.57 Y189.947 E0.0231
G1 X216.303 Y189.56 E0.02016
G1 X210.448 Y183.704 E0.35497
G1 X210.003 Y183.407 E0.02294
G1 X209.562 Y183.235 E0.02029
G1 X209.173 Y183.172 E0.01689
G1 X206.087 Y183.172 E0.13229
G1 X206.43 Y182.725 E0.02413
G1 X209.17 Y182.725 E0.11749
G1 X209.599 Y182.785 E0.01853
G1 X209.855 Y182.862 E0.0115
G1 X210.352 Y183.085 E0.02334
G1 X210.746 Y183.371 E0.02088
G1 X216.632 Y189.258 E0.35685
G1 X216.965 Y189.739 E0.02507
G1 X217.194 Y190.316 E0.02662
G1 X217.275 Y190.835 E0.02251
G1 X217.275 Y194.723 E0.16668
G1 X217.721 Y194.381 E0.02412
G1 X217.721 Y190.834 E0.15206
G1 X217.623 Y190.193 E0.02777
G1 X217.319 Y189.455 E0.03423
G1 X216.96 Y188.955 E0.02638
G1 X214.421 Y186.415 E0.15396
G1 X214.237 Y186.232 E0.01113
G1 X211.051 Y183.045 E0.19317
G1 X210.576 Y182.698 E0.02521
G1 X210.025 Y182.45 E0.02592
G1 X209.687 Y182.347 E0.01513
G1 X209.169 Y182.279 E0.0224
G1 X206.951 Y182.279 E0.09507
G1 X207.596 Y181.832 E0.03361
G1 X209.168 Y181.832 E0.06742
G1 X209.604 Y181.875 E0.01876
G1 X210.19 Y182.035 E0.02603
G1 X210.808 Y182.317 E0.02914
G1 X211.348 Y182.712 E0.02867
G1 X214.263 Y185.627 E0.17669
G1 X214.167 Y184.902 E0.03133
G1 X211.649 Y182.383 E0.1527
G1 X211.37 Y182.153 E0.01548
G1 X211.035 Y181.933 E0.01721
G1 X210.355 Y181.62 E0.03206
G1 X209.689 Y181.437 E0.02961
G1 X209.171 Y181.386 E0.02233
G1 X208.922 Y181.386 E0.01067
G1 E-1.2
; acceleration to travel
M204 S10000
G1 X210.972 Y181.587 F18000
; decel to extrusion
M204 S2000
G1 X211.382 Y181.627
; end travel
G1 E1.2 F1800
G1 X211.613 Y181.778 E0.01183
G1 X211.908 Y182.014 E0.0162
G1 X213.843 Y183.95 E0.11731
G1 E-1.2
; acceleration to travel
M204 S10000
G1 X214.828 Y185.983 F18000
; decel to extrusion
M204 S2000
G1 X215.026 Y186.39
; end travel
G1 E1.2 F1800
G1 X217.291 Y188.656 E0.13737
G1 X217.497 Y188.907 E0.01391
G1 X217.712 Y189.243 E0.01709
G1 X218.049 Y190.059 E0.03785
G1 X218.136 Y190.461 E0.01762
G1 X218.168 Y190.832 E0.01596
G1 X218.168 Y193.97 E0.13453
G1 X218.614 Y193.388 E0.03143
G1 X218.614 Y190.822 E0.10999
G1 X218.577 Y190.393 E0.01848
G1 X218.475 Y189.925 E0.02054
G1 X218.105 Y189.032 E0.04143
G1 X217.863 Y188.653 E0.01926
G1 X217.652 Y188.389 E0.01449
G1 X215.749 Y186.485 E0.11539
G1 X216.703 Y186.81 F18000
G1 F1800
G1 X217.983 Y188.09 E0.07759
G1 X218.226 Y188.393 E0.01665
G1 X218.484 Y188.795 E0.02051
G1 X218.647 Y189.123 E0.01566
G1 X218.875 Y189.706 E0.02685
G1 X219.014 Y190.298 E0.02607
G1 X219.06 Y190.817 E0.02234
G1 X219.06 Y192.477 E0.07115
G1 E-1.2
; acceleration to travel
M204 S10000
G1 X190.641 Y194.947 F18000
; decel to extrusion
M204 S2000
G1 X184.957 Y195.441
; end travel
G1 E1.2 F1800
G1 X184.957 Y190.92 E0.19378
G1 X185.025 Y190.756 E0.00761
G1 X190.756 Y185.025 E0.34744
G1 X190.92 Y184.957 E0.00761
G1 X195.441 Y184.957 E0.19378
G1 X195.384 Y184.528 E0.01856
G1 X190.79 Y184.528 E0.19694
G1 X190.471 Y184.678 E0.0151
G1 X184.629 Y190.545 E0.35491
G1 X184.51 Y190.876 E0.0151
G1 X184.515 Y195.382 E0.19317
G1 X184.064 Y195.323 E0.01948
G1 X184.064 Y190.854 E0.19157
G1 X184.107 Y190.639 E0.00939
G1 X184.246 Y190.315 E0.01513
G1 X184.347 Y190.171 E0.00752
G1 X190.171 Y184.347 E0.35309
G1 X190.354 Y184.225 E0.00939
G1 X190.681 Y184.094 E0.01513
G1 X190.854 Y184.064 E0.00752
G1 X195.323 Y184.065 E0.19158
G1 X195.156 Y183.618 E0.02046
G1 X190.843 Y183.618 E0.18488
G1 X190.562 Y183.664 E0.01221
G1 X190.153 Y183.826 E0.01888
G1 X189.864 Y184.024 E0.01501
G1 X184.024 Y189.864 E0.35403
G1 X183.857 Y190.095 E0.01221
G1 X183.683 Y190.499 E0.01888
G1 X183.618 Y190.843 E0.01501
G1 X183.618 Y195.156 E0.18487
G1 X183.171 Y194.971 E0.02071
G1 X183.171 Y190.838 E0.17718
G1 X183.257 Y190.364 E0.02062
G1 X183.472 Y189.87 E0.0231
G1 X183.704 Y189.552 E0.01689
G1 X186.629 Y186.627 E0.17732
G1 X189.56 Y183.697 E0.17766
G1 X189.947 Y183.43 E0.02016
G1 X190.448 Y183.232 E0.0231
G1 X190.838 Y183.171 E0.01689
G1 X194.971 Y183.171 E0.17719
G1 X194.723 Y182.725 E0.02189
G1 X190.835 Y182.725 E0.16668
G1 X190.332 Y182.801 E0.02181
G1 X189.739 Y183.035 E0.02732
G1 X189.254 Y183.371 E0.02531
G1 X186.489 Y186.136 E0.16763
G1 X186.136 Y186.489 E0.02136
G1 X183.387 Y189.238 E0.16669
G1 X183.085 Y189.648 E0.02181
G1 X182.831 Y190.232 E0.02732
G1 X182.725 Y190.83 E0.026
G1 X182.725 Y194.723 E0.16692
G1 X182.279 Y194.381 E0.02412
G1 X182.279 Y190.823 E0.15253
G1 X182.379 Y190.185 E0.02766
G1 X182.688 Y189.443 E0.03446
G1 X183.068 Y188.925 E0.02754
G1 X185.579 Y186.415 E0.15218
G1 X184.973 Y186.39 E0.02599
G1 X182.742 Y188.62 E0.1352
G1 X182.513 Y188.894 E0.01532
G1 X182.296 Y189.229 E0.01709
G1 X181.95 Y190.06 E0.03861
G1 X181.865 Y190.457 E0.01738
G1 X181.833 Y190.815 E0.01543
G1 X181.833 Y193.97 E0.13524
G1 X181.386 Y193.389 E0.03142
G1 X181.386 Y190.802 E0.11086
G1 X181.424 Y190.388 E0.01784
G1 X181.518 Y189.947 E0.01932
G1 X181.624 Y189.636 E0.01409
G1 X181.899 Y189.025 E0.02873
G1 X182.153 Y188.63 E0.02013
G1 X182.421 Y188.31 E0.0179
G1 X184.246 Y186.486 E0.1106
G1 E-1.2
; acceleration to travel
M204 S10000
G1 X181.491 Y191.479 F18000
; decel to extrusion
M204 S2000
G1 X180.94 Y192.478
; end travel
G1 E1.2 F1800
G1 X180.94 Y190.792 E0.07225
G1 X180.983 Y190.32 E0.02035
G1 X181.089 Y189.826 E0.02166
G1 X181.21 Y189.467 E0.01621
G1 X181.506 Y188.813 E0.03077
G1 X181.793 Y188.366 E0.02278
G1 X182.1 Y188 E0.02048
G1 X183.287 Y186.814 E0.07192
G1 E-1.2
; acceleration to travel
M204 S10000
G1 X185.894 Y185.785 F18000
; decel to extrusion
M204 S2000
G1 X186.415 Y185.579
; end travel
G1 E1.2 F1800
G1 X188.949 Y183.045 E0.15359
G1 X189.185 Y182.854 E0.01303
G1 X189.53 Y182.641 E0.01738
G1 X190.214 Y182.371 E0.03154
G1 X190.834 Y182.279 E0.02684
G1 X194.381 Y182.279 E0.15206
G1 X193.97 Y181.832 E0.02601
G1 X190.832 Y181.832 E0.13453
G1 X190.504 Y181.858 E0.01408
G1 X190.096 Y181.94 E0.01785
G1 X189.806 Y182.036 E0.01309
G1 X189.244 Y182.288 E0.02639
G1 X188.906 Y182.504 E0.01721
G1 X188.644 Y182.72 E0.01455
G1 X186.39 Y184.973 E0.13662
G1 X186.486 Y184.247 E0.03141
G1 X188.339 Y182.393 E0.11236
G1 X188.645 Y182.142 E0.01696
G1 X189.031 Y181.896 E0.01961
G1 X189.636 Y181.624 E0.02844
G1 X189.955 Y181.516 E0.01444
G1 X190.394 Y181.423 E0.01926
G1 X190.829 Y181.386 E0.01871
G1 X193.388 Y181.386 E0.1097
G1 E-1.2
; acceleration to travel
M204 S10000
G1 X187.909 Y182.972 F18000
; decel to extrusion
M204 S2000
G1 X186.813 Y183.289
; end travel
G1 E1.2 F1800
G1 X188.045 Y182.058 E0.07466
G1 X188.385 Y181.78 E0.01883
G1 X188.818 Y181.503 E0.02202
G1 X189.465 Y181.211 E0.03044
G1 X189.832 Y181.087 E0.0166
G1 X190.326 Y180.982 E0.02167
G1 X190.817 Y180.94 E0.02111
G1 X192.477 Y180.94 E0.07115
G1 E-1.2
; acceleration to travel
M204 S10000
G1 X194.947 Y209.359 F18000
; decel to extrusion
M204 S2000
G1 X195.441 Y215.043
; end travel
G1 E1.2 F1800
G1 X190.92 Y215.043 E0.19378
G1 X190.756 Y214.975 E0.00761
G1 X185.025 Y209.244 E0.34744
G1 X184.957 Y209.08 E0.00761
G1 X184.957 Y204.559 E0.19378
G1 X184.523 Y204.616 E0.01874
G1 X184.528 Y209.21 E0.19692
G1 X184.678 Y209.529 E0.0151
G1 X190.545 Y215.371 E0.35491
G1 X190.876 Y215.49 E0.0151
G1 X195.382 Y215.485 E0.19317
G1 X195.323 Y215.936 E0.01948
G1 X190.854 Y215.936 E0.19157
G1 X190.639 Y215.893 E0.00939
G1 X190.315 Y215.754 E0.01513
G1 X190.171 Y215.653 E0.00752
G1 X184.347 Y209.829 E0.35309
G1 X184.225 Y209.646 E0.00939
G1 X184.094 Y209.319 E0.01513
G1 X184.064 Y209.146 E0.00752
G1 X184.064 Y204.677 E0.19157
G1 X183.618 Y204.844 E0.02043
G1 X183.618 Y209.157 E0.18487
G1 X183.658 Y209.417 E0.01127
G1 X183.826 Y209.847 E0.01982
G1 X184.024 Y210.137 E0.01501
G1 X189.864 Y215.976 E0.35403
G1 X190.095 Y216.143 E0.01221
G1 X190.499 Y216.317 E0.01888
G1 X190.843 Y216.382 E0.01501
G1 X195.156 Y216.382 E0.18487
G1 X194.971 Y216.829 E0.02071
G1 X190.838 Y216.829 E0.17718
G1 X190.364 Y216.743 E0.02062
G1 X189.87 Y216.528 E0.0231
G1 X189.552 Y216.296 E0.01689
G1 X186.627 Y213.371 E0.17732
G1 X183.697 Y210.44 E0.17766
G1 X183.43 Y210.053 E0.02016
G1 X183.224 Y209.52 E0.0245
G1 X183.171 Y209.162 E0.01549
G1 X183.171 Y205.029 E0.17718
G1 X182.725 Y205.277 E0.02188
G1 X182.725 Y209.165 E0.16668
G1 X182.791 Y209.625 E0.01994
G1 X183.033 Y210.256 E0.02895
G1 X183.371 Y210.746 E0.02554
G1 X186.136 Y213.511 E0.16763
G1 X186.489 Y213.864 E0.02136
G1 X189.238 Y216.613 E0.16669
G1 X189.648 Y216.915 E0.02181
G1 X190.232 Y217.169 E0.02732
G1 X190.83 Y217.275 E0.026
G1 X194.723 Y217.275 E0.16692
G1 X194.381 Y217.721 E0.02412
G1 X190.823 Y217.721 E0.15253
G1 X190.185 Y217.621 E0.02766
G1 X189.443 Y217.312 E0.03446
G1 X188.925 Y216.932 E0.02754
G1 X186.415 Y214.421 E0.15218
G1 X186.39 Y215.027 E0.02598
G1 X188.62 Y217.258 E0.13521
G1 X188.894 Y217.487 E0.01532
G1 X189.229 Y217.704 E0.01709
G1 X190.06 Y218.05 E0.03861
G1 X190.457 Y218.135 E0.01738
G1 X190.815 Y218.167 E0.01543
G1 X193.97 Y218.167 E0.13524
G1 X193.389 Y218.614 E0.03142
G1 X190.802 Y218.614 E0.11086
G1 X190.388 Y218.576 E0.01784
G1 X189.947 Y218.482 E0.01932
G1 X189.636 Y218.376 E0.01409
G1 X189.025 Y218.101 E0.02873
G1 X188.636 Y217.851 E0.01984
G1 X188.31 Y217.579 E0.01819
G1 X186.486 Y215.754 E0.11061
G1 E-1.2
; acceleration to travel
M204 S10000
G1 X191.479 Y218.509 F18000
; decel to extrusion
M204 S2000
G1 X192.478 Y219.06
; end travel
G1 E1.2 F1800
G1 X190.792 Y219.06 E0.07225
G1 X190.32 Y219.017 E0.02035
G1 X189.826 Y218.911 E0.02166
G1 X189.467 Y218.79 E0.01621
G1 X188.813 Y218.494 E0.03077
G1 X188.366 Y218.207 E0.02278
G1 X188 Y217.9 E0.02048
G1 X186.814 Y216.713 E0.07192
G1 E-1.2
; acceleration to travel
M204 S10000
G1 X185.785 Y214.106 F18000
; decel to extrusion
M204 S2000
G1 X185.579 Y213.585
; end travel
G1 E1.2 F1800
G1 X183.045 Y211.051 E0.15359
