; HEADER_BLOCK_START
; generated by OrcaSlicer 1.6.3 on 2023-06-13 at 13:30:54
; total layer number: 30
; HEADER_BLOCK_END

; THUMBNAIL_BLOCK_START
; THUMBNAIL_BLOCK_END

; external perimeters extrusion width = 0.40mm
; perimeters extrusion width = 0.45mm
; infill extrusion width = 0.45mm
; solid infill extrusion width = 0.40mm
; top infill extrusion width = 0.45mm
; first layer extrusion width = 0.50mm

; EXECUTABLE_BLOCK_START
EXCLUDE_OBJECT_DEFINE NAME=Middle_6_Cards.stl_id_0_copy_0 CENTER=170,180 POLYGON=[[136,133.5],[136.076,132.632],[136.302,131.79],[136.67,131],[137.17,130.286],[137.786,129.67],[138.5,129.17],[139.29,128.802],[140.132,128.576],[141,128.5],[199,128.5],[199.868,128.576],[200.71,128.802],[201.5,129.17],[202.214,129.67],[202.83,130.286],[203.33,131],[203.698,131.79],[203.924,132.632],[204,133.5],[204,226.5],[203.932,227.324],[203.728,228.126],[203.395,228.883],[202.942,229.575],[202.382,230.183],[201.728,230.69],[201,231.083],[199.2,231.496],[199.133,231.498],[199.067,231.5],[199,231.5],[141,231.5],[140.933,231.5],[140.867,231.498],[140.8,231.496],[139,231.083],[138.272,230.69],[137.618,230.183],[137.058,229.575],[136.605,228.883],[136.272,228.126],[136.068,227.324],[136,226.5],[136,133.5]]
M73 P0 R20
;TYPE:Custom
M140 S70
PRINT_START HOTEND=215 BED=70 CHAMBER=0
PRIME_NOZZLE
G90
G21
M83 ; use relative distances for extrusion
; filament start gcode
M106 S0
;LAYER_CHANGE
;Z:0.25
;HEIGHT:0.25
;BEFORE_LAYER_CHANGE
;0.25
G92 E0

G1 E-.8 F2100
G1 Z.4 F18000
;AFTER_LAYER_CHANGE
;0.25
SET_VELOCITY_LIMIT ACCEL_TO_DECEL=400
M204 S800
G1 X132.687 Y125.804
G1 Z.25
G1 E.8 F2400
;TYPE:Skirt
;WIDTH:0.5
G1 F1800
G1 X134.15 Y124.477 E.08978
G1 X134.864 Y123.977 E.03963
G1 X136.611 Y123.056 E.08978
G1 X137.649 Y122.678 E.05024
G1 X139.579 Y122.261 E.08978
G1 X141 Y122.161 E.06476
G1 X199.018 Y122.163 E2.63778
M73 P0 R19
G1 X200.421 Y122.261 E.06392
G1 X201.509 Y122.453 E.05023
G1 X203.389 Y123.056 E.08978
G1 X205.136 Y123.977 E.08978
G1 X206.696 Y125.187 E.08978
G1 X208.023 Y126.65 E.08978
G1 X209.075 Y128.321 E.08978
G1 X209.822 Y130.149 E.08978
G1 X210.239 Y132.079 E.08978
G1 X210.339 Y133.5 E.06475
G1 X210.339 Y226.5 E4.22823
G1 X210.249 Y227.849 E.06145
G1 X209.873 Y229.685 E.08521
G1 X209.199 Y231.433 E.08521
G1 X208.699 Y232.355 E.04768
G1 X207.601 Y233.874 E.08521
G1 X207.04 Y234.482 E.0376
G1 X205.614 Y235.698 E.08521
G1 X204.736 Y236.27 E.04768
G1 X204.007 Y236.663 E.0376
G1 X202.419 Y237.261 E.07717
G1 X200.619 Y237.674 E.08397
G1 X199.327 Y237.834 E.0592
G1 X140.673 Y237.834 E2.66667
G1 X139.381 Y237.674 E.0592
G1 X137.581 Y237.261 E.08397
G1 X135.993 Y236.663 E.07717
G1 X135.264 Y236.27 E.0376
G1 X134.386 Y235.698 E.04768
G1 X132.96 Y234.482 E.08521
G1 X132.399 Y233.874 E.0376
G1 X131.301 Y232.355 E.08521
G1 X130.801 Y231.433 E.04768
G1 X130.127 Y229.685 E.08521
G1 X129.751 Y227.849 E.08521
G1 X129.661 Y226.5 E.06145
G1 X129.661 Y133.5 E4.22823
M73 P1 R19
G1 X129.761 Y132.079 E.06475
G1 X129.953 Y130.991 E.05023
G1 X130.556 Y129.111 E.08978
G1 X130.925 Y128.321 E.03963
G1 X131.977 Y126.65 E.08978
G1 X132.649 Y125.85 E.04751
G1 X132.989 Y126.135 F18000
G1 F1800
G1 X133.003 Y126.119 E.00096
G1 X134.406 Y124.843 E.08624
G1 X135.12 Y124.343 E.03963
G1 X136.8 Y123.461 E.08624
G1 X137.765 Y123.11 E.0467
G1 X139.618 Y122.706 E.08624
G1 X140.486 Y122.63 E.03963
G1 X199.018 Y122.609 E2.66114
G1 X200.382 Y122.706 E.06215
G1 X201.393 Y122.884 E.0467
G1 X203.2 Y123.461 E.08624
G1 X204.88 Y124.343 E.08624
G1 X206.381 Y125.503 E.08624
G1 X207.657 Y126.906 E.08624
G1 X208.157 Y127.62 E.03963
G1 X209.039 Y129.3 E.08624
G1 X209.616 Y131.107 E.08624
G1 X209.87 Y132.986 E.08624
G1 X209.893 Y226.5 E4.25158
G1 X209.804 Y227.812 E.05977
G1 X209.44 Y229.575 E.08185
G1 X208.79 Y231.254 E.08185
G1 X208.326 Y232.111 E.04432
G1 X207.273 Y233.571 E.08185
G1 X206.712 Y234.179 E.0376
G1 X205.341 Y235.346 E.08185
G1 X204.524 Y235.877 E.04432
G1 X203.796 Y236.27 E.0376
G1 X202.319 Y236.826 E.07173
G1 X200.519 Y237.239 E.08397
G1 X199.318 Y237.388 E.05503
G1 X140.682 Y237.388 E2.66586
G1 X139.481 Y237.239 E.05503
G1 X137.681 Y236.826 E.08397
G1 X136.204 Y236.27 E.07173
G1 X135.476 Y235.877 E.0376
G1 X134.659 Y235.346 E.04432
G1 X133.288 Y234.179 E.08185
G1 X132.727 Y233.571 E.0376
G1 X131.674 Y232.111 E.08185
G1 X131.21 Y231.254 E.04432
G1 X130.56 Y229.575 E.08185
G1 X130.196 Y227.812 E.08185
G1 X130.107 Y226.5 E.05977
G1 X130.107 Y133.5 E4.22823
M73 P2 R19
G1 X130.206 Y132.118 E.06298
G1 X130.384 Y131.107 E.0467
G1 X130.961 Y129.3 E.08625
G1 X131.329 Y128.51 E.03963
G1 X132.343 Y126.906 E.08624
G1 X132.951 Y126.181 E.04301
G1 X133.292 Y126.467 F18000
G1 F1800
G1 X133.319 Y126.435 E.00192
G1 X134.662 Y125.208 E.08271
G1 X135.376 Y124.708 E.03963
G1 X136.988 Y123.865 E.08271
G1 X137.88 Y123.541 E.04316
G1 X139.657 Y123.15 E.08271
G1 X140.525 Y123.074 E.03963
G1 X199.018 Y123.055 E2.65937
G1 X200.343 Y123.15 E.06038
G1 X201.278 Y123.315 E.04316
G1 X203.012 Y123.865 E.08271
G1 X204.624 Y124.708 E.08271
G1 X206.065 Y125.819 E.08271
G1 X207.292 Y127.162 E.08271
G1 X207.792 Y127.876 E.03963
G1 X208.635 Y129.488 E.08271
G1 X209.185 Y131.222 E.08271
G1 X209.426 Y133.025 E.08271
G1 X209.446 Y226.5 E4.24981
G1 X209.359 Y227.775 E.05809
G1 X209.007 Y229.465 E.0785
G1 X208.382 Y231.074 E.0785
G1 X207.952 Y231.866 E.04096
G1 X207.499 Y232.558 E.0376
G1 X206.384 Y233.877 E.0785
G1 X205.067 Y234.993 E.0785
G1 X204.312 Y235.485 E.04096
G1 X203.584 Y235.877 E.0376
G1 X202.219 Y236.391 E.0663
G1 X200.419 Y236.804 E.08397
G1 X199.309 Y236.941 E.05086
G1 X140.691 Y236.941 E2.66505
G1 X139.581 Y236.804 E.05086
G1 X137.781 Y236.391 E.08397
G1 X136.416 Y235.877 E.0663
G1 X135.688 Y235.485 E.0376
G1 X134.933 Y234.993 E.04096
G1 X133.616 Y233.877 E.0785
G1 X132.501 Y232.558 E.0785
G1 X132.048 Y231.866 E.0376
G1 X131.618 Y231.074 E.04096
G1 X130.993 Y229.465 E.0785
G1 X130.641 Y227.775 E.0785
G1 X130.554 Y226.5 E.05809
G1 X130.554 Y133.5 E4.22823
M73 P3 R19
G1 X130.65 Y132.157 E.06121
G1 X130.815 Y131.222 E.04316
G1 X131.365 Y129.488 E.08271
G1 X131.734 Y128.698 E.03963
G1 X132.708 Y127.162 E.08271
G1 X133.253 Y126.513 E.03852
; printing object Middle 6 Cards.stl id:0 copy 0
EXCLUDE_OBJECT_START NAME=Middle_6_Cards.stl_id_0_copy_0
G1 E-.56 F2100
;WIPE_START
G1 F1800
G1 X133.319 Y126.435 E-.01165
G1 X134.662 Y125.208 E-.20739
G1 X134.727 Y125.163 E-.00896
;WIPE_END
G1 E-.012 F2100
G1 Z.65 F18000
G1 X202.657 Y218.663
G1 Z.25
G1 E.8 F2400
;TYPE:Inner wall
;WIDTH:0.499999
G1 F1800
G1 X202.608 Y218.598 E.0037
G1 X202.044 Y218.118 E.03369
G1 X201.374 Y217.799 E.03372
G1 X200.607 Y217.663 E.03541
G1 X199.907 Y217.724 E.03196
G1 X199.209 Y217.972 E.03369
G1 X198.943 Y218.128 E.01402
G1 X198.943 Y204.843 E.604
G1 X199.682 Y204.917 E.03377
G1 X200.324 Y205.105 E.03042
G1 X200.914 Y205.402 E.03
G1 X201.436 Y205.794 E.0297
G1 X201.877 Y206.27 E.02948
G1 X202.225 Y206.812 E.0293
G1 X202.471 Y207.404 E.02916
G1 X202.61 Y208.028 E.02903
G1 X202.657 Y208.642 E.02801
G1 X202.657 Y218.603 E.45288
G1 E-.56 F2100
;WIPE_START
G1 F1800
G1 X202.608 Y218.598 E-.00568
G1 X202.044 Y218.118 E-.08448
G1 X201.374 Y217.799 E-.08455
G1 X200.914 Y217.717 E-.05329
;WIPE_END
G1 E-.012 F2100
G1 Z.65 F18000
G1 X198.895 Y222.058
G1 Z.25
G1 E.8 F2400
;WIDTH:0.390767
G1 F1800
G1 X198.721 Y222.151 E.00678
G1 X198.518 Y222.508 E.01408
G1 X198.442 Y222.935 E.01489
G1 X198.442 Y221.536 E.04803
G1 X198.617 Y221.8 E.01086
G1 X198.851 Y222.017 E.01096
G1 E-.56 F2100
;WIPE_START
G1 F1800
G1 X198.721 Y222.151 E-.02129
G1 X198.518 Y222.508 E-.04674
G1 X198.442 Y222.935 E-.04945
G1 X198.442 Y221.965 E-.11052
;WIPE_END
G1 E-.012 F2100
G1 Z.65 F18000
G1 X202.657 Y222.254
G1 Z.25
G1 E.8 F2400
;WIDTH:0.500976
G1 F1800
G1 X202.671 Y223.041 E.03587
;WIDTH:0.471637
G1 X202.688 Y223.682 E.02727
;WIDTH:0.439531
G1 X202.689 Y226.438 E.10834
;WIDTH:0.436177
G1 X202.648 Y227.11 E.02623
;WIDTH:0.408777
G1 X202.5 Y227.694 E.02182
G1 X202.297 Y228.121 E.0171
G1 X202.295 Y227.081 E.03765
;WIDTH:0.436177
G1 X202.307 Y226.438 E.02504
;WIDTH:0.439531
G1 X202.302 Y223.682 E.10834
;WIDTH:0.471637
G1 X202.255 Y223.065 E.02636
;WIDTH:0.500976
G1 X202.171 Y222.652 E.01917
G1 X202.304 Y222.58 E.00688
G1 X202.613 Y222.295 E.01914
G1 E-.56 F2100
;WIPE_START
G1 F1800
G1 X202.671 Y223.041 E-.08534
G1 X202.688 Y223.682 E-.07301
G1 X202.688 Y224.292 E-.06964
;WIPE_END
G1 E-.012 F2100
G1 Z.65 F18000
G1 X197.775 Y227.795
G1 Z.25
G1 E.8 F2400
;WIDTH:0.671246
G1 F1800
G1 X197.773 Y229.758 E.12345
G1 X197.08 Y229.155 E.05777
G1 X197.748 Y227.849 E.09229
G1 E-.56 F2100
;WIPE_START
G1 F1800
G1 X197.773 Y229.758 E-.21764
G1 X197.705 Y229.698 E-.01036
;WIPE_END
G1 E-.012 F2100
G1 Z.65 F18000
G1 X198.31 Y225.581
G1 Z.25
G1 E.8 F2400
;WIDTH:0.499999
G1 F1800
G1 X198.304 Y230.604 E.22834
G1 X197.935 Y230.604 E.01678
G1 X196.913 Y229.715 E.06156
G1 X196.48 Y229.309 E.02701
G1 X196.493 Y229.135 E.00792
G1 X198.282 Y225.635 E.17872
G1 E-.56 F2100
;WIPE_START
G1 F1800
G1 X198.291 Y227.635 E-.228
;WIPE_END
G1 E-.012 F2100
G1 Z.65 F18000
G1 X202.491 Y221.772
G1 Z.25
G1 E.8 F2400
G1 F1800
G1 X202.586 Y221.637 E.00754
G1 X202.757 Y221.22 E.0205
;WIDTH:0.461511
G1 X202.788 Y221.033 E.00786
;WIDTH:0.41427
G1 X202.834 Y220.421 E.02256
;WIDTH:0.421308
G1 X202.802 Y220.112 E.01161
;WIDTH:0.45971
G1 X202.77 Y219.804 E.01282
;WIDTH:0.499999
G1 X202.616 Y219.379 E.02054
G1 X202.254 Y218.87 E.02842
G1 X201.772 Y218.472 E.02842
G1 X201.203 Y218.211 E.02844
G1 X200.561 Y218.106 E.02959
G1 X199.965 Y218.166 E.02722
G1 X199.379 Y218.384 E.02842
G1 X198.87 Y218.746 E.02842
G1 X198.496 Y219.196 E.02657
G1 X198.496 Y204.175 E.68294
G1 X198.714 Y204.374 E.01343
G1 X199.711 Y204.463 E.04549
G1 X200.401 Y204.649 E.03249
G1 X201.048 Y204.951 E.03249
G1 X201.634 Y205.361 E.03249
G1 X202.139 Y205.866 E.03249
G1 X202.549 Y206.452 E.03249
G1 X202.851 Y207.099 E.03249
G1 X202.985 Y207.597 E.02342
G1 X203.055 Y207.988 E.01807
G1 X203.104 Y208.642 E.0298
G1 X203.104 Y219.282 E.48377
G1 X203.126 Y219.615 E.01516
;WIDTH:0.456185
G1 X203.147 Y219.948 E.01367
;WIDTH:0.412371
G1 X203.164 Y220.5 E.02019
;WIDTH:0.416565
G1 X203.145 Y221.087 E.02171
;WIDTH:0.458282
G1 X203.125 Y221.419 E.0137
;WIDTH:0.499999
G1 X203.104 Y221.75 E.01511
G1 X203.104 Y226.463 E.21425
G1 X203.044 Y227.176 E.03253
G1 X202.878 Y227.834 E.03084
G1 X202.605 Y228.455 E.03084
G1 X202.233 Y229.022 E.03084
G1 X201.854 Y229.434 E.02546
G1 X201.888 Y228.901 E.02427
G1 X201.896 Y228.122 E.03539
G1 X201.886 Y223.683 E.20184
G1 X201.806 Y223.013 E.03068
G1 X201.667 Y222.498 E.02425
G1 X201.573 Y222.424 E.00542
G1 X202.046 Y222.215 E.02353
G1 X202.447 Y221.834 E.02513
G1 X202.456 Y221.821 E.00071
G1 X202.155 Y221.473 F18000
;TYPE:Outer wall
G1 F1800
G1 X202.134 Y221.515 E.00215
G1 X201.743 Y221.875 E.02416
G1 X201.354 Y222.011 E.01876
;WIDTH:0.461527
G1 X200.964 Y222.146 E.01714
;WIDTH:0.423054
G1 X200.479 Y222.188 E.01832
;WIDTH:0.403235
G1 X200.254 Y222.167 E.00803
;WIDTH:0.428374
G1 X200.03 Y222.147 E.00861
;WIDTH:0.464187
G1 X199.659 Y222.005 E.01659
;WIDTH:0.499999
G1 X199.289 Y221.863 E.01804
G1 X198.883 Y221.513 E.02434
;WIDTH:0.538989
G1 X198.619 Y221.054 E.02617
G1 X198.537 Y220.534 E.02603
;WIDTH:0.528582
G1 X198.537 Y220.47 E.00313
;WIDTH:0.537957
G1 X198.606 Y219.96 E.02537
G1 X198.826 Y219.5 E.02515
;WIDTH:0.499999
G1 X199.142 Y219.101 E.02315
G1 X199.55 Y218.797 E.02315
G1 X200.023 Y218.609 E.02315
G1 X200.519 Y218.551 E.0227
G1 X201.032 Y218.624 E.02356
G1 X201.5 Y218.826 E.02317
G1 X201.899 Y219.142 E.02315
G1 X202.203 Y219.55 E.02315
G1 X202.391 Y220.024 E.02315
G1 X202.45 Y220.531 E.02321
G1 X202.369 Y221.041 E.02348
G1 X202.182 Y221.419 E.01921
G1 X202.161 Y221.481
G1 E-.56 F2100
;WIPE_START
G1 F1800
G1 X202.134 Y221.515 E-.01222
G1 X201.743 Y221.875 E-.06058
G1 X201.354 Y222.011 E-.04704
G1 X200.964 Y222.146 E-.04704
G1 X200.479 Y222.188 E-.05549
G1 X200.43 Y222.183 E-.00563
;WIPE_END
G1 E-.012 F2100
G1 Z.65 F18000
G1 X142.92 Y229.155
G1 Z.25
G1 E.8 F2400
;TYPE:Inner wall
;WIDTH:0.671246
G1 F1800
G1 X142.227 Y229.758 E.05777
G1 X142.225 Y227.795 E.12345
G1 X142.892 Y229.102 E.09229
G1 X143.47 Y229.101 F18000
;WIDTH:0.499999
G1 F1800
G1 X143.534 Y229.241 E.00697
G1 X143.457 Y229.393 E.00777
G1 X142.065 Y230.604 E.08388
G1 X141.696 Y230.604 E.01678
G1 X141.69 Y225.581 E.22834
G1 X143.283 Y228.698 E.15914
G1 X143.445 Y229.047 E.01748
G1 E-.56 F2100
;WIPE_START
G1 F1800
G1 X143.534 Y229.241 E-.02433
G1 X143.457 Y229.393 E-.01948
G1 X142.238 Y230.453 E-.18419
;WIPE_END
G1 E-.012 F2100
G1 Z.65 F18000
M73 P4 R19
G1 X141.105 Y222.058
G1 Z.25
G1 E.8 F2400
;WIDTH:0.390768
G1 F1800
G1 X141.383 Y221.8 E.01302
G1 X141.558 Y221.536 E.01086
G1 X141.558 Y222.935 E.04802
G1 X141.482 Y222.508 E.01489
G1 X141.279 Y222.151 E.01408
G1 X141.158 Y222.086 E.00472
G1 E-.56 F2100
;WIPE_START
G1 F1800
G1 X141.383 Y221.8 E-.04153
G1 X141.558 Y221.536 E-.03607
G1 X141.558 Y222.856 E-.1504
;WIPE_END
G1 E-.012 F2100
G1 Z.65 F18000
G1 X137.739 Y222.59
G1 Z.25
G1 E.8 F2400
;WIDTH:0.500976
G1 F1800
G1 X137.829 Y222.652 E.00496
G1 X137.742 Y223.115 E.02144
;WIDTH:0.468964
G1 X137.691 Y224.179 E.04507
;WIDTH:0.434464
G1 X137.704 Y227.08 E.11255
;WIDTH:0.407841
G1 X137.704 Y228.162 E.03903
G1 X137.5 Y227.695 E.01841
G1 X137.35 Y227.095 E.02229
;WIDTH:0.434464
G1 X137.31 Y226.446 E.02524
G1 X137.31 Y224.179 E.08792
;WIDTH:0.435877
G1 X137.311 Y224.094 E.0033
;WIDTH:0.468427
G1 X137.327 Y223.428 E.02813
;WIDTH:0.500976
G1 X137.343 Y222.254 E.05351
G1 X137.558 Y222.465 E.01371
G1 X137.69 Y222.556 E.0073
G1 E-.56 F2100
;WIPE_START
G1 F1800
G1 X137.829 Y222.652 E-.01925
G1 X137.742 Y223.115 E-.05365
G1 X137.691 Y224.179 E-.12146
G1 X137.692 Y224.474 E-.03364
;WIPE_END
G1 E-.012 F2100
G1 Z.65 F18000
G1 X137.343 Y218.663
G1 Z.25
G1 E.8 F2400
;WIDTH:0.499999
G1 F1800
G1 X137.343 Y208.559 E.45935
G1 X137.404 Y207.868 E.03158
G1 X137.569 Y207.253 E.02895
G1 X137.839 Y206.676 E.02895
G1 X138.204 Y206.154 E.02895
G1 X138.654 Y205.704 E.02895
G1 X139.176 Y205.339 E.02895
G1 X139.753 Y205.069 E.02895
G1 X140.368 Y204.904 E.02895
G1 X141.057 Y204.843 E.03148
G1 X141.057 Y217.342 E.56828
G1 X141.044 Y218.118 E.03525
G1 X140.374 Y217.799 E.03372
G1 X139.631 Y217.665 E.03431
G1 X138.907 Y217.724 E.03303
G1 X138.209 Y217.972 E.03369
G1 X137.598 Y218.392 E.03369
G1 X137.384 Y218.619 E.01419
G1 E-.56 F2100
;WIPE_START
G1 F1800
G1 X137.376 Y216.619 E-.228
;WIPE_END
G1 E-.012 F2100
G1 Z.65 F18000
G1 X138.417 Y222.42
G1 Z.25
G1 E.8 F2400
G1 F1800
G1 X138.427 Y222.424 E.00048
G1 X138.333 Y222.498 E.00542
G1 X138.172 Y223.143 E.03025
G1 X138.104 Y224.179 E.04718
G1 X138.106 Y228.662 E.20381
G1 X138.158 Y229.446 E.03573
G1 X137.767 Y229.022 E.02624
G1 X137.395 Y228.455 E.03084
G1 X137.122 Y227.834 E.03084
G1 X136.956 Y227.176 E.03084
G1 X136.896 Y226.463 E.03253
G1 X136.896 Y221.75 E.21425
G1 X136.875 Y221.404 E.01578
;WIDTH:0.457136
G1 X136.853 Y221.058 E.01426
;WIDTH:0.414272
G1 X136.836 Y220.5 E.02049
;WIDTH:0.412369
G1 X136.853 Y219.948 E.02019
;WIDTH:0.456184
G1 X136.874 Y219.615 E.01367
;WIDTH:0.499999
G1 X136.896 Y219.282 E.01516
G1 X136.896 Y208.54 E.48841
G1 X136.963 Y207.789 E.03425
G1 X137.149 Y207.099 E.03249
G1 X137.451 Y206.452 E.03249
G1 X137.861 Y205.866 E.03249
G1 X138.366 Y205.361 E.03249
G1 X138.952 Y204.951 E.03249
G1 X139.599 Y204.649 E.03249
G1 X140.289 Y204.463 E.03249
G1 X141.286 Y204.374 E.04549
G1 X141.504 Y204.175 E.01343
G1 X141.504 Y219.196 E.68294
G1 X141.254 Y218.87 E.01867
G1 X140.772 Y218.472 E.02842
G1 X140.203 Y218.211 E.02844
G1 X139.575 Y218.108 E.02893
G1 X138.965 Y218.166 E.02786
G1 X138.379 Y218.384 E.02842
G1 X137.87 Y218.746 E.02842
G1 X137.472 Y219.228 E.02842
G1 X137.23 Y219.804 E.0284
;WIDTH:0.45971
G1 X137.21 Y219.971 E.00697
;WIDTH:0.412369
G1 X137.166 Y220.584 E.02244
;WIDTH:0.422386
G1 X137.204 Y220.902 E.01203
;WIDTH:0.461512
G1 X137.243 Y221.22 E.01331
;WIDTH:0.499999
G1 X137.414 Y221.637 E.0205
G1 X137.553 Y221.834 E.01097
G1 X137.954 Y222.215 E.02513
G1 X138.362 Y222.396 E.02032
G1 X139.033 Y222.147 F18000
;TYPE:Outer wall
;WIDTH:0.462861
G1 F1800
G1 X138.733 Y222.046 E.01321
;WIDTH:0.499999
