; HEADER_BLOCK_START
; generated by OrcaSlicer 1.6.3 on 2023-06-13 at 13:28:42
; total layer number: 37
; HEADER_BLOCK_END

; THUMBNAIL_BLOCK_START
; THUMBNAIL_BLOCK_END

; external perimeters extrusion width = 0.40mm
; perimeters extrusion width = 0.45mm
; infill extrusion width = 0.45mm
; solid infill extrusion width = 0.40mm
; top infill extrusion width = 0.45mm
; first layer extrusion width = 0.50mm

; external perimeters extrusion width = 0.40mm
; perimeters extrusion width = 0.45mm
; infill extrusion width = 0.45mm
; solid infill extrusion width = 0.40mm
; top infill extrusion width = 0.45mm
; first layer extrusion width = 0.50mm

; external perimeters extrusion width = 0.40mm
; perimeters extrusion width = 0.45mm
; infill extrusion width = 0.45mm
; solid infill extrusion width = 0.40mm
; top infill extrusion width = 0.45mm
; first layer extrusion width = 0.50mm

; external perimeters extrusion width = 0.40mm
; perimeters extrusion width = 0.45mm
; infill extrusion width = 0.45mm
; solid infill extrusion width = 0.40mm
; top infill extrusion width = 0.45mm
; first layer extrusion width = 0.50mm

; EXECUTABLE_BLOCK_START
EXCLUDE_OBJECT_DEFINE NAME=Bottom_(1).stl_id_0_copy_0 CENTER=211.5,192 POLYGON=[[177.5,145.5],[177.576,144.632],[177.802,143.79],[178.17,143],[178.67,142.286],[179.286,141.67],[180,141.17],[180.79,140.802],[181.632,140.576],[182.5,140.5],[240.5,140.5],[241.368,140.576],[242.21,140.802],[243,141.17],[243.714,141.67],[244.33,142.286],[244.83,143],[245.198,143.79],[245.424,144.632],[245.5,145.5],[245.5,238.5],[245.424,239.368],[245.198,240.21],[244.83,241],[244.33,241.714],[243.714,242.33],[243,242.83],[242.21,243.198],[241.368,243.424],[240.5,243.5],[182.5,243.5],[181.632,243.424],[180.79,243.198],[180,242.83],[179.286,242.33],[178.67,241.714],[178.17,241],[177.802,240.21],[177.576,239.368],[177.5,238.5],[177.5,145.5]]
EXCLUDE_OBJECT_DEFINE NAME=Top_with_Lever.stl_id_1_copy_0 CENTER=138.5,192 POLYGON=[[104.5,145.5],[104.576,144.632],[104.802,143.79],[105.17,143],[105.67,142.286],[106.286,141.67],[107,141.17],[107.79,140.802],[108.632,140.576],[109.5,140.5],[167.5,140.5],[168.368,140.576],[169.21,140.802],[170,141.17],[170.714,141.67],[171.33,142.286],[171.83,143],[172.198,143.79],[172.424,144.632],[172.5,145.5],[172.5,238.5],[172.424,239.368],[172.198,240.21],[171.83,241],[171.33,241.714],[170.714,242.33],[170,242.83],[169.21,243.198],[168.368,243.424],[167.5,243.5],[109.5,243.5],[108.632,243.424],[107.79,243.198],[107,242.83],[106.286,242.33],[105.67,241.714],[105.17,241],[104.802,240.21],[104.576,239.368],[104.5,238.5],[104.5,145.5]]
EXCLUDE_OBJECT_DEFINE NAME=Card_Pusher_6_Cards.stl_id_2_copy_0 CENTER=170.413,129.5 POLYGON=[[147.145,124.293],[147.188,123.5],[187.688,123.5],[188.295,123.531],[188.896,123.623],[189.484,123.775],[190.054,123.986],[190.6,124.254],[191.116,124.575],[191.597,124.947],[192.037,125.366],[192.433,125.827],[192.78,126.326],[193.075,126.858],[193.315,127.416],[193.497,127.996],[193.619,128.591],[193.681,129.196],[193.681,129.804],[193.619,130.409],[193.497,131.004],[193.315,131.584],[193.075,132.142],[192.78,132.674],[192.433,133.173],[192.037,133.634],[191.597,134.053],[191.116,134.425],[190.6,134.746],[190.054,135.014],[189.484,135.225],[188.896,135.377],[188.295,135.469],[187.688,135.5],[158.143,135.5],[157.349,135.471],[156.559,135.385],[155.777,135.243],[155.008,135.044],[154.255,134.79],[153.522,134.482],[152.813,134.123],[152.133,133.713],[151.483,133.255],[150.869,132.751],[150.292,132.205],[149.756,131.618],[149.264,130.994],[148.819,130.336],[148.422,129.648],[148.075,128.932],[147.782,128.194],[147.542,127.437],[147.358,126.664],[147.23,125.879],[147.158,125.088],[147.145,124.293]]
EXCLUDE_OBJECT_DEFINE NAME=Lever.stl_id_3_copy_0 CENTER=170.125,112.5 POLYGON=[[148.531,112.215],[148.585,111.646],[148.693,111.085],[148.854,110.538],[149.066,110.008],[149.328,109.5],[149.637,109.02],[149.99,108.571],[150.384,108.158],[150.815,107.784],[151.28,107.452],[151.775,107.167],[152.294,106.93],[152.834,106.743],[153.389,106.608],[153.954,106.527],[154.524,106.5],[191.237,106.5],[191.429,107.825],[191.574,109.157],[191.67,110.492],[191.718,111.83],[191.718,113.17],[191.67,114.508],[191.574,115.843],[191.429,117.175],[191.237,118.5],[154.524,118.5],[153.954,118.473],[153.389,118.392],[152.834,118.257],[152.294,118.07],[151.775,117.833],[151.28,117.548],[150.815,117.216],[150.384,116.842],[149.99,116.429],[149.637,115.98],[149.328,115.5],[149.066,114.992],[148.854,114.462],[148.693,113.915],[148.585,113.354],[148.531,112.785],[148.531,112.215]]
M73 P0 R65
;TYPE:Custom
M140 S70
PRINT_START HOTEND=215 BED=70 CHAMBER=0
PRIME_NOZZLE
G90
G21
M83 ; use relative distances for extrusion
; filament start gcode
M106 S0
;LAYER_CHANGE
;Z:0.25
;HEIGHT:0.25
;BEFORE_LAYER_CHANGE
;0.25
G92 E0

G1 E-.8 F2100
G1 Z.4 F18000
;AFTER_LAYER_CHANGE
;0.25
SET_VELOCITY_LIMIT ACCEL_TO_DECEL=400
M204 S800
G1 X103.412 Y135.891
G1 Z.25
G1 E.8 F2400
;TYPE:Skirt
;WIDTH:0.5
G1 F1800
G1 X146.976 Y102.739 E2.48895
G1 X148.111 Y101.963 E.0625
G1 X149.661 Y101.164 E.07928
G1 X150.761 Y100.753 E.05337
G1 X151.894 Y100.448 E.05337
G1 X153.052 Y100.253 E.05337
G1 X154.524 Y100.161 E.06707
G1 X191.237 Y100.161 E1.66915
G1 X193.445 Y100.558 E.10198
G1 X194.765 Y101.233 E.06741
G1 X247.35 Y136.477 E2.87808
G1 X248.813 Y137.804 E.08978
G1 X249.523 Y138.65 E.05024
G1 X250.023 Y139.364 E.03963
G1 X250.944 Y141.111 E.08978
G1 X251.547 Y142.991 E.08978
G1 X251.739 Y144.079 E.05023
G1 X251.839 Y145.5 E.06475
G1 X251.839 Y238.5 E4.22822
G1 X251.739 Y239.921 E.06475
G1 X251.322 Y241.851 E.08978
G1 X250.944 Y242.889 E.05024
G1 X250.023 Y244.636 E.08978
G1 X248.813 Y246.196 E.08978
G1 X248.196 Y246.813 E.03963
G1 X247.35 Y247.523 E.05024
G1 X245.679 Y248.575 E.08978
G1 X244.889 Y248.944 E.03963
G1 X243.009 Y249.547 E.08978
G1 X241.921 Y249.739 E.05023
G1 X240.5 Y249.839 E.06475
G1 X109.5 Y249.839 E5.95589
G1 X108.079 Y249.739 E.06475
G1 X106.149 Y249.322 E.08978
G1 X105.111 Y248.944 E.05024
G1 X103.364 Y248.023 E.08978
G1 X102.65 Y247.523 E.03963
G1 X101.187 Y246.196 E.08978
G1 X100.477 Y245.35 E.05024
G1 X99.425 Y243.679 E.08978
G1 X98.678 Y241.851 E.08978
G1 X98.453 Y241.009 E.03963
G1 X98.261 Y239.921 E.05023
G1 X98.161 Y238.5 E.06475
G1 X98.161 Y145.5 E4.22823
M73 P0 R64
G1 X98.261 Y144.079 E.06475
G1 X98.678 Y142.149 E.08978
G1 X99.056 Y141.111 E.05024
G1 X99.977 Y139.364 E.08978
G1 X101.187 Y137.804 E.08978
G1 X102.447 Y136.625 E.07843
G1 X103.364 Y135.928 E.05237
G1 X103.634 Y136.283 F18000
G1 F1800
G1 X147.247 Y103.094 E2.49168
G1 X148.334 Y102.349 E.05993
G1 X149.846 Y101.57 E.07735
G1 X150.906 Y101.174 E.05144
G1 X151.999 Y100.882 E.05144
G1 X153.115 Y100.694 E.05144
G1 X154.524 Y100.607 E.06418
G1 X191.237 Y100.607 E1.66915
G1 X193.362 Y101.004 E.09829
G1 X194.516 Y101.604 E.05913
G1 X247.094 Y136.843 E2.87766
G1 X247.881 Y137.503 E.0467
G1 X249.157 Y138.906 E.08624
G1 X249.657 Y139.62 E.03963
G1 X250.539 Y141.3 E.08624
G1 X251.116 Y143.107 E.08625
G1 X251.294 Y144.118 E.0467
G1 X251.393 Y145.5 E.06298
G1 X251.393 Y238.5 E4.22822
G1 X251.294 Y239.882 E.06298
G1 X250.89 Y241.735 E.08624
G1 X250.539 Y242.7 E.0467
G1 X249.657 Y244.38 E.08624
G1 X249.157 Y245.094 E.03963
G1 X247.881 Y246.497 E.08624
G1 X247.094 Y247.157 E.0467
G1 X245.49 Y248.171 E.08624
G1 X243.735 Y248.89 E.08624
G1 X242.893 Y249.116 E.03962
G1 X241.882 Y249.294 E.0467
G1 X240.5 Y249.393 E.06298
G1 X109.5 Y249.393 E5.95589
G1 X108.118 Y249.294 E.06298
G1 X106.265 Y248.89 E.08624
G1 X105.3 Y248.539 E.0467
G1 X103.62 Y247.657 E.08624
G1 X102.906 Y247.157 E.03963
G1 X101.503 Y245.881 E.08624
G1 X100.843 Y245.094 E.0467
G1 X99.829 Y243.49 E.08624
G1 X99.11 Y241.735 E.08625
G1 X98.884 Y240.893 E.03963
G1 X98.706 Y239.882 E.0467
G1 X98.607 Y238.5 E.06298
G1 X98.607 Y145.5 E4.22823
G1 X98.706 Y144.118 E.06298
G1 X99.11 Y142.265 E.08624
G1 X99.461 Y141.3 E.0467
G1 X100.343 Y139.62 E.08624
G1 X101.503 Y138.119 E.08624
G1 X102.718 Y136.98 E.0757
G1 X103.586 Y136.319 E.04964
G1 X103.857 Y136.674 F18000
G1 F1800
G1 X147.517 Y103.45 E2.49441
G1 X148.557 Y102.736 E.05735
G1 X150.032 Y101.976 E.07542
G1 X151.052 Y101.596 E.04951
G1 X152.105 Y101.316 E.04951
M73 P1 R64
G1 X153.179 Y101.136 E.04951
G1 X154.524 Y101.054 E.06128
G1 X191.237 Y101.054 E1.66915
G1 X193.277 Y101.45 E.09446
G1 X194.268 Y101.975 E.051
G1 X246.838 Y137.208 E2.87724
G1 X248.181 Y138.435 E.08271
G1 X248.792 Y139.162 E.04316
G1 X249.292 Y139.876 E.03963
G1 X250.135 Y141.488 E.08271
G1 X250.685 Y143.222 E.08271
G1 X250.85 Y144.157 E.04316
G1 X250.946 Y145.5 E.06121
G1 X250.946 Y238.5 E4.22822
G1 X250.85 Y239.843 E.06121
G1 X250.459 Y241.62 E.08271
G1 X250.135 Y242.512 E.04316
G1 X249.292 Y244.124 E.08271
G1 X248.181 Y245.565 E.08271
G1 X247.565 Y246.181 E.03963
G1 X246.838 Y246.792 E.04316
G1 X245.302 Y247.766 E.08271
G1 X244.512 Y248.135 E.03963
G1 X242.778 Y248.685 E.08271
G1 X241.843 Y248.85 E.04316
G1 X240.5 Y248.946 E.06121
G1 X109.5 Y248.946 E5.95589
G1 X108.157 Y248.85 E.06121
G1 X106.38 Y248.459 E.08271
G1 X105.488 Y248.135 E.04316
G1 X103.876 Y247.292 E.08271
G1 X102.435 Y246.181 E.08271
G1 X101.819 Y245.565 E.03962
G1 X101.208 Y244.838 E.04316
G1 X100.234 Y243.302 E.08271
G1 X99.541 Y241.62 E.08271
G1 X99.315 Y240.778 E.03963
G1 X99.15 Y239.843 E.04316
G1 X99.054 Y238.5 E.06121
G1 X99.054 Y145.5 E4.22823
G1 X99.15 Y144.157 E.06121
G1 X99.541 Y142.38 E.08271
G1 X99.865 Y141.488 E.04316
G1 X100.708 Y139.876 E.08271
G1 X101.819 Y138.435 E.08271
G1 X102.988 Y137.336 E.07296
G1 X103.809 Y136.711 E.04691
; printing object Bottom (1).stl id:0 copy 0
EXCLUDE_OBJECT_START NAME=Bottom_(1).stl_id_0_copy_0
G1 E-.56 F2100
;WIPE_START
G1 F1800
G1 X105.401 Y135.5 E-.228
;WIPE_END
G1 E-.012 F2100
G1 Z.65 F18000
G1 X243.483 Y234.896
G1 Z.25
G1 E.8 F2400
;TYPE:Inner wall
;WIDTH:0.499999
G1 F1800
G1 X243.902 Y234.608 E.02312
G1 X244.157 Y234.337 E.01692
G1 X244.157 Y238.441 E.1866
G1 X244.097 Y239.134 E.03162
G1 X243.932 Y239.749 E.02894
G1 X243.663 Y240.326 E.02894
G1 X243.298 Y240.848 E.02894
G1 X242.848 Y241.298 E.02894
G1 X242.326 Y241.663 E.02894
G1 X241.749 Y241.932 E.02894
G1 X241.134 Y242.097 E.02894
G1 X240.441 Y242.157 E.03162
G1 X182.559 Y242.157 E2.63162
G1 X181.866 Y242.097 E.03162
G1 X181.251 Y241.932 E.02894
G1 X180.674 Y241.663 E.02894
G1 X180.155 Y241.3 E.0288
G1 X179.688 Y240.827 E.03019
G1 X179.337 Y240.326 E.02782
G1 X179.068 Y239.749 E.02894
G1 X178.903 Y239.134 E.02894
G1 X178.843 Y238.441 E.03162
G1 X178.843 Y234.337 E.1866
G1 X179.098 Y234.608 E.01692
G1 X179.709 Y235.028 E.03369
G1 X180.407 Y235.276 E.03369
G1 X181.146 Y235.335 E.03369
G1 X181.752 Y235.243 E.02787
G1 X182.291 Y235.028 E.02642
G1 X182.544 Y234.882 E.01324
G1 X183.014 Y234.509 E.02732
G1 X183.382 Y234.044 E.02696
G1 X183.528 Y233.791 E.01324
G1 X183.761 Y233.183 E.02963
G1 X183.835 Y232.646 E.02465
G1 X183.835 Y232.354 E.01324
G1 X183.719 Y231.673 E.03143
G1 X183.528 Y231.209 E.02282
G1 X183.382 Y230.956 E.01324
G1 X182.948 Y230.43 E.03105
G1 X182.544 Y230.118 E.02321
G1 X182.291 Y229.972 E.01324
G1 X181.748 Y229.756 E.02658
G1 X181.146 Y229.665 E.02771
G1 X180.407 Y229.724 E.03369
G1 X179.709 Y229.972 E.03369
G1 X179.098 Y230.392 E.03369
G1 X178.843 Y230.663 E.01692
G1 X178.843 Y220.559 E.45939
G1 X178.903 Y219.866 E.03162
G1 X179.068 Y219.251 E.02894
G1 X179.337 Y218.674 E.02894
G1 X179.702 Y218.152 E.02894
G1 X180.152 Y217.702 E.02894
G1 X180.674 Y217.337 E.02894
G1 X181.251 Y217.068 E.02894
G1 X181.866 Y216.903 E.02894
G1 X182.974 Y216.796 E.05063
G1 X183.254 Y216.691 E.0136
G1 X183.566 Y216.443 E.01811
G1 X183.771 Y216.102 E.01809
G1 X183.843 Y215.708 E.01821
G1 X183.838 Y173.195 E1.93284
G1 X183.739 Y172.823 E.01752
G1 X183.511 Y172.498 E.01801
G1 X183.204 Y172.284 E.01703
G1 X182.824 Y172.181 E.01791
G1 X181.866 Y172.097 E.04373
G1 X181.251 Y171.932 E.02894
G1 X180.674 Y171.663 E.02894
G1 X180.152 Y171.298 E.02894
G1 X179.702 Y170.848 E.02894
G1 X179.337 Y170.326 E.02894
G1 X179.068 Y169.749 E.02894
G1 X178.903 Y169.134 E.02894
G1 X178.843 Y168.441 E.03162
G1 X178.843 Y145.559 E1.04036
G1 X178.903 Y144.866 E.03162
G1 X179.068 Y144.251 E.02894
G1 X179.337 Y143.674 E.02894
G1 X179.702 Y143.152 E.02894
G1 X180.152 Y142.702 E.02894
G1 X180.674 Y142.337 E.02894
G1 X181.251 Y142.068 E.02894
G1 X181.866 Y141.903 E.02894
G1 X182.559 Y141.843 E.03162
G1 X240.478 Y141.846 E2.63328
G1 X241.134 Y141.903 E.02995
G1 X241.749 Y142.068 E.02894
G1 X242.326 Y142.337 E.02894
G1 X242.848 Y142.702 E.02894
G1 X243.298 Y143.152 E.02894
G1 X243.663 Y143.674 E.02894
G1 X243.932 Y144.251 E.02894
G1 X244.097 Y144.866 E.02894
G1 X244.157 Y145.559 E.03162
G1 X244.157 Y168.441 E1.04036
G1 X244.097 Y169.134 E.03162
G1 X243.932 Y169.749 E.02894
G1 X243.663 Y170.326 E.02894
G1 X243.298 Y170.848 E.02894
G1 X242.848 Y171.298 E.02894
G1 X242.326 Y171.663 E.02894
G1 X241.749 Y171.932 E.02894
G1 X241.134 Y172.097 E.02894
G1 X240.025 Y172.204 E.05068
G1 X239.71 Y172.329 E.01538
G1 X239.435 Y172.556 E.01622
G1 X239.231 Y172.893 E.01789
G1 X239.157 Y173.292 E.01848
G1 X239.157 Y215.708 E1.92842
G1 X239.162 Y215.806 E.00445
G1 X239.263 Y216.182 E.01771
G1 X239.49 Y216.502 E.01785
G1 X239.798 Y216.717 E.01708
G1 X240.176 Y216.819 E.01781
G1 X241.134 Y216.903 E.04373
G1 X241.749 Y217.068 E.02894
G1 X242.326 Y217.337 E.02894
G1 X242.848 Y217.702 E.02894
G1 X243.298 Y218.152 E.02894
G1 X243.663 Y218.674 E.02894
G1 X243.932 Y219.251 E.02894
G1 X244.097 Y219.866 E.02894
G1 X244.157 Y220.728 E.03931
G1 X244.157 Y230.663 E.45167
G1 X243.902 Y230.392 E.01692
G1 X243.291 Y229.972 E.03369
G1 X242.593 Y229.724 E.03369
G1 X241.854 Y229.665 E.03369
G1 X241.252 Y229.756 E.02771
G1 X240.709 Y229.972 E.02658
G1 X240.456 Y230.118 E.01324
G1 X239.944 Y230.535 E.03004
G1 X239.618 Y230.956 E.02423
G1 X239.472 Y231.209 E.01324
G1 X239.234 Y231.841 E.03071
G1 X239.165 Y232.354 E.02355
G1 X239.165 Y232.646 E.01324
G1 X239.264 Y233.277 E.02904
G1 X239.472 Y233.791 E.02524
G1 X239.618 Y234.044 E.01324
G1 X239.986 Y234.509 E.02696
G1 X240.456 Y234.882 E.02732
G1 X240.709 Y235.028 E.01324
G1 X241.352 Y235.268 E.03123
G1 X241.854 Y235.335 E.02303
G1 X242.593 Y235.276 E.03369
G1 X243.291 Y235.028 E.03369
G1 X243.433 Y234.93 E.00784
G1 E-.56 F2100
;WIPE_START
G1 F1800
G1 X243.902 Y234.608 E-.06482
G1 X244.157 Y234.337 E-.04243
G1 X244.157 Y235.396 E-.12075
;WIPE_END
G1 E-.012 F2100
G1 Z.65 F18000
G1 X244.604 Y234.445
G1 Z.25
G1 E.8 F2400
G1 F1800
G1 X244.604 Y238.461 E.18258
G1 X244.538 Y239.212 E.03428
G1 X244.353 Y239.902 E.03249
G1 X244.051 Y240.55 E.03249
G1 X243.641 Y241.136 E.03249
G1 X243.136 Y241.641 E.03249
G1 X242.55 Y242.051 E.0325
G1 X241.902 Y242.353 E.03249
G1 X241.212 Y242.538 E.03249
G1 X240.461 Y242.604 E.03428
G1 X182.539 Y242.604 E2.6334
G1 X181.788 Y242.538 E.03428
G1 X181.098 Y242.353 E.03249
G1 X180.45 Y242.051 E.03249
G1 X179.866 Y241.642 E.0324
G1 X179.344 Y241.114 E.03374
G1 X178.949 Y240.55 E.03132
G1 X178.647 Y239.902 E.03249
G1 X178.462 Y239.212 E.03249
G1 X178.396 Y238.461 E.03428
G1 X178.396 Y233.718 E.21565
G1 X178.374 Y233.385 E.01515
;WIDTH:0.456197
G1 X178.353 Y233.053 E.01367
;WIDTH:0.412395
G1 X178.336 Y232.5 E.0202
G1 X178.353 Y231.947 E.0202
;WIDTH:0.456197
G1 X178.374 Y231.615 E.01367
;WIDTH:0.499999
G1 X178.396 Y231.282 E.01515
G1 X178.396 Y220.539 E.48844
G1 X178.462 Y219.788 E.03428
G1 X178.647 Y219.098 E.03249
G1 X178.949 Y218.45 E.03249
G1 X179.359 Y217.864 E.03249
G1 X179.864 Y217.359 E.03249
G1 X180.45 Y216.949 E.03249
G1 X181.098 Y216.647 E.03249
G1 X181.788 Y216.462 E.03249
G1 X182.875 Y216.361 E.04965
G1 X183.128 Y216.244 E.01267
G1 X183.323 Y216.013 E.01372
G1 X183.396 Y215.708 E.01427
G1 X183.391 Y173.21 E1.93217
G1 X183.287 Y172.925 E.01378
G1 X183.065 Y172.714 E.01394
G1 X182.785 Y172.625 E.01333
G1 X181.788 Y172.538 E.04551
G1 X181.098 Y172.353 E.03249
G1 X180.45 Y172.051 E.03249
G1 X179.864 Y171.641 E.03249
G1 X179.359 Y171.136 E.03249
G1 X178.949 Y170.55 E.03249
G1 X178.647 Y169.902 E.03249
G1 X178.462 Y169.212 E.03249
G1 X178.396 Y168.461 E.03428
G1 X178.396 Y145.539 E1.04213
