; generated by SuperSlicer 2.4 on 2022-10-20 at 20:16:17 UTC


;
;

;
;
; 

; external perimeters extrusion width = 0.40mm
; perimeters extrusion width = 0.48mm
; infill extrusion width = 0.44mm
; solid infill extrusion width = 0.40mm
; top infill extrusion width = 0.40mm

; object:{"name":"Voron_Design_Cube_v7","id":"Voron_Design_Cube_v7 id:0 copy 0","object_center":[200.000000,200.000000,0.000000],"boundingbox_center":[200.000000,200.000000,15.000000],"boundingbox_size":[30.000000,30.000000,30.000000]}
; plater:{"center":[200.000000,200.000000,0.000000],"boundingbox_center":[200.000000,200.000000,15.000000],"boundingbox_size":[30.000000,30.000000,30.000000]}

M73 P0 R79
;TYPE:Custom
; custom gcode: start_gcode
PRINT_START BED=80 HOTEND=230 CHAMBER=30
PRIME_NOZZLE
; custom gcode end: start_gcode
G21 ; set units to millimeters
G90 ; use absolute coordinates
M83 ; use relative distances for extrusion
; custom gcode: start_filament_gcode
; Filament gcode
SET_PRESSURE_ADVANCE ADVANCE=0.06 ; comnmented out | Tune for filament
; custom gcode end: start_filament_gcode
M109 S230 ; set temperature and wait for it to be reached
M190 S80 ; set bed temperature and wait for it to be reached
;LAYER_CHANGE
;Z:0.24
;HEIGHT:0.24
G1 Z0.24 F1800
G92 E0
G1 E-0.8
M204 S2000
G1 X180.223 Y180.223 F18000
G1 E0.8 F1800
;TYPE:Skirt
;WIDTH:0.48
G1 X175.891 Y184.556 E0.23578
G1 X174.511 Y186.688 E0.09771
G1 X174.114 Y188.845 E0.08442
G1 X174.114 Y211.155 E0.85846
G1 X174.646 Y213.638 E0.09771
G1 X175.891 Y215.444 E0.08442
G1 X184.556 Y224.109 E0.47156
G1 X186.688 Y225.489 E0.09771
G1 X188.845 Y225.886 E0.08442
G1 X211.155 Y225.886 E0.85846
G1 X213.638 Y225.354 E0.09771
G1 X215.444 Y224.109 E0.08442
G1 X224.109 Y215.444 E0.47156
G1 X225.489 Y213.312 E0.09771
G1 X225.886 Y211.155 E0.08442
G1 X225.886 Y188.845 E0.85846
G1 X225.354 Y186.362 E0.09771
G1 X224.109 Y184.556 E0.08442
G1 X215.444 Y175.891 E0.47156
G1 X213.312 Y174.511 E0.09771
G1 X211.155 Y174.114 E0.08442
G1 X188.845 Y174.114 E0.85846
M73 P0 R78
G1 X186.362 Y174.646 E0.09771
G1 X184.556 Y175.891 E0.08442
G1 X180.223 Y180.223 E0.23578
G1 X180.525 Y180.525 F18000
G1 F1800
G1 X176.192 Y184.858 E0.23578
G1 X174.937 Y186.768 E0.08797
G1 X174.54 Y188.845 E0.08137
G1 X174.54 Y211.155 E0.85846
G1 X175.004 Y213.393 E0.08797
G1 X176.192 Y215.142 E0.08137
G1 X184.858 Y223.808 E0.47156
G1 X186.768 Y225.063 E0.08797
G1 X188.845 Y225.46 E0.08137
G1 X211.155 Y225.46 E0.85846
G1 X213.393 Y224.996 E0.08797
G1 X215.142 Y223.808 E0.08137
G1 X223.808 Y215.142 E0.47156
G1 X225.063 Y213.232 E0.08797
G1 X225.46 Y211.155 E0.08137
G1 X225.46 Y188.845 E0.85846
G1 X224.996 Y186.607 E0.08797
G1 X223.808 Y184.858 E0.08137
G1 X215.142 Y176.192 E0.47156
G1 X213.232 Y174.937 E0.08797
G1 X211.155 Y174.54 E0.08137
G1 X188.845 Y174.54 E0.85846
G1 X186.607 Y175.004 E0.08797
G1 X184.858 Y176.192 E0.08137
G1 X180.525 Y180.525 E0.23578
G1 X180.826 Y180.826 F18000
G1 F1800
G1 X176.494 Y185.159 E0.23578
G1 X175.363 Y186.852 E0.07834
G1 X174.967 Y188.845 E0.07821
G1 X174.967 Y211.155 E0.85846
G1 X175.364 Y213.151 E0.07834
G1 X176.494 Y214.841 E0.07821
G1 X185.159 Y223.506 E0.47156
G1 X186.852 Y224.637 E0.07834
G1 X188.845 Y225.033 E0.07821
G1 X211.155 Y225.033 E0.85846
G1 X213.151 Y224.636 E0.07834
G1 X214.841 Y223.506 E0.07821
G1 X223.506 Y214.841 E0.47156
G1 X224.637 Y213.148 E0.07834
G1 X225.033 Y211.155 E0.07821
G1 X225.033 Y188.845 E0.85846
G1 X224.636 Y186.849 E0.07834
G1 X223.506 Y185.159 E0.07821
G1 X214.841 Y176.494 E0.47156
G1 X213.148 Y175.363 E0.07834
G1 X211.155 Y174.967 E0.07821
G1 X188.845 Y174.967 E0.85846
G1 X186.849 Y175.364 E0.07834
G1 X185.159 Y176.494 E0.07821
G1 X180.826 Y180.826 E0.23578
G1 E-0.8
; acceleration to travel
M204 S10000
G1 X207.456 Y211.346 F18000
; decel to extrusion
M204 S2000
G1 X212.781 Y217.45
; end travel
G1 E0.8 F1800
;HEIGHT:0.25
G1 X212.107 Y218.123 E0.03801
G1 X211.707 Y218.445 E0.02045
G1 X211.199 Y218.756 E0.02379
G1 X210.565 Y219.031 E0.02754
G1 X210.115 Y219.171 E0.01882
G1 X209.632 Y219.263 E0.01961
G1 X209.172 Y219.297 E0.01841
G1 X208.347 Y219.297 E0.0329
G1 E-0.8
; acceleration to travel
M204 S10000
G1 X212.569 Y216.729 F18000
; decel to extrusion
M204 S2000
G1 X213.413 Y216.216
; end travel
G1 E0.8 F1800
G1 X211.826 Y217.803 E0.08954
G1 X211.472 Y218.089 E0.01815
G1 X211 Y218.379 E0.02207
G1 X210.412 Y218.634 E0.02555
G1 X210.012 Y218.758 E0.01673
G1 X209.575 Y218.841 E0.01774
G1 X209.169 Y218.87 E0.01622
G1 X207.013 Y218.87 E0.08601
G1 X206.358 Y218.444 E0.03117
G1 X209.167 Y218.444 E0.11204
G1 X209.519 Y218.418 E0.01407
G1 X209.902 Y218.346 E0.01556
G1 X210.258 Y218.236 E0.01486
G1 X210.802 Y218.002 E0.02361
G1 X211.226 Y217.741 E0.01988
G1 X211.536 Y217.491 E0.01586
G1 X213.574 Y215.453 E0.11494
G1 X213.651 Y214.774 E0.02727
G1 X211.253 Y217.171 E0.13522
G1 X210.981 Y217.392 E0.01397
G1 X210.603 Y217.624 E0.01769
G1 X210.106 Y217.838 E0.02158
G1 X209.801 Y217.931 E0.01272
G1 X209.165 Y218.018 E0.02563
G1 X205.822 Y218.018 E0.13333
G1 X205.494 Y217.591 E0.02143
G1 X209.163 Y217.591 E0.1463
G1 X209.701 Y217.517 E0.02167
G1 X210.406 Y217.247 E0.0301
G1 X210.737 Y217.042 E0.01555
G1 X210.963 Y216.859 E0.01157
G1 X213.581 Y214.241 E0.14767
G1 X213.511 Y213.709 E0.02142
G1 X210.672 Y216.548 E0.16013
G1 X210.203 Y216.871 E0.0227
G1 X209.601 Y217.102 E0.02573
G1 X209.161 Y217.165 E0.01772
G1 X205.167 Y217.165 E0.15929
G1 X204.97 Y216.739 E0.01873
G1 X209.159 Y216.739 E0.16705
G1 X209.5 Y216.688 E0.01376
G1 X210.009 Y216.491 E0.02177
G1 X210.38 Y216.237 E0.01791
G1 X216.23 Y210.387 E0.32996
G1 X216.452 Y210.083 E0.01501
G1 X216.656 Y209.611 E0.02053
G1 X216.739 Y209.159 E0.01832
G1 X216.739 Y204.97 E0.16705
G1 X216.312 Y204.794 E0.0184
G1 X216.312 Y209.154 E0.17389
G1 X216.25 Y209.482 E0.01334
G1 X216.083 Y209.868 E0.01678
G1 X215.925 Y210.089 E0.01085
G1 X210.089 Y215.925 E0.32912
G1 X209.813 Y216.113 E0.01334
G1 X209.402 Y216.273 E0.01761
G1 X209.154 Y216.312 E0.01002
G1 X204.794 Y216.312 E0.17389
G1 X204.65 Y215.886 E0.01794
G1 X209.143 Y215.886 E0.17918
G1 X209.308 Y215.857 E0.00668
G1 X209.621 Y215.732 E0.01345
G1 X209.795 Y215.616 E0.00835
G1 X215.616 Y209.795 E0.32829
G1 X215.712 Y209.658 E0.00668
G1 X215.845 Y209.348 E0.01345
G1 X215.886 Y209.143 E0.00835
G1 X215.886 Y204.65 E0.17918
G1 X215.455 Y204.594 E0.01731
G1 X215.46 Y209.122 E0.18061
G1 X215.346 Y209.439 E0.01342
G1 X209.509 Y215.299 E0.3299
G1 X209.204 Y215.443 E0.01342
G1 X204.593 Y215.447 E0.18394
G1 X204.538 Y215.033 E0.01666
G1 X209.08 Y215.033 E0.18115
G1 X209.237 Y214.968 E0.00676
G1 X214.968 Y209.237 E0.32327
G1 X215.033 Y209.08 E0.00676
G1 X215.033 Y204.538 E0.18115
G1 E-0.8
G1 X217.165 Y205.167 F18000
G1 E0.8 F1800
G1 X217.165 Y209.167 E0.1595
G1 X217.064 Y209.737 E0.02311
G1 X216.821 Y210.296 E0.02428
G1 X216.533 Y210.687 E0.01938
G1 X213.709 Y213.511 E0.1593
G1 X214.241 Y213.581 E0.02143
G1 X216.837 Y210.985 E0.14641
G1 X217.201 Y210.491 E0.02447
G1 X217.496 Y209.782 E0.03062
G1 X217.591 Y209.173 E0.02458
G1 X217.591 Y205.494 E0.14672
G1 X218.017 Y205.821 E0.02143
G1 X218.017 Y209.18 E0.13396
G1 X217.987 Y209.523 E0.01371
G1 X217.905 Y209.901 E0.01545
G1 X217.575 Y210.696 E0.03432
G1 X217.367 Y211.015 E0.01519
G1 X217.142 Y211.284 E0.01397
G1 X214.774 Y213.651 E0.13355
G1 X215.454 Y213.574 E0.02729
G1 X217.455 Y211.573 E0.11286
G1 X217.711 Y211.268 E0.0159
G1 X217.948 Y210.901 E0.01742
G1 X218.217 Y210.307 E0.026
G1 X218.318 Y210.009 E0.01252
G1 X218.409 Y209.582 E0.01743
G1 X218.444 Y209.186 E0.01585
G1 X218.444 Y206.357 E0.11281
G1 X218.87 Y207.012 E0.03116
G1 X218.87 Y209.191 E0.08692
G1 X218.831 Y209.645 E0.01815
G1 X218.728 Y210.124 E0.01956
G1 X218.612 Y210.468 E0.01447
G1 X218.329 Y211.094 E0.02741
G1 X218.055 Y211.52 E0.02018
G1 X217.762 Y211.869 E0.01819
G1 X216.218 Y213.413 E0.08707
G1 E-0.8
; acceleration to travel
M204 S10000
G1 X218.783 Y209.188 F18000
; decel to extrusion
M204 S2000
G1 X219.296 Y208.344
; end travel
G1 E0.8 F1800
G1 X219.296 Y209.209 E0.0345
G1 X219.251 Y209.719 E0.02042
G1 X219.138 Y210.24 E0.02129
G1 X219.007 Y210.629 E0.01635
G1 X218.71 Y211.286 E0.02877
G1 X218.406 Y211.762 E0.02251
G1 X218.07 Y212.164 E0.0209
G1 X217.461 Y212.773 E0.03434
G1 E-0.8
; acceleration to travel
M204 S10000
G1 X215.438 Y198.347 F18000
; decel to extrusion
M204 S2000
G1 X215.033 Y195.462
; end travel
G1 E0.8 F1800
G1 X215.033 Y190.92 E0.18115
G1 X214.968 Y190.763 E0.00676
G1 X209.237 Y185.032 E0.32327
G1 X209.08 Y184.967 E0.00676
G1 X205.276 Y184.967 E0.1517
G1 X205.356 Y184.557 E0.01666
G1 X209.204 Y184.557 E0.15347
G1 X209.509 Y184.701 E0.01342
G1 X215.299 Y190.491 E0.32662
G1 X215.443 Y190.796 E0.01342
G1 X215.447 Y195.407 E0.18394
G1 X215.886 Y195.35 E0.01764
G1 X215.886 Y190.857 E0.17918
G1 X215.857 Y190.692 E0.00668
G1 X215.732 Y190.379 E0.01345
G1 X215.616 Y190.205 E0.00835
G1 X209.795 Y184.384 E0.32829
G1 X209.621 Y184.268 E0.00835
G1 X209.185 Y184.118 E0.01841
G1 X205.538 Y184.117 E0.14543
G1 X205.716 Y183.689 E0.01851
G1 X209.174 Y183.689 E0.13793
G1 X209.482 Y183.75 E0.01251
G1 X209.794 Y183.878 E0.01345
G1 X210.089 Y184.075 E0.01416
G1 X215.925 Y189.911 E0.32912
G1 X216.113 Y190.187 E0.01334
G1 X216.268 Y190.578 E0.01678
G1 X216.312 Y190.847 E0.01085
G1 X216.312 Y195.206 E0.17389
G1 X216.739 Y195.03 E0.0184
G1 X216.739 Y190.841 E0.16705
G1 X216.681 Y190.469 E0.01501
G1 X216.491 Y189.991 E0.02053
G1 X216.237 Y189.62 E0.01791
G1 X210.387 Y183.77 E0.32996
G1 X209.962 Y183.486 E0.02039
G1 X209.541 Y183.322 E0.01803
G1 X209.169 Y183.262 E0.01501
G1 X205.993 Y183.262 E0.12667
G1 X206.32 Y182.835 E0.02144
G1 X209.167 Y182.835 E0.11351
G1 X209.576 Y182.892 E0.01647
G1 X209.821 Y182.966 E0.01022
G1 X210.296 Y183.179 E0.02074
G1 X210.672 Y183.452 E0.01855
G1 X216.548 Y189.328 E0.33142
G1 X216.869 Y189.792 E0.02249
G1 X217.088 Y190.343 E0.02366
G1 X217.165 Y190.839 E0.02
G1 X217.165 Y194.833 E0.15929
G1 X217.591 Y194.506 E0.02143
G1 X217.591 Y190.837 E0.1463
G1 X217.498 Y190.226 E0.02468
G1 X217.207 Y189.521 E0.03041
G1 X216.864 Y189.043 E0.02344
G1 X214.241 Y186.419 E0.14799
G1 X214.233 Y186.412 E0.0004
G1 X210.963 Y183.141 E0.18448
G1 X210.509 Y182.81 E0.0224
G1 X209.983 Y182.572 E0.02304
G1 X209.66 Y182.474 E0.01345
G1 X209.165 Y182.409 E0.01991
G1 X206.749 Y182.409 E0.09636
G1 X207.305 Y181.982 E0.02793
G1 X209.165 Y181.982 E0.07417
G1 X209.581 Y182.023 E0.01667
G1 X210.14 Y182.176 E0.02313
G1 X210.731 Y182.446 E0.02591
G1 X211.247 Y182.823 E0.02548
G1 X214.303 Y185.88 E0.17241
G1 X214.773 Y186.349 E0.02646
G1 X217.181 Y188.757 E0.13583
G1 X217.582 Y189.318 E0.0275
G1 X217.905 Y190.099 E0.03369
G1 X217.987 Y190.481 E0.0156
G1 X218.018 Y190.835 E0.01418
G1 X218.018 Y194.178 E0.13333
G1 X218.444 Y193.642 E0.02731
G1 X218.444 Y190.827 E0.1123
G1 X218.409 Y190.416 E0.01643
G1 X218.312 Y189.97 E0.0182
G1 X217.954 Y189.109 E0.03718
G1 X217.722 Y188.748 E0.01712
G1 X217.496 Y188.47 E0.01427
G1 X215.452 Y186.426 E0.11531
G1 X216.214 Y186.586 E0.03104
G1 X217.811 Y188.182 E0.09007
G1 X218.068 Y188.498 E0.01625
G1 X218.319 Y188.889 E0.01854
G1 X218.694 Y189.762 E0.03787
G1 X218.826 Y190.326 E0.02309
G1 X218.87 Y190.822 E0.01986
G1 X218.87 Y192.988 E0.08638
G1 E-0.8
; acceleration to travel
M204 S10000
G1 X217.672 Y188.169 F18000
; decel to extrusion
M204 S2000
G1 X217.433 Y187.206
; end travel
G1 E0.8 F1800
G1 X218.158 Y187.93 E0.04087
G1 X218.42 Y188.258 E0.01676
G1 X218.692 Y188.683 E0.02011
G1 X218.86 Y189.019 E0.01499
G1 X219.097 Y189.623 E0.02588
G1 X219.246 Y190.255 E0.02591
G1 X219.297 Y190.817 E0.02247
G1 X219.297 Y191.654 E0.0334
G1 E-0.8
; acceleration to travel
M204 S10000
G1 X210.059 Y183.239 F18000
; decel to extrusion
M204 S2000
G1 X208.211 Y181.556
; end travel
G1 E0.8 F1800
G1 X209.167 Y181.556 E0.03811
G1 X209.662 Y181.605 E0.01985
G1 X210.298 Y181.779 E0.0263
G1 X210.947 Y182.078 E0.02851
G1 X211.534 Y182.508 E0.02901
G1 X214.227 Y185.2 E0.15186
G1 X214.067 Y184.439 E0.03103
G1 X211.815 Y182.187 E0.127
G1 X211.52 Y181.945 E0.01524
G1 X211.17 Y181.715 E0.01671
G1 X210.456 Y181.384 E0.03138
G1 X210.249 Y181.326 E0.00858
G1 E-0.8
; acceleration to travel
M204 S10000
G1 X211.998 Y181.988 F18000
; decel to extrusion
M204 S2000
G1 X212.347 Y182.12
; end travel
G1 E0.8 F1800
G1 X213.448 Y183.221 E0.06207
G1 E-0.8
; acceleration to travel
M204 S10000
G1 X189.714 Y193.422 F18000
; decel to extrusion
M204 S2000
G1 X184.967 Y195.462
; end travel
G1 E0.8 F1800
G1 X184.967 Y190.92 E0.18115
G1 X185.032 Y190.763 E0.00676
G1 X190.763 Y185.032 E0.32327
G1 X190.92 Y184.967 E0.00676
G1 X195.462 Y184.967 E0.18115
G1 X195.408 Y184.557 E0.01649
G1 X190.796 Y184.557 E0.18396
G1 X190.491 Y184.701 E0.01342
G1 X184.654 Y190.561 E0.3299
G1 X184.54 Y190.878 E0.01342
G1 X184.545 Y195.406 E0.18061
G1 X184.114 Y195.35 E0.01731
G1 X184.114 Y190.857 E0.17918
G1 X184.155 Y190.652 E0.00835
G1 X184.288 Y190.342 E0.01345
G1 X184.384 Y190.205 E0.00668
G1 X190.205 Y184.384 E0.32829
G1 X190.379 Y184.268 E0.00835
G1 X190.692 Y184.143 E0.01345
G1 X190.857 Y184.114 E0.00668
G1 X195.35 Y184.115 E0.17919
G1 X195.207 Y183.688 E0.01797
G1 X190.847 Y183.688 E0.17389
G1 X190.578 Y183.732 E0.01085
G1 X190.187 Y183.887 E0.01678
G1 X189.911 Y184.075 E0.01334
G1 X184.075 Y189.911 E0.32912
G1 X183.917 Y190.132 E0.01085
G1 X183.75 Y190.518 E0.01678
G1 X183.688 Y190.847 E0.01334
G1 X183.688 Y195.206 E0.17389
G1 X183.261 Y195.03 E0.0184
G1 X183.261 Y190.841 E0.16705
G1 X183.344 Y190.389 E0.01832
G1 X183.548 Y189.917 E0.02053
G1 X183.77 Y189.613 E0.01501
G1 X189.613 Y183.77 E0.32954
G1 X189.991 Y183.509 E0.01833
G1 X190.469 Y183.319 E0.02053
G1 X190.841 Y183.261 E0.01501
G1 X195.03 Y183.261 E0.16705
G1 X194.833 Y182.835 E0.01874
G1 X190.839 Y182.835 E0.15929
G1 X190.358 Y182.908 E0.01938
G1 X189.792 Y183.131 E0.02428
G1 X189.328 Y183.452 E0.02249
G1 X186.489 Y186.291 E0.16013
G1 X186.291 Y186.489 E0.01115
G1 X183.467 Y189.313 E0.1593
G1 X183.179 Y189.704 E0.01938
G1 X182.936 Y190.263 E0.02428
G1 X182.835 Y190.833 E0.02311
G1 X182.835 Y194.833 E0.1595
G1 X182.409 Y194.506 E0.02143
G1 X182.409 Y190.827 E0.14672
G1 X182.504 Y190.218 E0.02458
G1 X182.799 Y189.509 E0.03062
G1 X183.163 Y189.015 E0.02447
G1 X185.759 Y186.419 E0.14641
G1 X185.226 Y186.349 E0.02143
G1 X182.858 Y188.716 E0.13355
G1 X182.633 Y188.985 E0.01397
G1 X182.425 Y189.304 E0.01519
G1 X182.095 Y190.099 E0.03432
G1 X182.013 Y190.477 E0.01545
G1 X181.983 Y190.82 E0.01371
G1 X181.983 Y194.179 E0.13396
G1 X181.556 Y193.643 E0.02731
G1 X181.556 Y190.807 E0.11308
G1 X181.592 Y190.412 E0.01584
G1 X181.686 Y189.979 E0.01765
G1 X181.913 Y189.381 E0.02554
G1 X182.052 Y189.099 E0.01251
G1 X182.289 Y188.732 E0.01742
G1 X182.545 Y188.427 E0.0159
G1 X184.546 Y186.426 E0.11285
G1 X183.782 Y186.587 E0.03113
G1 X182.238 Y188.131 E0.08707
G1 X181.945 Y188.48 E0.01819
G1 X181.671 Y188.906 E0.02018
G1 X181.388 Y189.532 E0.02741
G1 X181.272 Y189.876 E0.01447
G1 X181.171 Y190.347 E0.0192
G1 X181.13 Y190.799 E0.01813
G1 X181.13 Y192.988 E0.0873
G1 X180.704 Y191.657 F18000
G1 F1800
G1 X180.704 Y190.79 E0.03457
G1 X180.749 Y190.281 E0.02036
G1 X180.862 Y189.76 E0.02129
G1 X180.993 Y189.371 E0.01635
G1 X181.29 Y188.714 E0.02877
G1 X181.594 Y188.238 E0.02251
G1 X181.93 Y187.836 E0.0209
G1 X182.539 Y187.227 E0.03432
G1 E-0.8
; acceleration to travel
M204 S10000
G1 X185.772 Y186.004 F18000
; decel to extrusion
M204 S2000
G1 X186.419 Y185.759
; end travel
G1 E0.8 F1800
G1 X189.035 Y183.143 E0.14756
G1 X189.263 Y182.958 E0.01168
G1 X189.592 Y182.755 E0.01544
G1 X190.248 Y182.496 E0.02813
G1 X190.837 Y182.409 E0.02375
G1 X194.506 Y182.409 E0.1463
G1 X194.178 Y181.982 E0.02143
G1 X190.835 Y181.982 E0.13333
G1 X190.523 Y182.007 E0.01251
G1 X190.133 Y182.086 E0.01587
G1 X189.319 Y182.417 E0.03504
G1 X188.996 Y182.624 E0.01529
G1 X188.746 Y182.83 E0.01294
G1 X186.349 Y185.226 E0.13517
G1 X186.426 Y184.546 E0.02729
G1 X188.455 Y182.518 E0.11441
G1 X188.747 Y182.278 E0.01508
G1 X189.115 Y182.043 E0.01742
G1 X189.693 Y181.783 E0.02528
G1 X189.998 Y181.68 E0.01283
G1 X190.418 Y181.591 E0.01712
G1 X190.833 Y181.556 E0.01662
G1 X193.642 Y181.556 E0.11204
G1 X192.987 Y181.13 E0.03117
