; HEADER_BLOCK_START
; generated by OrcaSlicer 1.6.3 on 2023-06-13 at 12:14:26
; total layer number: 15
; HEADER_BLOCK_END

; THUMBNAIL_BLOCK_START
; THUMBNAIL_BLOCK_END

; external perimeters extrusion width = 0.40mm
; perimeters extrusion width = 0.45mm
; infill extrusion width = 0.45mm
; solid infill extrusion width = 0.40mm
; top infill extrusion width = 0.45mm
; first layer extrusion width = 0.50mm

; EXECUTABLE_BLOCK_START
EXCLUDE_OBJECT_DEFINE NAME=Filament_Swatch.stl_id_0_copy_0 CENTER=170,170 POLYGON=[[118.75,178.75],[120,152.5],[120.062,151.718],[120.245,150.955],[120.545,150.23],[120.955,149.561],[121.464,148.964],[122.061,148.455],[122.73,148.045],[123.455,147.745],[124.218,147.562],[125,147.5],[215,147.5],[215.782,147.562],[216.545,147.745],[217.27,148.045],[217.939,148.455],[218.536,148.964],[219.045,149.561],[219.455,150.23],[219.755,150.955],[219.938,151.718],[220,152.5],[221.25,178.75],[221.25,183.75],[221.207,184.074],[219.755,189.045],[219.455,189.77],[219.045,190.439],[218.536,191.036],[217.939,191.545],[217.27,191.955],[216.545,192.255],[215.782,192.438],[215,192.5],[125,192.5],[124.218,192.438],[123.455,192.255],[122.73,191.955],[122.061,191.545],[121.464,191.036],[120.955,190.439],[120.545,189.77],[120.245,189.045],[118.793,184.074],[118.75,183.75],[118.75,178.75]]
M73 P0 R21
;TYPE:Custom
M140 S70
PRINT_START HOTEND=215 BED=70 CHAMBER=0
PRIME_NOZZLE
G90
G21
M83 ; use relative distances for extrusion
; filament start gcode
M106 S0
;LAYER_CHANGE
;Z:0.25
;HEIGHT:0.25
;BEFORE_LAYER_CHANGE
;0.25
G92 E0

G1 E-.6 F2400
;AFTER_LAYER_CHANGE
;0.25
SET_VELOCITY_LIMIT ACCEL_TO_DECEL=400
M204 S800
G1 X117.944 Y143.635 F18000
G1 Z.25
G1 E.6 F2400
;TYPE:Skirt
;WIDTH:0.5
G1 F1800
G1 X119.418 Y142.64 E.08084
G1 X121.029 Y141.888 E.08083
G1 X121.975 Y141.581 E.04523
G1 X123.72 Y141.242 E.08083
G1 X125 Y141.161 E.05829
G1 X215.497 Y141.18 E4.11444
G1 X217.262 Y141.398 E.08083
G1 X218.971 Y141.888 E.08084
G1 X219.696 Y142.188 E.03567
G1 X221.251 Y143.05 E.08083
G1 X222.652 Y144.144 E.08084
G1 X223.865 Y145.444 E.08083
G1 X224.86 Y146.918 E.08083
G1 X225.312 Y147.804 E.04522
G1 X225.919 Y149.475 E.08083
G1 X226.258 Y151.22 E.08083
G1 X227.582 Y178.448 E1.23938
G1 X227.535 Y184.577 E.27866
G1 X227.292 Y185.851 E.05893
G1 X225.84 Y190.822 E.23548
G1 X225.312 Y192.196 E.06691
G1 X224.86 Y193.082 E.04522
G1 X223.865 Y194.556 E.08083
G1 X222.652 Y195.856 E.08084
G1 X221.251 Y196.95 E.08084
G1 X220.582 Y197.36 E.03567
G1 X218.971 Y198.112 E.08083
G1 X218.025 Y198.419 E.04523
G1 X216.28 Y198.758 E.08083
G1 X215 Y198.839 E.05829
G1 X124.503 Y198.82 E4.11444
G1 X123.72 Y198.758 E.03567
G1 X121.975 Y198.419 E.08083
G1 X120.304 Y197.812 E.08084
G1 X118.749 Y196.95 E.08083
G1 X117.944 Y196.365 E.04523
G1 X116.644 Y195.152 E.08083
G1 X115.55 Y193.751 E.08083
G1 X115.14 Y193.082 E.03567
G1 X114.688 Y192.196 E.04522
G1 X114.16 Y190.822 E.06691
G1 X112.708 Y185.851 E.23548
G1 X112.508 Y184.901 E.04413
G1 X112.411 Y183.75 E.05251
G1 X112.418 Y178.448 E.24103
G1 X113.742 Y151.22 E1.23938
G1 X114.081 Y149.475 E.08084
G1 X114.388 Y148.529 E.04523
G1 X115.14 Y146.918 E.08083
G1 X115.55 Y146.249 E.03567
G1 X116.135 Y145.444 E.04522
G1 X117.348 Y144.144 E.08083
G1 X117.899 Y143.674 E.03294
G1 X118.204 Y144.002 F18000
G1 F1800
G1 X118.234 Y143.974 E.00186
G1 X118.982 Y143.431 E.04204
G1 X120.475 Y142.601 E.07765
G1 X121.2 Y142.301 E.03567
G1 X122.842 Y141.832 E.07765
G1 X125 Y141.607 E.09863
G1 X215.462 Y141.625 E4.11285
M73 P1 R21
G1 X217.158 Y141.832 E.07765
G1 X218.8 Y142.301 E.07765
G1 X219.525 Y142.601 E.03567
G1 X221.018 Y143.431 E.07765
G1 X222.363 Y144.484 E.07765
G1 X223.016 Y145.137 E.04204
G1 X224.069 Y146.482 E.07765
G1 X224.899 Y147.975 E.07765
G1 X225.199 Y148.7 E.03567
G1 X225.668 Y150.342 E.07765
G1 X225.875 Y152.038 E.07765
G1 X227.136 Y178.47 E1.2031
G1 X227.143 Y183.75 E.24007
G1 X227.05 Y184.843 E.04986
G1 X226.864 Y185.726 E.04102
G1 X225.412 Y190.697 E.23548
G1 X224.899 Y192.025 E.06471
G1 X224.479 Y192.849 E.04204
G1 X223.526 Y194.266 E.07765
G1 X222.363 Y195.516 E.07765
G1 X221.018 Y196.569 E.07765
G1 X219.525 Y197.399 E.07765
G1 X218.8 Y197.699 E.03567
G1 X217.158 Y198.168 E.07765
G1 X215 Y198.393 E.09863
G1 X124.538 Y198.375 E4.11285
G1 X122.842 Y198.168 E.07765
G1 X122.079 Y197.985 E.03567
G1 X120.475 Y197.399 E.07765
G1 X118.982 Y196.569 E.07765
G1 X118.234 Y196.026 E.04204
G1 X116.984 Y194.863 E.07765
G1 X115.931 Y193.518 E.07765
G1 X115.101 Y192.025 E.07765
G1 X114.588 Y190.697 E.06471
G1 X113.136 Y185.726 E.23548
G1 X112.95 Y184.843 E.04103
G1 X112.857 Y183.75 E.04986
G1 X112.864 Y178.47 E.24007
G1 X114.187 Y151.256 E1.23875
G1 X114.332 Y150.342 E.04204
G1 X114.801 Y148.7 E.07765
G1 X115.101 Y147.975 E.03567
G1 X115.931 Y146.482 E.07765
G1 X116.984 Y145.137 E.07765
G1 X118.16 Y144.043 E.07306
G1 X118.463 Y144.37 F18000
G1 F1800
G1 X118.524 Y144.313 E.00376
G1 X119.215 Y143.811 E.03886
G1 X120.646 Y143.013 E.07447
G1 X121.371 Y142.713 E.03567
G1 X122.946 Y142.266 E.07447
G1 X125 Y142.054 E.09386
G1 X215.427 Y142.07 E4.11126
G1 X217.054 Y142.266 E.07447
M73 P2 R21
G1 X218.629 Y142.713 E.07447
G1 X220.116 Y143.401 E.07447
G1 X220.785 Y143.811 E.03567
G1 X222.073 Y144.823 E.07447
G1 X223.187 Y146.024 E.07447
G1 X224.099 Y147.384 E.07447
G1 X224.487 Y148.146 E.03886
G1 X225.051 Y149.683 E.07447
G1 X225.234 Y150.446 E.03567
G1 X225.43 Y152.073 E.07447
G1 X226.69 Y178.491 E1.20247
G1 X226.696 Y183.75 E.2391
G1 X226.607 Y184.784 E.04721
G1 X226.435 Y185.601 E.03792
G1 X224.983 Y190.572 E.23548
G1 X224.487 Y191.854 E.06251
G1 X224.099 Y192.616 E.03886
G1 X223.187 Y193.976 E.07447
G1 X222.073 Y195.177 E.07447
G1 X220.785 Y196.189 E.07447
G1 X219.354 Y196.987 E.07447
G1 X218.629 Y197.287 E.03567
G1 X217.054 Y197.734 E.07447
G1 X215 Y197.946 E.09386
G1 X124.573 Y197.93 E4.11126
M73 P2 R20
G1 X123.791 Y197.868 E.03567
G1 X122.184 Y197.551 E.07447
G1 X120.646 Y196.987 E.07447
G1 X119.215 Y196.189 E.07447
G1 X118.524 Y195.687 E.03886
G1 X117.323 Y194.573 E.07447
G1 X116.311 Y193.285 E.07447
G1 X115.513 Y191.854 E.07447
G1 X115.017 Y190.572 E.06251
G1 X113.565 Y185.601 E.23548
G1 X113.393 Y184.784 E.03792
G1 X113.304 Y183.75 E.0472
G1 X113.31 Y178.491 E.2391
G1 X114.632 Y151.291 E1.23812
G1 X114.949 Y149.683 E.07447
G1 X115.213 Y148.871 E.03886
G1 X115.901 Y147.384 E.07447
G1 X116.311 Y146.715 E.03567
G1 X117.323 Y145.427 E.07447
G1 X118.419 Y144.411 E.06798
; printing object Filament_Swatch.stl id:0 copy 0
EXCLUDE_OBJECT_START NAME=Filament_Swatch.stl_id_0_copy_0
G1 E-.42 F2400
;WIPE_START
G1 F1800
G1 X118.524 Y144.313 E-.0122
G1 X119.215 Y143.811 E-.07308
G1 X120.091 Y143.323 E-.08572
;WIPE_END
G1 E-.009 F2400
G1 X172.316 Y153.596 F18000
G1 E.6 F2400
;TYPE:Inner wall
;WIDTH:0.499999
G1 F1800
G1 X172.473 Y153.622 E.00724
G1 X182.527 Y153.622 E.45709
G1 X182.786 Y153.592 E.01186
G1 X183.131 Y153.445 E.01706
G1 X183.42 Y153.176 E.01793
G1 X183.598 Y152.819 E.01815
G1 X183.643 Y152.506 E.01435
G1 X183.643 Y148.643 E.17567
G1 X214.955 Y148.643 E1.42361
G1 X215.603 Y148.694 E.02954
G1 X216.191 Y148.835 E.02749
G1 X216.75 Y149.066 E.02749
G1 X217.265 Y149.382 E.02749
G1 X217.725 Y149.775 E.02749
G1 X218.118 Y150.235 E.02749
G1 X218.434 Y150.75 E.02749
G1 X218.665 Y151.309 E.02749
G1 X218.806 Y151.897 E.02749
G1 X218.857 Y152.545 E.02954
G1 X218.857 Y174.158 E.98262
G1 X218.682 Y174.259 E.0092
G1 X218.212 Y174.668 E.02834
G1 X217.935 Y175.041 E.02115
G1 X217.736 Y175.492 E.02242
G1 X217.66 Y175.774 E.01324
G1 X217.61 Y176.331 E.02545
G1 X217.679 Y176.832 E.02296
G1 X217.863 Y177.316 E.02354
G1 X218.009 Y177.568 E.01325
G1 X218.418 Y178.038 E.02834
G1 X218.934 Y178.387 E.02834
G1 X219.524 Y178.59 E.02834
G1 X220.059 Y178.673 E.02462
G1 X220.094 Y178.775 E.0049
G1 X220.013 Y178.846 E.0049
G1 X219.242 Y178.986 E.03559
G1 X218.794 Y179.183 E.02229
G1 X218.294 Y179.572 E.02877
G1 X217.951 Y180.015 E.02549
G1 X217.736 Y180.492 E.02382
G1 X217.66 Y180.774 E.01324
G1 X217.609 Y181.316 E.02474
G1 X217.686 Y181.858 E.0249
G1 X217.863 Y182.316 E.02231
G1 X218.009 Y182.568 E.01325
G1 X218.418 Y183.038 E.02834
G1 X218.934 Y183.387 E.02834
G1 X219.524 Y183.59 E.02834
G1 X220.049 Y183.666 E.02411
G1 X220.096 Y183.763 E.0049
G1 X220.013 Y183.846 E.00535
G1 X219.242 Y183.986 E.03559
G1 X218.682 Y184.259 E.02834
G1 X218.212 Y184.668 E.02834
G1 X217.883 Y185.138 E.0261
G1 X217.686 Y185.642 E.02459
G1 X217.607 Y186.24 E.02744
G1 X217.687 Y186.862 E.0285
G1 X217.929 Y187.449 E.02886
G1 X218.259 Y187.89 E.02507
G1 X218.762 Y188.287 E.02912
G1 X218.665 Y188.691 E.01887
G1 X218.434 Y189.25 E.02749
G1 X218.118 Y189.765 E.02749
G1 X217.725 Y190.225 E.02749
G1 X217.265 Y190.618 E.02749
G1 X216.75 Y190.934 E.02749
G1 X216.191 Y191.165 E.02749
G1 X215.603 Y191.306 E.02749
G1 X214.955 Y191.357 E.02954
G1 X125.045 Y191.357 E4.08774
M73 P3 R20
G1 X124.397 Y191.306 E.02954
G1 X123.809 Y191.165 E.02749
G1 X123.25 Y190.934 E.02749
G1 X122.735 Y190.618 E.02749
G1 X122.278 Y190.227 E.02733
G1 X121.951 Y189.84 E.02306
G1 X121.616 Y189.331 E.02766
G1 X121.379 Y188.797 E.02657
G1 X121.238 Y188.287 E.02406
G1 X121.318 Y188.241 E.00419
G1 X121.788 Y187.832 E.02834
G1 X122.124 Y187.346 E.02685
G1 X122.313 Y186.862 E.02363
G1 X122.393 Y186.24 E.0285
G1 X122.314 Y185.642 E.02744
G1 X122.137 Y185.184 E.02231
G1 X121.991 Y184.932 E.01324
G1 X121.582 Y184.462 E.02834
G1 X121.066 Y184.113 E.02834
G1 X120.476 Y183.91 E.02834
G1 X119.941 Y183.827 E.02462
G1 X119.906 Y183.725 E.0049
G1 X119.987 Y183.654 E.0049
G1 X120.758 Y183.514 E.03559
G1 X121.206 Y183.317 E.02229
G1 X121.706 Y182.928 E.02877
G1 X122.049 Y182.485 E.02549
G1 X122.264 Y182.008 E.02382
G1 X122.34 Y181.726 E.01324
G1 X122.39 Y181.17 E.02539
G1 X122.321 Y180.668 E.02302
G1 X122.137 Y180.184 E.02354
G1 X121.991 Y179.932 E.01325
G1 X121.582 Y179.462 E.02834
G1 X121.066 Y179.113 E.02834
G1 X120.476 Y178.91 E.02834
G1 X119.941 Y178.827 E.02462
G1 X119.906 Y178.725 E.0049
G1 X119.987 Y178.654 E.0049
G1 X120.758 Y178.514 E.03559
G1 X121.206 Y178.317 E.02229
G1 X121.706 Y177.928 E.02877
G1 X122.049 Y177.485 E.02549
G1 X122.264 Y177.008 E.02382
G1 X122.34 Y176.726 E.01324
G1 X122.389 Y176.156 E.026
G1 X122.318 Y175.657 E.02293
G1 X122.137 Y175.184 E.02301
G1 X121.991 Y174.932 E.01324
G1 X121.582 Y174.462 E.02834
G1 X121.143 Y174.158 E.0243
G1 X121.143 Y152.545 E.98262
G1 X121.194 Y151.897 E.02954
G1 X121.335 Y151.309 E.02749
G1 X121.566 Y150.75 E.02749
G1 X121.882 Y150.235 E.02749
G1 X122.275 Y149.775 E.02749
G1 X122.735 Y149.382 E.02749
G1 X123.25 Y149.066 E.02749
G1 X123.809 Y148.835 E.02749
G1 X124.397 Y148.694 E.02749
G1 X125.045 Y148.643 E.02954
G1 X126.473 Y148.643 E.06492
G1 X126.582 Y148.969 E.01563
G1 X126.806 Y149.191 E.01435
G1 X127.082 Y149.342 E.0143
G1 X127.473 Y149.413 E.01808
G1 X137.043 Y149.413 E.43511
G1 X137.736 Y149.393 E.03152
G1 X138.11 Y149.249 E.01819
G1 X138.456 Y148.915 E.02186
G1 X138.538 Y148.643 E.01295
G1 X141.357 Y148.643 E.12817
G1 X141.357 Y149.187 E.02473
G1 X141.501 Y149.735 E.02576
G1 X141.749 Y150.036 E.01775
G1 X142.074 Y150.229 E.01718
G1 X142.473 Y150.303 E.01845
G1 X152.641 Y150.297 E.46228
G1 X153.015 Y150.19 E.01769
G1 X153.34 Y149.951 E.01832
G1 X153.516 Y149.704 E.0138
G1 X153.643 Y149.187 E.02421
G1 X153.643 Y148.643 E.02473
G1 X156.357 Y148.643 E.12342
G1 X156.357 Y150.081 E.06538
G1 X156.399 Y150.703 E.02833
G1 X156.575 Y151.065 E.01832
G1 X156.776 Y151.273 E.01316
G1 X157.105 Y151.455 E.01707
G1 X157.473 Y151.518 E.017
G1 X167.527 Y151.518 E.45709
G1 X167.91 Y151.45 E.0177
G1 X168.301 Y151.206 E.02093
G1 X168.476 Y150.988 E.01274
G1 X168.599 Y150.712 E.01371
G1 X168.643 Y150.402 E.01425
G1 X168.643 Y148.643 E.07998
G1 X171.357 Y148.643 E.12342
G1 X171.357 Y151.805 E.14377
G1 X171.389 Y152.77 E.04392
G1 X171.518 Y153.084 E.01543
G1 X171.757 Y153.362 E.01664
G1 X172.111 Y153.562 E.01848
G1 X172.257 Y153.586 E.00673
G1 X172.38 Y153.155 F18000
G1 F1800
G1 X172.473 Y153.176 E.00435
G1 X182.527 Y153.176 E.45709
G1 X182.631 Y153.168 E.00476
G1 X182.909 Y153.056 E.01363
G1 X183.118 Y152.822 E.01426
G1 X183.196 Y152.506 E.01476
G1 X183.196 Y148.196 E.19596
G1 X214.973 Y148.196 E1.4447
G1 X215.673 Y148.251 E.03194
G1 X216.329 Y148.409 E.03069
G1 X216.953 Y148.667 E.03069
G1 X217.528 Y149.02 E.03069
G1 X218.042 Y149.458 E.03069
G1 X218.48 Y149.972 E.03069
G1 X218.833 Y150.547 E.03069
G1 X219.091 Y151.171 E.03069
G1 X219.249 Y151.827 E.03069
G1 X219.304 Y152.527 E.03194
G1 X219.304 Y174.443 E.9964
G1 X219.105 Y174.525 E.00976
G1 X218.689 Y174.816 E.02306
G1 X218.363 Y175.204 E.02306
G1 X218.148 Y175.663 E.02306
G1 X218.059 Y176.163 E.02306
G1 X218.103 Y176.668 E.02306
G1 X218.275 Y177.145 E.02306
G1 X218.566 Y177.561 E.02306
G1 X218.954 Y177.887 E.02306
G1 X219.413 Y178.102 E.02306
G1 X220.071 Y178.212 E.03031
G1 X220.274 Y178.276 E.00968
G1 X220.474 Y178.476 E.01289
G1 X220.548 Y178.75 E.01289
G1 X220.474 Y179.024 E.01289
G1 X220.274 Y179.224 E.01289
G1 X220.071 Y179.288 E.00968
G1 X219.413 Y179.398 E.03031
G1 X218.954 Y179.613 E.02306
G1 X218.566 Y179.939 E.02306
G1 X218.275 Y180.355 E.02306
G1 X218.103 Y180.832 E.02306
G1 X218.059 Y181.337 E.02306
G1 X218.148 Y181.837 E.02306
G1 X218.363 Y182.296 E.02306
G1 X218.689 Y182.684 E.02306
G1 X219.105 Y182.975 E.02306
G1 X219.582 Y183.147 E.02306
G1 X220.142 Y183.221 E.02566
G1 X220.387 Y183.363 E.01289
G1 X220.529 Y183.608 E.01289
G1 X220.538 Y183.821 E.00968
G1 X220.529 Y183.892 E.00325
G1 X220.387 Y184.137 E.01289
G1 X220.142 Y184.279 E.01289
G1 X219.582 Y184.353 E.02566
G1 X219.105 Y184.525 E.02306
G1 X218.689 Y184.816 E.02306
G1 X218.363 Y185.204 E.02306
G1 X218.148 Y185.663 E.02306
G1 X218.059 Y186.163 E.02306
G1 X218.103 Y186.668 E.02306
G1 X218.275 Y187.145 E.02306
G1 X218.566 Y187.561 E.02306
G1 X218.954 Y187.887 E.02306
G1 X219.259 Y188.038 E.01549
G1 X219.249 Y188.173 E.00614
G1 X219.091 Y188.829 E.03069
G1 X218.833 Y189.453 E.03069
G1 X218.48 Y190.028 E.03069
G1 X218.042 Y190.542 E.03069
G1 X217.528 Y190.98 E.03069
G1 X216.953 Y191.333 E.03069
G1 X216.329 Y191.591 E.03069
G1 X215.673 Y191.749 E.03069
G1 X214.973 Y191.804 E.03194
G1 X125.027 Y191.804 E4.08934
G1 X124.327 Y191.749 E.03194
G1 X123.919 Y191.651 E.01907
G1 X123.435 Y191.493 E.02316
G1 X122.841 Y191.206 E.03
G1 X122.301 Y190.834 E.02982
G1 X121.824 Y190.381 E.02989
G1 X121.419 Y189.863 E.02991
G1 X121.117 Y189.332 E.02776
G1 X120.891 Y188.753 E.02827
G1 X120.741 Y188.038 E.03319
G1 X120.895 Y187.975 E.00757
G1 X121.311 Y187.684 E.02306
G1 X121.637 Y187.296 E.02306
G1 X121.852 Y186.837 E.02306
G1 X121.941 Y186.337 E.02306
G1 X121.897 Y185.832 E.02306
G1 X121.725 Y185.355 E.02306
G1 X121.434 Y184.939 E.02306
G1 X121.046 Y184.613 E.02306
G1 X120.587 Y184.398 E.02306
G1 X119.929 Y184.288 E.03031
G1 X119.726 Y184.224 E.00968
G1 X119.526 Y184.024 E.01289
G1 X119.452 Y183.75 E.01289
G1 X119.526 Y183.476 E.01289
G1 X119.726 Y183.276 E.01289
G1 X119.929 Y183.212 E.00968
G1 X120.587 Y183.102 E.03031
G1 X121.046 Y182.887 E.02306
G1 X121.434 Y182.561 E.02306
G1 X121.725 Y182.145 E.02306
G1 X121.897 Y181.668 E.02306
G1 X121.941 Y181.163 E.02306
G1 X121.852 Y180.663 E.02306
G1 X121.637 Y180.204 E.02306
G1 X121.311 Y179.816 E.02306
G1 X120.895 Y179.525 E.02306
G1 X120.418 Y179.353 E.02306
G1 X119.858 Y179.279 E.02566
G1 X119.613 Y179.137 E.01289
G1 X119.471 Y178.892 E.01289
G1 X119.471 Y178.608 E.01289
G1 X119.613 Y178.363 E.01289
G1 X119.858 Y178.221 E.01289
G1 X120.418 Y178.147 E.02566
G1 X120.895 Y177.975 E.02306
G1 X121.311 Y177.684 E.02306
G1 X121.637 Y177.296 E.02306
G1 X121.852 Y176.837 E.02306
G1 X121.941 Y176.337 E.02306
M73 P4 R20
G1 X121.897 Y175.832 E.02306
G1 X121.725 Y175.355 E.02306
G1 X121.434 Y174.939 E.02306
G1 X121.046 Y174.613 E.02306
G1 X120.696 Y174.443 E.01767
G1 X120.696 Y152.527 E.9964
G1 X120.751 Y151.827 E.03194
G1 X120.909 Y151.171 E.03069
G1 X121.167 Y150.547 E.03069
G1 X121.52 Y149.972 E.03069
G1 X121.958 Y149.458 E.03069
G1 X122.472 Y149.02 E.03069
G1 X123.047 Y148.667 E.03069
G1 X123.671 Y148.409 E.03069
G1 X124.327 Y148.251 E.03069
G1 X125.027 Y148.196 E.03194
G1 X126.804 Y148.196 E.08076
G1 X126.804 Y148.297 E.00458
