; HEADER_BLOCK_START
; generated by OrcaSlicer 1.6.3 on 2023-06-13 at 10:16:11
; total layer number: 150
; HEADER_BLOCK_END

; THUMBNAIL_BLOCK_START
; THUMBNAIL_BLOCK_END

; external perimeters extrusion width = 0.40mm
; perimeters extrusion width = 0.45mm
; infill extrusion width = 0.45mm
; solid infill extrusion width = 0.40mm
; top infill extrusion width = 0.45mm
; first layer extrusion width = 0.50mm

; EXECUTABLE_BLOCK_START
EXCLUDE_OBJECT_DEFINE NAME=Voron_Design_Cube_v7.stl_id_0_copy_0 CENTER=170,180 POLYGON=[[155,165],[185,165],[185,195],[155,195],[155,165]]
M73 P0 R36
;TYPE:Custom
M140 S70
PRINT_START HOTEND=215 BED=70
PRIME_NOZZLE
G90
G21
M83 ; use relative distances for extrusion
; filament start gcode
M106 S0
;LAYER_CHANGE
;Z:0.25
;HEIGHT:0.25
;BEFORE_LAYER_CHANGE
;0.25
G92 E0

G1 E-.6 F2400
;AFTER_LAYER_CHANGE
;0.25
SET_VELOCITY_LIMIT ACCEL_TO_DECEL=400
M204 S800
G1 X156.384 Y160.593 F18000
G1 Z.25
G1 E.6 F2400
;TYPE:Skirt
;WIDTH:0.5
G1 F1800
G1 X158.226 Y159.312 E.10198
G1 X160.866 Y158.736 E.12288
G1 X179.134 Y158.736 E.83052
G1 X181.341 Y159.133 E.10198
G1 X183.616 Y160.593 E.12288
G1 X189.407 Y166.384 E.37237
G1 X190.688 Y168.226 E.10198
G1 X191.264 Y170.866 E.12288
G1 X191.264 Y189.134 E.83052
G1 X190.867 Y191.341 E.10198
G1 X189.407 Y193.616 E.12288
G1 X183.616 Y199.407 E.37237
G1 X181.774 Y200.688 E.10198
G1 X179.134 Y201.264 E.12288
G1 X160.866 Y201.264 E.83052
G1 X158.659 Y200.867 E.10198
G1 X156.384 Y199.407 E.12288
G1 X150.593 Y193.616 E.37237
G1 X149.312 Y191.774 E.10198
G1 X148.736 Y189.134 E.12289
G1 X148.736 Y170.866 E.83052
G1 X149.133 Y168.659 E.10198
G1 X150.593 Y166.384 E.12288
G1 X156.342 Y160.635 E.36964
G1 X156.657 Y160.951 F18000
G1 F1800
G1 X156.7 Y160.908 E.00273
G1 X158.483 Y159.686 E.09829
G1 X160.866 Y159.182 E.11076
G1 X179.134 Y159.182 E.83052
G1 X181.259 Y159.579 E.09829
G1 X183.3 Y160.908 E.11076
G1 X189.092 Y166.7 E.37237
G1 X190.314 Y168.483 E.09829
G1 X190.818 Y170.866 E.11076
G1 X190.818 Y189.134 E.83052
G1 X190.421 Y191.259 E.09829
G1 X189.092 Y193.3 E.11076
G1 X183.3 Y199.092 E.37237
G1 X181.517 Y200.314 E.09829
G1 X179.134 Y200.818 E.11076
G1 X160.866 Y200.818 E.83052
G1 X158.741 Y200.421 E.09829
G1 X156.7 Y199.092 E.11076
G1 X150.908 Y193.3 E.37237
G1 X149.686 Y191.517 E.09829
G1 X149.182 Y189.134 E.11076
G1 X149.182 Y170.866 E.83052
G1 X149.579 Y168.741 E.09829
G1 X150.908 Y166.7 E.11076
G1 X156.615 Y160.993 E.36691
G1 X156.93 Y161.309 F18000
G1 F1800
G1 X157.015 Y161.224 E.00546
G1 X158.738 Y160.062 E.09446
G1 X160.866 Y159.629 E.09876
G1 X179.134 Y159.629 E.83052
G1 X181.173 Y160.025 E.09446
G1 X182.985 Y161.224 E.09876
G1 X188.776 Y167.015 E.37237
G1 X189.938 Y168.738 E.09446
G1 X190.371 Y170.866 E.09876
G1 X190.371 Y189.134 E.83052
G1 X189.975 Y191.173 E.09446
G1 X188.776 Y192.985 E.09876
G1 X182.985 Y198.776 E.37237
G1 X181.262 Y199.938 E.09446
G1 X179.134 Y200.371 E.09876
G1 X160.866 Y200.371 E.83052
G1 X158.827 Y199.975 E.09446
G1 X157.015 Y198.776 E.09876
G1 X151.224 Y192.985 E.37237
G1 X150.062 Y191.262 E.09446
G1 X149.629 Y189.134 E.09876
G1 X149.629 Y170.866 E.83052
G1 X150.025 Y168.827 E.09446
G1 X151.224 Y167.015 E.09876
G1 X156.888 Y161.351 E.36418
; printing object Voron_Design_Cube_v7.stl id:0 copy 0
EXCLUDE_OBJECT_START NAME=Voron_Design_Cube_v7.stl_id_0_copy_0
G1 E-.42 F2400
;WIPE_START
G1 F1800
G1 X157.015 Y161.224 E-.01539
G1 X158.524 Y160.206 E-.15561
;WIPE_END
G1 E-.009 F2400
G1 X183.782 Y171.34 F18000
G1 E.6 F2400
;TYPE:Inner wall
;WIDTH:0.499999
G1 F1800
G1 X183.782 Y172.831 E.06781
G1 X183.782 Y188.66 E.71967
G1 X178.66 Y193.782 E.32933
G1 X161.34 Y193.782 E.78748
G1 X156.218 Y188.66 E.32933
G1 X156.218 Y171.34 E.78748
G1 X161.34 Y166.218 E.32933
G1 X178.66 Y166.218 E.78748
G1 X183.74 Y171.297 E.3266
G1 X184.229 Y171.155 F18000
G1 F1800
G1 X184.229 Y172.831 E.07622
G1 X184.229 Y188.845 E.72808
G1 X178.845 Y194.229 E.34614
G1 X161.155 Y194.229 E.80429
G1 X155.771 Y188.845 E.34614
G1 X155.771 Y171.155 E.80429
G1 X161.155 Y165.771 E.34614
M73 P1 R36
G1 X178.845 Y165.771 E.80429
G1 X184.186 Y171.112 E.34341
G1 X184.675 Y170.97 F18000
;TYPE:Outer wall
G1 F1800
G1 X184.675 Y172.831 E.08462
G1 X184.675 Y189.03 E.73648
G1 X179.03 Y194.675 E.36295
G1 X160.97 Y194.675 E.8211
G1 X155.325 Y189.03 E.36295
G1 X155.325 Y170.97 E.8211
G1 X160.97 Y165.325 E.36295
G1 X179.03 Y165.325 E.8211
G1 X184.633 Y170.927 E.36022
G1 X184.63 Y171.036
G1 E-.42 F2400
;WIPE_START
G1 F1800
G1 X184.675 Y172.831 E-.16281
G1 X184.675 Y172.927 E-.00819
;WIPE_END
G1 E-.009 F2400
G1 X163.991 Y186.515 F18000
G1 E.6 F2400
;TYPE:Inner wall
G1 F1800
G1 X163.4 Y185.921 E.0381
G1 X162.824 Y185.207 E.04172
G1 X162.324 Y184.438 E.04172
G1 X161.742 Y183.223 E.06124
G1 X161.444 Y182.325 E.043
G1 X161.249 Y181.428 E.04171
G1 X161.149 Y180.516 E.04172
G1 X161.143 Y179.599 E.04171
G1 X161.232 Y178.686 E.04172
G1 X161.453 Y177.647 E.04826
G1 X161.85 Y176.512 E.05469
G1 X162.267 Y175.663 E.043
G1 X162.842 Y174.771 E.04826
G1 X163.616 Y173.85 E.05469
G1 X164.306 Y173.203 E.043
G1 X164.974 Y172.7 E.038
G1 X165.825 Y172.178 E.04541
G1 X166.656 Y171.788 E.04171
G1 X167.523 Y171.487 E.04172
G1 X168.416 Y171.276 E.04172
G1 X169.326 Y171.159 E.04171
G1 X170.673 Y171.161 E.06124
G1 X171.611 Y171.281 E.043
G1 X172.503 Y171.495 E.04171
G1 X173.369 Y171.799 E.04171
G1 X174.198 Y172.191 E.04172
G1 X174.983 Y172.667 E.04171
G1 X175.714 Y173.221 E.04171
G1 X176.405 Y173.868 E.04307
G1 X176.986 Y174.54 E.04036
G1 X177.731 Y175.663 E.06124
G1 X178.15 Y176.51 E.043
G1 X178.467 Y177.371 E.04171
G1 X178.694 Y178.26 E.04171
G1 X178.827 Y179.168 E.04171
G1 X178.865 Y180.085 E.0417
G1 X178.836 Y180.735 E.0296
G1 X178.715 Y181.626 E.04089
G1 X178.501 Y182.518 E.04171
G1 X178.195 Y183.383 E.04171
G1 X177.802 Y184.212 E.04171
G1 X177.324 Y184.996 E.04171
G1 X176.769 Y185.726 E.04171
G1 X175.822 Y186.684 E.06124
G1 X175.078 Y187.268 E.043
G1 X174.3 Y187.754 E.04171
G1 X173.475 Y188.157 E.04171
G1 X172.614 Y188.472 E.04171
G1 X171.724 Y188.697 E.04171
G1 X170.816 Y188.829 E.04171
G1 X169.9 Y188.866 E.04172
G1 X168.984 Y188.808 E.04171
G1 X168.079 Y188.656 E.04171
G1 X167.195 Y188.411 E.04171
G1 X166.341 Y188.076 E.04172
G1 X165.526 Y187.655 E.04172
G1 X164.821 Y187.193 E.03827
G1 X164.047 Y186.571 E.04514
G1 X164.034 Y186.557 E.00088
G1 X164.305 Y186.2 F18000
G1 F1800
G1 X163.719 Y185.608 E.03785
G1 X163.173 Y184.929 E.03962
G1 X162.7 Y184.197 E.03962
G1 X162.146 Y183.033 E.05862
G1 X161.869 Y182.189 E.04038
G1 X161.686 Y181.337 E.03962
G1 X161.593 Y180.47 E.03962
G1 X161.589 Y179.599 E.03962
G1 X161.675 Y178.732 E.03962
G1 X161.874 Y177.795 E.04355
G1 X162.272 Y176.659 E.05469
G1 X162.666 Y175.863 E.04038
G1 X163.184 Y175.058 E.04355
G1 X163.958 Y174.137 E.05469
G1 X164.608 Y173.532 E.04038
G1 X165.24 Y173.058 E.0359
G1 X166.053 Y172.562 E.04332
G1 X166.843 Y172.194 E.03962
G1 X167.667 Y171.909 E.03962
G1 X168.515 Y171.711 E.03962
G1 X169.38 Y171.602 E.03962
G1 X170.669 Y171.607 E.05862
G1 X171.55 Y171.723 E.04038
G1 X172.397 Y171.928 E.03962
G1 X173.218 Y172.219 E.03962
G1 X174.005 Y172.593 E.03962
G1 X174.749 Y173.047 E.03962
G1 X175.442 Y173.575 E.03962
G1 X176.09 Y174.184 E.04043
G1 X176.647 Y174.831 E.03881
G1 X177.357 Y175.907 E.05862
G1 X177.748 Y176.704 E.04038
G1 X178.047 Y177.523 E.03962
G1 X178.26 Y178.368 E.03962
G1 X178.385 Y179.23 E.03961
G1 X178.419 Y180.1 E.0396
G1 X178.39 Y180.712 E.02783
G1 X178.273 Y181.564 E.03912
G1 X178.068 Y182.411 E.03962
G1 X177.775 Y183.232 E.03962
G1 X177.4 Y184.018 E.03961
G1 X176.945 Y184.761 E.03962
G1 X176.416 Y185.454 E.03962
G1 X175.507 Y186.368 E.05862
G1 X174.806 Y186.914 E.04038
G1 X174.066 Y187.374 E.03962
G1 X173.282 Y187.754 E.03962
G1 X172.463 Y188.052 E.03962
G1 X171.618 Y188.263 E.03962
G1 X170.755 Y188.386 E.03962
G1 X169.884 Y188.42 E.03962
G1 X169.015 Y188.363 E.03962
G1 X168.156 Y188.216 E.03962
G1 X167.317 Y187.981 E.03962
G1 X166.506 Y187.661 E.03962
G1 X165.733 Y187.259 E.03962
G1 X165.069 Y186.821 E.03618
G1 X164.348 Y186.24 E.04208
G1 X164.972 Y186.171 F18000
;TYPE:Outer wall
G1 F1800
G1 X164.616 Y185.883 E.0208
G1 X164.037 Y185.295 E.03752
G1 X163.522 Y184.651 E.03752
G1 X163.076 Y183.956 E.03752
G1 X162.549 Y182.843 E.056
G1 X162.294 Y182.052 E.03776
G1 X162.123 Y181.245 E.03752
G1 X162.037 Y180.424 E.03752
G1 X162.035 Y179.599 E.03752
G1 X162.119 Y178.778 E.03752
G1 X162.296 Y177.942 E.03883
G1 X162.693 Y176.807 E.05469
G1 X163.064 Y176.064 E.03776
G1 X163.525 Y175.345 E.03883
G1 X164.299 Y174.424 E.05469
G1 X164.91 Y173.861 E.03776
G1 X165.506 Y173.417 E.0338
G1 X166.281 Y172.946 E.04122
G1 X167.03 Y172.599 E.03752
G1 X167.811 Y172.332 E.03752
G1 X168.615 Y172.147 E.03752
G1 X169.434 Y172.046 E.03752
G1 X170.666 Y172.054 E.056
G1 X171.489 Y172.166 E.03776
G1 X172.29 Y172.361 E.03752
G1 X173.067 Y172.639 E.03752
G1 X173.812 Y172.995 E.03752
G1 X174.515 Y173.427 E.03752
G1 X175.17 Y173.929 E.03752
G1 X175.774 Y174.5 E.03779
G1 X176.308 Y175.121 E.03725
G1 X176.984 Y176.151 E.056
G1 X177.346 Y176.898 E.03776
G1 X177.628 Y177.674 E.03752
G1 X177.827 Y178.475 E.03752
G1 X177.943 Y179.292 E.03752
G1 X177.973 Y180.116 E.03751
G1 X177.945 Y180.689 E.02606
G1 X177.831 Y181.502 E.03734
G1 X177.634 Y182.304 E.03752
G1 X177.355 Y183.08 E.03752
G1 X176.998 Y183.824 E.03752
G1 X176.565 Y184.527 E.03752
G1 X176.062 Y185.181 E.03752
G1 X175.192 Y186.052 E.056
G1 X174.534 Y186.56 E.03776
G1 X173.832 Y186.993 E.03752
G1 X173.089 Y187.352 E.03752
G1 X172.312 Y187.632 E.03752
G1 X171.511 Y187.83 E.03752
G1 X170.694 Y187.944 E.03752
G1 X169.869 Y187.974 E.03752
G1 X169.046 Y187.917 E.03752
G1 X168.233 Y187.776 E.03752
G1 X167.439 Y187.552 E.03752
G1 X166.672 Y187.247 E.03752
G1 X165.941 Y186.864 E.03752
G1 X165.316 Y186.45 E.03408
G1 X165.018 Y186.209 E.01741
G1 X164.898 Y186.201
G1 E-.42 F2400
;WIPE_START
G1 F1800
G1 X164.616 Y185.883 E-.04425
G1 X164.037 Y185.295 E-.07056
G1 X163.627 Y184.782 E-.05619
;WIPE_END
G1 E-.009 F2400
G1 X178.318 Y166.352 F18000
G1 E.6 F2400
;TYPE:Bottom surface
;WIDTH:0.503871
G1 F3000
G1 X183.448 Y171.481 E.33267
G1 X183.448 Y172.118 E.0292
G1 X177.882 Y166.552 E.36094
G1 X177.245 Y166.552 E.0292
G1 X183.448 Y172.755 E.40223
G1 X183.448 Y173.391 E.0292
G1 X176.609 Y166.552 E.44353
G1 X175.972 Y166.552 E.0292
G1 X183.448 Y174.028 E.48482
G1 X183.448 Y174.665 E.0292
G1 X175.335 Y166.552 E.52611
G1 X174.699 Y166.552 E.0292
G1 X183.448 Y175.301 E.56741
G1 X183.448 Y175.938 E.0292
G1 X174.062 Y166.552 E.6087
G1 X173.425 Y166.552 E.0292
G1 X183.448 Y176.575 E.65
G1 X183.448 Y177.212 E.0292
G1 X172.788 Y166.552 E.69129
G1 X172.152 Y166.552 E.0292
G1 X183.448 Y177.848 E.73258
G1 X183.448 Y178.485 E.0292
G1 X171.515 Y166.552 E.77388
G1 X170.878 Y166.552 E.0292
G1 X183.448 Y179.122 E.81517
G1 X183.448 Y179.758 E.0292
G1 X170.242 Y166.552 E.85646
G1 X169.605 Y166.552 E.0292
G1 X183.448 Y180.395 E.89776
G1 X183.448 Y181.032 E.0292
G1 X178.143 Y175.728 E.344
G1 X178.1 Y175.637 E.00462
G1 X177.244 Y174.328 E.07171
G1 X176.644 Y173.633 E.04211
G1 X175.922 Y172.959 E.0453
G1 X175.25 Y172.443 E.03886
G1 X174.271 Y171.855 E.05238
G1 X168.968 Y166.552 E.34389
G1 X168.332 Y166.552 E.0292
G1 X173.14 Y171.361 E.31186
G1 X172.722 Y171.211 E.02038
G1 X172.228 Y171.086 E.02337
G1 X167.695 Y166.552 E.29399
G1 X167.058 Y166.552 E.0292
G1 X171.428 Y170.923 E.28342
G1 X170.856 Y170.839 E.02653
G1 X170.707 Y170.838 E.00684
G1 X166.421 Y166.552 E.27792
G1 X165.785 Y166.552 E.0292
G1 X170.065 Y170.832 E.27758
G1 X169.423 Y170.827 E.02944
G1 X165.148 Y166.552 E.27724
G1 X164.511 Y166.552 E.0292
G1 X168.841 Y170.882 E.28081
G1 X168.286 Y170.964 E.02572
G1 X163.875 Y166.552 E.28612
G1 X163.238 Y166.552 E.0292
G1 X167.767 Y171.082 E.29375
G1 X167.554 Y171.13 E.01003
G1 X167.272 Y171.224 E.01361
G1 X162.601 Y166.552 E.30295
G1 X161.964 Y166.552 E.0292
G1 X166.794 Y171.382 E.31325
G1 X166.344 Y171.569 E.02235
G1 X161.403 Y166.628 E.32045
G1 X161.085 Y166.946 E.02065
G1 X165.905 Y171.767 E.31265
G1 X165.493 Y171.991 E.02153
G1 X160.766 Y167.264 E.30655
M73 P1 R35
G1 X160.448 Y167.583 E.02065
G1 X165.091 Y172.226 E.30112
G1 X164.712 Y172.484 E.02102
G1 X160.13 Y167.901 E.29719
G1 X159.811 Y168.22 E.02065
G1 X164.344 Y172.752 E.29398
G1 X164.191 Y172.864 E.00869
G1 X163.998 Y173.043 E.01207
G1 X159.493 Y168.538 E.29218
G1 X159.175 Y168.856 E.02065
G1 X163.667 Y173.349 E.29136
G1 X163.34 Y173.658 E.02065
G1 X158.856 Y169.175 E.29079
G1 X158.538 Y169.493 E.02065
G1 X163.052 Y174.007 E.29275
G1 X162.764 Y174.355 E.02074
G1 X158.219 Y169.811 E.29471
G1 X157.901 Y170.13 E.02065
G1 X162.476 Y174.704 E.29669
G1 X162.23 Y175.095 E.02117
G1 X157.583 Y170.448 E.30138
G1 X157.264 Y170.766 E.02065
G1 X161.984 Y175.486 E.30608
G1 X161.773 Y175.911 E.02179
G1 X156.946 Y171.085 E.31304
G1 X156.628 Y171.403 E.02065
G1 X161.564 Y176.339 E.32013
M73 P2 R35
G1 X161.393 Y176.805 E.02276
G1 X156.552 Y171.964 E.31394
G1 X156.552 Y172.601 E.0292
G1 X161.228 Y177.277 E.30324
G1 X161.135 Y177.543 E.01294
G1 X161.085 Y177.77 E.01066
G1 X156.552 Y173.238 E.29393
G1 X156.552 Y173.875 E.0292
G1 X160.969 Y178.291 E.28642
G1 X160.921 Y178.508 E.01018
G1 X160.886 Y178.845 E.01553
G1 X156.552 Y174.511 E.28103
G1 X156.552 Y175.148 E.0292
G1 X160.826 Y179.421 E.27714
G1 X160.808 Y179.594 E.00794
G1 X160.811 Y180.044 E.02064
G1 X156.552 Y175.785 E.27621
G1 X156.552 Y176.421 E.0292
G1 X160.832 Y180.701 E.27753
G1 X160.909 Y181.414 E.03291
G1 X156.552 Y177.058 E.28251
G1 X156.552 Y177.695 E.0292
G1 X161.08 Y182.223 E.29364
G1 X161.124 Y182.423 E.0094
G1 X161.364 Y183.143 E.03482
G1 X156.352 Y178.131 E.32507
G1 E-.42 F2400
;WIPE_START
G1 F3000
G1 X157.766 Y179.545 E-.171
;WIPE_END
G1 E-.009 F2400
G1 X178.294 Y176.515 F18000
G1 E.6 F2400
G1 F3000
G1 X183.448 Y181.668 E.33425
G1 X183.448 Y182.305 E.0292
G1 X178.915 Y177.772 E.29399
G1 X179.046 Y178.322 E.02595
G1 X179.08 Y178.574 E.01163
G1 X183.448 Y182.942 E.28328
G1 X183.448 Y183.579 E.0292
G1 X179.172 Y179.304 E.27726
G1 X179.195 Y179.963 E.03027
G1 X183.448 Y184.215 E.27578
G1 X183.448 Y184.852 E.0292
G1 X179.175 Y180.58 E.27707
G1 X179.159 Y180.874 E.01351
G1 X179.119 Y181.16 E.01323
G1 X183.448 Y185.489 E.28075
G1 X183.448 Y186.125 E.0292
G1 X179.04 Y181.718 E.28586
G1 X178.912 Y182.227 E.02407
G1 X183.448 Y186.762 E.29412
G1 X183.448 Y187.399 E.0292
G1 X178.784 Y182.736 E.30243
G1 X178.616 Y183.204 E.02281
G1 X183.448 Y188.036 E.31337
G1 X183.448 Y188.522 E.02229
G1 X183.372 Y188.597 E.00488
G1 X178.434 Y183.659 E.32027
G1 X178.229 Y184.091 E.02193
G1 X183.054 Y188.915 E.3129
G1 X182.736 Y189.234 E.02065
G1 X178.011 Y184.509 E.30642
G1 X177.769 Y184.904 E.02123
G1 X182.417 Y189.552 E.30146
G1 X182.099 Y189.87 E.02065
G1 X177.523 Y185.295 E.29674
G1 X177.246 Y185.655 E.02082
G1 X181.78 Y190.189 E.29406
G1 X181.462 Y190.507 E.02065
G1 X176.96 Y186.005 E.29196
G1 X176.642 Y186.323 E.02065
G1 X181.144 Y190.825 E.29198
G1 X180.825 Y191.144 E.02065
G1 X176.323 Y186.641 E.292
G1 X176.004 Y186.96 E.02065
G1 X180.507 Y191.462 E.29201
G1 X180.189 Y191.781 E.02065
G1 X175.655 Y187.247 E.29404
G1 X175.295 Y187.523 E.02082
G1 X179.87 Y192.099 E.29676
G1 X179.552 Y192.417 E.02065
G1 X174.904 Y187.769 E.30146
G1 X174.509 Y188.011 E.02124
G1 X179.234 Y192.736 E.30644
G1 X178.915 Y193.054 E.02065
G1 X174.091 Y188.23 E.31287
G1 X173.658 Y188.434 E.02194
G1 X178.597 Y193.372 E.32029
G1 X178.522 Y193.448 E.00488
G1 X178.036 Y193.448 E.0223
G1 X173.202 Y188.614 E.31346
G1 X172.731 Y188.779 E.02291
G1 X177.399 Y193.448 E.30275
G1 X176.762 Y193.448 E.0292
G1 X172.231 Y188.916 E.29389
G1 X171.718 Y189.04 E.02419
G1 X176.125 Y193.448 E.28584
G1 X175.489 Y193.448 E.0292
G1 X171.156 Y189.115 E.28098
G1 X170.582 Y189.177 E.0265
G1 X174.852 Y193.448 E.27694
G1 X174.215 Y193.448 E.0292
G1 X169.965 Y189.198 E.27562
G1 X169.295 Y189.164 E.03079
G1 X173.579 Y193.448 E.27781
G1 X172.942 Y193.448 E.0292
G1 X168.572 Y189.077 E.28343
G1 X168.016 Y188.985 E.02581
G1 X167.776 Y188.918 E.01145
G1 X172.305 Y193.448 E.29374
G1 X171.668 Y193.448 E.0292
G1 X166.505 Y188.284 E.33489
G1 E-.42 F2400
;WIPE_START
G1 F3000
G1 X167.919 Y189.698 E-.171
;WIPE_END
G1 E-.009 F2400
