; generated by SuperSlicer 2.4 on 2022-10-20 at 21:45:35 UTC


;
;

;
;
; 

; external perimeters extrusion width = 0.60mm
; perimeters extrusion width = 0.72mm
; infill extrusion width = 0.66mm
; solid infill extrusion width = 0.60mm
; top infill extrusion width = 0.60mm

; object:{"name":"Voron_Design_Cube_v7","id":"Voron_Design_Cube_v7 id:0 copy 0","object_center":[200.000000,200.000000,0.000000],"boundingbox_center":[200.000000,200.000000,15.000000],"boundingbox_size":[30.000000,30.000000,30.000000]}
; plater:{"center":[200.000000,200.000000,0.000000],"boundingbox_center":[200.000000,200.000000,15.000000],"boundingbox_size":[30.000000,30.000000,30.000000]}

M73 P0 R49
;TYPE:Custom
; custom gcode: start_gcode
PRINT_START BED=110 HOTEND=245 CHAMBER=50
PRIME_NOZZLE
; custom gcode end: start_gcode
M107
G21 ; set units to millimeters
G90 ; use absolute coordinates
M83 ; use relative distances for extrusion
; custom gcode: start_filament_gcode
; Filament gcode
SET_PRESSURE_ADVANCE ADVANCE=0.045 ; comnmented out | Tune for filament
; custom gcode end: start_filament_gcode
M104 S245 ; set temperature
M109 S245 ; set temperature and wait for it to be reached
M190 S110 ; set bed temperature and wait for it to be reached
;LAYER_CHANGE
;Z:0.24
;HEIGHT:0.24
G1 Z0.24 F1800
G92 E0
G1 E-0.8
M204 S2000
G1 X181.685 Y181.685 F18000
G1 E0.8 F1800
;TYPE:Skirt
;WIDTH:0.72
G1 X177.352 Y186.017 E0.37765
G1 X176.575 Y187.112 E0.08273
G1 X176.18 Y188.845 E0.10956
G1 X176.18 Y211.155 E1.375
G1 X176.406 Y212.478 E0.08273
G1 X177.352 Y213.983 E0.10956
G1 X186.017 Y222.648 E0.75529
G1 X187.112 Y223.425 E0.08273
G1 X188.845 Y223.82 E0.10956
G1 X211.155 Y223.82 E1.375
G1 X212.478 Y223.594 E0.08273
G1 X213.983 Y222.648 E0.10956
G1 X222.648 Y213.983 E0.75529
G1 X223.425 Y212.888 E0.08273
G1 X223.82 Y211.155 E0.10956
G1 X223.82 Y188.845 E1.375
G1 X223.594 Y187.522 E0.08273
G1 X222.648 Y186.017 E0.10956
G1 X213.983 Y177.352 E0.75529
G1 X212.888 Y176.575 E0.08273
G1 X211.155 Y176.18 E0.10956
G1 X188.845 Y176.18 E1.375
G1 X187.522 Y176.406 E0.08273
G1 X186.017 Y177.352 E0.10956
G1 X181.685 Y181.685 E0.37765
G1 X182.156 Y182.156 F18000
G1 F1800
G1 X177.823 Y186.488 E0.37765
G1 X177.241 Y187.273 E0.06023
G1 X176.847 Y188.845 E0.09989
G1 X176.847 Y211.155 E1.375
G1 X176.99 Y212.121 E0.06023
G1 X177.823 Y213.512 E0.09989
G1 X186.488 Y222.177 E0.75529
G1 X187.273 Y222.759 E0.06023
G1 X188.845 Y223.153 E0.09989
G1 X211.155 Y223.153 E1.375
G1 X212.121 Y223.01 E0.06023
G1 X213.512 Y222.177 E0.09989
G1 X222.177 Y213.512 E0.75529
G1 X222.759 Y212.727 E0.06023
G1 X223.153 Y211.155 E0.09989
G1 X223.153 Y188.845 E1.375
G1 X223.01 Y187.879 E0.06023
G1 X222.177 Y186.488 E0.09989
G1 X213.512 Y177.823 E0.75529
M73 P0 R48
G1 X212.727 Y177.241 E0.06023
G1 X211.155 Y176.847 E0.09989
G1 X188.845 Y176.847 E1.375
G1 X187.879 Y176.99 E0.06023
G1 X186.488 Y177.823 E0.09989
G1 X182.156 Y182.156 E0.37765
G1 E-0.8
; acceleration to travel
M204 S10000
G1 X204.611 Y212.985 F18000
; decel to extrusion
M204 S2000
G1 X209.102 Y219.151
; end travel
G1 E0.8 F1800
;HEIGHT:0.25
G1 X209.066 Y219.151 E0.00231
G1 X210.38 Y218.934 E0.08525
G1 X210.098 Y219.02 E0.01887
G1 X210.967 Y218.691 E0.05947
G1 X211.15 Y218.612 E0.01273
G1 X211.4 Y218.458 E0.01879
G1 X212.167 Y217.86 E0.06226
G1 X212.123 Y217.903 E0.00393
G1 E-0.8
; acceleration to travel
M204 S10000
G1 X213.094 Y216.148 F18000
; decel to extrusion
M204 S2000
G1 X213.289 Y215.797
; end travel
G1 E0.8 F1800
G1 X211.56 Y217.526 E0.15647
G1 X211.286 Y217.747 E0.02249
G1 X210.834 Y218.026 E0.03402
G1 X210.205 Y218.292 E0.04368
G1 X209.893 Y218.387 E0.02093
G1 X209.205 Y218.485 E0.04443
G1 X206.802 Y218.485 E0.15379
G1 X205.969 Y217.819 E0.06827
G1 X209.201 Y217.819 E0.20685
G1 X209.735 Y217.74 E0.03452
G1 X210.531 Y217.432 E0.05461
G1 X210.906 Y217.2 E0.02827
G1 X211.109 Y217.035 E0.01674
G1 X213.406 Y214.737 E0.20791
G1 X213.297 Y213.905 E0.05373
G1 X210.655 Y216.546 E0.23905
G1 X210.224 Y216.841 E0.03344
G1 X209.581 Y217.091 E0.04416
G1 X209.193 Y217.152 E0.02512
G1 X205.457 Y217.152 E0.23905
G1 X205.123 Y216.486 E0.04771
G1 X209.177 Y216.486 E0.2594
G1 X209.435 Y216.441 E0.01676
G1 X209.924 Y216.245 E0.03373
G1 X210.196 Y216.064 E0.02093
G1 X216.064 Y210.196 E0.53105
G1 X216.214 Y209.982 E0.01676
G1 X216.422 Y209.497 E0.03373
G1 X216.486 Y209.177 E0.02093
G1 X216.486 Y205.123 E0.2594
G1 X215.82 Y204.882 E0.04536
G1 X215.82 Y209.144 E0.27276
G1 X215.642 Y209.639 E0.03364
G1 X215.569 Y209.748 E0.0084
G1 X209.748 Y215.569 E0.52686
G1 X209.273 Y215.794 E0.03364
G1 X209.144 Y215.82 E0.0084
G1 X204.882 Y215.82 E0.27276
G1 X204.794 Y215.153 E0.04301
G1 X209.078 Y215.153 E0.27418
G1 X209.323 Y215.052 E0.01696
G1 X215.052 Y209.323 E0.51846
G1 X215.153 Y209.078 E0.01696
G1 X215.153 Y204.794 E0.27418
G1 E-0.8
G1 X217.152 Y205.457 F18000
G1 E0.8 F1800
G1 X217.152 Y209.193 E0.23905
G1 X217.055 Y209.706 E0.03344
G1 X216.794 Y210.31 E0.04209
G1 X216.546 Y210.655 E0.02721
G1 X213.905 Y213.297 E0.23905
G1 X214.738 Y213.406 E0.05374
G1 X217.023 Y211.121 E0.20686
G1 X217.378 Y210.632 E0.03868
G1 X217.69 Y209.908 E0.05045
G1 X217.791 Y209.478 E0.02827
G1 X217.819 Y209.201 E0.01778
G1 X217.819 Y205.969 E0.20685
G1 X218.485 Y206.802 E0.06826
G1 X218.485 Y209.213 E0.15432
G1 X218.453 Y209.563 E0.02249
G1 X218.362 Y209.987 E0.02776
G1 X217.96 Y210.956 E0.06714
G1 X217.728 Y211.313 E0.02723
G1 X217.503 Y211.583 E0.02249
G1 X215.798 Y213.289 E0.15435
G1 E-0.8
; acceleration to travel
M204 S10000
G1 X217.547 Y212.325 F18000
; decel to extrusion
M204 S2000
G1 X217.896 Y212.132
; end travel
G1 E0.8 F1800
G1 X217.869 Y212.16 E0.0025
G1 X218.494 Y211.353 E0.06533
G1 X218.549 Y211.269 E0.00643
G1 X218.649 Y211.067 E0.01442
G1 X219.023 Y210.077 E0.06774
G1 X219.002 Y210.175 E0.00644
G1 X218.794 Y210.717 E0.03717
G1 X219.151 Y209.064 F18000
G1 F1800
G1 X219.151 Y209.103 E0.00255
G1 E-0.8
; acceleration to travel
M204 S10000
G1 X207.802 Y188.89 F18000
; decel to extrusion
M204 S2000
G1 X205.532 Y184.847
; end travel
G1 E0.8 F1800
G1 X209.078 Y184.847 E0.22692
G1 X209.323 Y184.948 E0.01696
G1 X215.052 Y190.677 E0.51846
G1 X215.153 Y190.922 E0.01696
G1 X215.153 Y195.206 E0.27418
G1 X215.82 Y195.118 E0.04301
G1 X215.82 Y190.856 E0.27276
G1 X215.794 Y190.728 E0.0084
G1 X215.569 Y190.252 E0.03364
G1 X209.748 Y184.431 E0.52686
G1 X209.273 Y184.206 E0.03364
G1 X209.144 Y184.18 E0.0084
G1 X205.77 Y184.18 E0.21592
G1 X206.095 Y183.519 E0.04715
G1 X209.242 Y183.521 E0.20136
G1 X209.497 Y183.578 E0.01676
G1 X209.924 Y183.755 E0.02955
G1 X210.196 Y183.936 E0.02093
G1 X216.064 Y189.804 E0.53105
G1 X216.245 Y190.076 E0.02093
G1 X216.441 Y190.565 E0.03373
G1 X216.486 Y190.824 E0.01676
G1 X216.486 Y194.877 E0.2594
G1 X217.152 Y194.543 E0.04771
G1 X217.152 Y190.807 E0.23905
G1 X217.083 Y190.388 E0.02721
G1 X216.841 Y189.776 E0.04209
G1 X216.546 Y189.345 E0.03344
G1 X210.655 Y183.454 E0.53315
G1 X210.194 Y183.145 E0.03551
G1 X209.706 Y182.945 E0.03374
G1 X209.226 Y182.849 E0.03137
G1 X206.61 Y182.849 E0.16741
G1 X207.436 Y182.182 E0.06797
G1 X209.217 Y182.182 E0.11401
G1 X209.719 Y182.257 E0.03243
G1 X209.985 Y182.337 E0.01778
G1 X210.632 Y182.622 E0.04523
G1 X211.109 Y182.965 E0.03765
G1 X214.059 Y185.915 E0.26697
G1 X214.737 Y186.594 E0.0614
G1 X217.035 Y188.891 E0.20792
G1 X217.2 Y189.094 E0.01674
G1 X217.432 Y189.469 E0.02827
G1 X217.724 Y190.202 E0.05045
G1 X217.819 Y190.799 E0.03868
G1 X217.819 Y194.031 E0.20685
G1 X218.485 Y193.198 E0.06827
G1 X218.485 Y190.795 E0.1538
G1 X218.453 Y190.437 E0.02301
G1 X218.362 Y190.012 E0.02776
G1 X218.022 Y189.159 E0.05881
G1 X217.751 Y188.72 E0.03298
G1 X217.564 Y188.483 E0.01936
G1 X215.793 Y186.711 E0.16032
G1 E-0.8
; acceleration to travel
M204 S10000
G1 X217.5 Y187.635 F18000
; decel to extrusion
M204 S2000
G1 X217.842 Y187.82
; end travel
G1 E0.8 F1800
G1 X217.917 Y187.895 E0.00681
G1 X218.495 Y188.648 E0.06079
G1 X218.549 Y188.731 E0.00631
G1 X218.964 Y189.7 E0.06743
G1 X219.032 Y189.989 E0.01903
G1 X219.151 Y190.898 E0.05868
G1 X219.151 Y190.935 E0.00233
G1 E-0.8
; acceleration to travel
M204 S10000
G1 X211.031 Y183.108 F18000
; decel to extrusion
M204 S2000
G1 X209.407 Y181.542
; end travel
G1 E0.8 F1800
G1 X209.853 Y181.604 E0.02877
G1 X210.236 Y181.72 E0.02562
G1 X210.978 Y182.052 E0.05201
G1 X211.56 Y182.474 E0.04601
G1 X213.941 Y184.858 E0.21564
G1 E-0.8
; acceleration to travel
M204 S10000
G1 X212.968 Y183.099 F18000
; decel to extrusion
M204 S2000
G1 X212.773 Y182.747
; end travel
G1 E0.8 F1800
G1 X212.821 Y182.795 E0.00434
G1 E-0.8
; acceleration to travel
M204 S10000
G1 X189.509 Y193.138 F18000
; decel to extrusion
M204 S2000
G1 X184.847 Y195.206
; end travel
G1 E0.8 F1800
G1 X184.847 Y190.922 E0.27418
G1 X184.948 Y190.677 E0.01696
G1 X190.677 Y184.948 E0.51846
G1 X190.922 Y184.847 E0.01696
G1 X195.206 Y184.847 E0.27418
G1 X195.118 Y184.18 E0.04301
G1 X190.856 Y184.18 E0.27276
G1 X190.728 Y184.206 E0.0084
G1 X190.252 Y184.431 E0.03364
G1 X184.431 Y190.252 E0.52686
G1 X184.358 Y190.361 E0.0084
G1 X184.18 Y190.856 E0.03364
G1 X184.18 Y195.118 E0.27276
G1 X183.514 Y194.877 E0.04536
G1 X183.514 Y190.824 E0.2594
G1 X183.578 Y190.503 E0.02093
G1 X183.786 Y190.018 E0.03373
G1 X183.936 Y189.804 E0.01676
G1 X189.804 Y183.936 E0.53105
G1 X190.076 Y183.755 E0.02093
G1 X190.565 Y183.559 E0.03373
G1 X190.824 Y183.514 E0.01676
G1 X194.878 Y183.516 E0.25944
G1 X194.543 Y182.848 E0.04778
G1 X190.807 Y182.848 E0.23906
G1 X190.388 Y182.917 E0.02721
G1 X189.776 Y183.159 E0.04209
G1 X189.345 Y183.454 E0.03344
G1 X186.703 Y186.095 E0.23905
G1 X186.594 Y185.263 E0.05373
G1 X188.891 Y182.965 E0.20791
G1 X189.094 Y182.8 E0.01674
G1 X189.469 Y182.568 E0.02827
G1 X190.218 Y182.272 E0.05149
G1 X190.799 Y182.181 E0.03764
G1 X194.031 Y182.181 E0.20685
G1 X193.198 Y181.515 E0.06828
G1 X190.795 Y181.515 E0.15379
G1 X190.437 Y181.547 E0.02301
G1 X190.02 Y181.635 E0.02723
G1 X189.159 Y181.978 E0.05933
G1 X188.714 Y182.253 E0.0335
G1 X188.44 Y182.474 E0.02249
G1 X186.711 Y184.203 E0.15647
G1 E-0.8
; acceleration to travel
M204 S10000
G1 X183.492 Y192.819 F18000
; decel to extrusion
M204 S2000
G1 X182.848 Y194.543
; end travel
G1 E0.8 F1800
G1 X182.848 Y190.807 E0.23905
G1 X182.945 Y190.294 E0.03344
G1 X183.206 Y189.69 E0.04209
G1 X183.454 Y189.345 E0.02721
G1 X186.095 Y186.703 E0.23905
G1 X185.262 Y186.594 E0.05374
G1 X182.977 Y188.879 E0.20686
G1 X182.622 Y189.368 E0.03868
G1 X182.31 Y190.092 E0.05045
G1 X182.209 Y190.522 E0.02827
G1 X182.181 Y190.799 E0.01778
G1 X182.181 Y194.031 E0.20685
G1 X181.515 Y193.198 E0.06826
G1 X181.515 Y190.787 E0.15432
G1 X181.547 Y190.437 E0.02249
G1 X181.638 Y190.013 E0.02776
G1 X182.04 Y189.044 E0.06714
G1 X182.272 Y188.687 E0.02723
G1 X182.497 Y188.417 E0.02249
G1 X184.202 Y186.711 E0.15435
G1 E-0.8
; acceleration to travel
M204 S10000
G1 X182.453 Y187.675 F18000
; decel to extrusion
M204 S2000
G1 X182.104 Y187.868
; end travel
G1 E0.8 F1800
G1 X182.131 Y187.84 E0.0025
G1 X181.506 Y188.647 E0.06532
G1 X181.451 Y188.731 E0.00643
G1 X181.351 Y188.933 E0.01442
G1 X180.977 Y189.923 E0.06774
G1 X180.998 Y189.825 E0.00644
G1 X181.206 Y189.283 E0.03717
G1 X180.849 Y190.936 F18000
G1 F1800
G1 X180.849 Y190.897 E0.00255
G1 E-0.8
; acceleration to travel
M204 S10000
G1 X186.67 Y183.599 F18000
; decel to extrusion
M204 S2000
G1 X187.834 Y182.139
; end travel
G1 E0.8 F1800
G1 X187.876 Y182.098 E0.00376
G1 X188.646 Y181.507 E0.06211
G1 X188.735 Y181.449 E0.00679
G1 X189.258 Y181.216 E0.03666
G1 X189.609 Y181.071 E0.02432
G1 X189.837 Y180.995 E0.01534
G1 X189.915 Y180.978 E0.00511
G1 X190.898 Y180.849 E0.06348
G1 X190.935 Y180.849 E0.00233
G1 E-0.8
; acceleration to travel
M204 S10000
G1 X194.494 Y209.436 F18000
; decel to extrusion
M204 S2000
G1 X195.206 Y215.153
; end travel
G1 E0.8 F1800
G1 X190.922 Y215.153 E0.27418
G1 X190.677 Y215.052 E0.01696
G1 X184.948 Y209.323 E0.51846
G1 X184.847 Y209.078 E0.01696
G1 X184.847 Y204.794 E0.27418
G1 X184.18 Y204.882 E0.04301
G1 X184.18 Y209.144 E0.27276
G1 X184.206 Y209.273 E0.0084
G1 X184.431 Y209.748 E0.03364
G1 X190.252 Y215.569 E0.52686
G1 X190.361 Y215.642 E0.0084
G1 X190.856 Y215.82 E0.03364
G1 X195.118 Y215.82 E0.27276
G1 X194.877 Y216.486 E0.04536
G1 X190.824 Y216.486 E0.2594
G1 X190.503 Y216.422 E0.02093
G1 X190.018 Y216.214 E0.03373
G1 X189.804 Y216.064 E0.01676
G1 X186.938 Y213.197 E0.2594
G1 X186.803 Y213.062 E0.01225
G1 X183.936 Y210.196 E0.2594
G1 X183.755 Y209.924 E0.02093
G1 X183.559 Y209.435 E0.03373
G1 X183.514 Y209.177 E0.01676
G1 X183.514 Y205.123 E0.2594
G1 X182.848 Y205.457 E0.04771
G1 X182.848 Y209.193 E0.23905
G1 X182.909 Y209.581 E0.02512
G1 X183.159 Y210.224 E0.04416
G1 X183.454 Y210.655 E0.03344
G1 X186.095 Y213.297 E0.23905
G1 X185.263 Y213.406 E0.05373
G1 X182.965 Y211.109 E0.20791
M73 P1 R48
G1 X182.8 Y210.906 E0.01674
G1 X182.568 Y210.531 E0.02827
G1 X182.26 Y209.735 E0.0546
G1 X182.181 Y209.201 E0.03452
G1 X182.181 Y205.969 E0.20685
G1 X181.515 Y206.802 E0.06827
G1 X181.515 Y209.205 E0.15379
G1 X181.613 Y209.893 E0.04444
G1 X181.708 Y210.205 E0.02093
G1 X181.974 Y210.834 E0.04368
G1 X182.253 Y211.286 E0.03402
G1 X182.474 Y211.56 E0.02249
G1 X184.203 Y213.289 E0.15647
G1 E-0.8
; acceleration to travel
M204 S10000
G1 X192.819 Y216.508 F18000
; decel to extrusion
M204 S2000
G1 X194.543 Y217.152
; end travel
G1 E0.8 F1800
G1 X190.807 Y217.152 E0.23905
G1 X190.294 Y217.055 E0.03344
G1 X189.69 Y216.794 E0.04209
G1 X189.345 Y216.546 E0.02721
G1 X186.703 Y213.905 E0.23905
G1 X186.594 Y214.738 E0.05374
G1 X188.879 Y217.023 E0.20686
G1 X189.368 Y217.378 E0.03868
G1 X190.092 Y217.69 E0.05045
G1 X190.522 Y217.791 E0.02827
G1 X190.799 Y217.819 E0.01778
G1 X194.031 Y217.819 E0.20685
G1 X193.198 Y218.485 E0.06826
G1 X190.787 Y218.485 E0.15433
G1 X190.437 Y218.453 E0.02249
G1 X190.012 Y218.362 E0.02776
G1 X189.044 Y217.96 E0.06714
G1 X188.687 Y217.728 E0.02723
G1 X188.417 Y217.503 E0.02249
G1 X186.711 Y215.798 E0.15435
G1 E-0.8
; acceleration to travel
M204 S10000
G1 X187.675 Y217.547 F18000
; decel to extrusion
M204 S2000
G1 X187.868 Y217.896
; end travel
G1 E0.8 F1800
G1 X187.84 Y217.869 E0.0025
G1 X188.647 Y218.494 E0.06533
G1 X188.731 Y218.549 E0.00644
G1 X189.262 Y218.785 E0.03717
G1 X189.923 Y219.023 E0.04499
G1 X189.825 Y219.002 E0.00644
G1 X189.611 Y218.93 E0.01442
G1 X190.896 Y219.151 E0.08345
G1 X190.936 Y219.151 E0.00255
G1 E-0.8
; acceleration to travel
M204 S10000
G1 X183.606 Y213.331 F18000
; decel to extrusion
M204 S2000
G1 X182.14 Y212.167
; end travel
G1 E0.8 F1800
G1 X182.097 Y212.123 E0.00393
G1 X181.542 Y211.4 E0.05836
G1 X181.388 Y211.15 E0.01879
G1 X181.309 Y210.967 E0.01275
G1 X181.066 Y210.38 E0.04064
G1 X180.98 Y210.098 E0.01887
G1 X180.849 Y209.102 E0.06431
G1 X180.849 Y209.066 E0.00231
; INIT printing object Voron_Design_Cube_v7 id:0 copy 0
G1 E-0.8
; printing object Voron_Design_Cube_v7 id:0 copy 0
; acceleration to travel
M204 S10000
G1 X185.059 Y208.969 F18000
; decel to extrusion
M204 S1000
G1 X185.48 Y208.959
; end travel
G1 E0.8 F1800
;TYPE:External perimeter
;WIDTH:0.6
;HEIGHT:0.24
G1 X185.48 Y191.041 E0.90614
G1 X191.041 Y185.48 E0.39768
G1 X208.959 Y185.48 E0.90614
G1 X209.242 Y185.762 E0.02019
G1 X209.524 Y186.045 E0.02019
G1 X212.022 Y188.543 E0.17865
G1 X214.52 Y191.041 E0.17865
G1 X214.52 Y208.959 E0.90614
G1 X208.959 Y214.52 E0.39768
G1 X191.041 Y214.52 E0.90614
G1 X185.48 Y208.959 E0.39768
;WIPE_START
M204 S4000
G1 X185.904 Y208.535 F18000
;WIPE_END
M204 S2000
G1 X186.088 Y208.535
;TYPE:Internal perimeter
;WIDTH:0.72
G1 F1800
G1 X186.088 Y191.293 E1.0627
G1 X191.293 Y186.088 E0.45362
G1 X208.707 Y186.088 E1.07332
G1 X208.811 Y186.193 E0.00907
G1 X213.912 Y191.293 E0.44454
G1 X213.912 Y208.707 E1.07332
G1 X208.707 Y213.912 E0.45361
G1 X191.293 Y213.912 E1.07332
G1 X186.088 Y208.707 E0.45361
G1 X186.088 Y208.535 E0.01061
G1 X186.757 Y208.43 F18000
G1 F1800
G1 X186.757 Y191.57 E1.03918
G1 X191.57 Y186.757 E0.41948
G1 X208.43 Y186.757 E1.03918
G1 X213.243 Y191.57 E0.41948
G1 X213.243 Y208.43 E1.03918
G1 X208.43 Y213.243 E0.41948
G1 X191.57 Y213.243 E1.03918
G1 X186.757 Y208.43 E0.41948
; acceleration to travel
M204 S10000
