; generated by SuperSlicer 2.4 on 2022-10-20 at 21:27:39 UTC


;
;

;
;
; 

; external perimeters extrusion width = 0.60mm
; perimeters extrusion width = 0.75mm
; infill extrusion width = 1.08mm
; solid infill extrusion width = 0.84mm
; top infill extrusion width = 0.60mm

; object:{"name":"Voron_Design_Cube_v7","id":"Voron_Design_Cube_v7 id:0 copy 0","object_center":[200.000000,200.000000,0.000000],"boundingbox_center":[200.000000,200.000000,15.000000],"boundingbox_size":[30.000000,30.000000,30.000000]}
; plater:{"center":[200.000000,200.000000,0.000000],"boundingbox_center":[200.000000,200.000000,15.000000],"boundingbox_size":[30.000000,30.000000,30.000000]}

M73 P0 R51
;TYPE:Custom
; custom gcode: start_gcode
PRINT_START BED=80 HOTEND=230 CHAMBER=30
PRIME_NOZZLE
; custom gcode end: start_gcode
G21 ; set units to millimeters
G90 ; use absolute coordinates
M83 ; use relative distances for extrusion
; custom gcode: start_filament_gcode
; Filament gcode
SET_PRESSURE_ADVANCE ADVANCE=0.06 ; comnmented out | Tune for filament
; custom gcode end: start_filament_gcode
M104 S230 ; set temperature
M109 S230 ; set temperature and wait for it to be reached
M190 S80 ; set bed temperature and wait for it to be reached
M106 S216.75
;LAYER_CHANGE
;Z:0.24
;HEIGHT:0.24
G1 Z0.24 F1800
G92 E0
G1 E-1.2
M204 S2000
G1 X181.653 Y181.653 F18000
G1 E1.2 F1800
;TYPE:Skirt
;WIDTH:0.75
G1 X177.32 Y185.985 E0.38435
G1 X176.531 Y187.102 E0.08578
G1 X176.135 Y188.845 E0.11213
G1 X176.135 Y211.155 E1.39939
G1 X176.367 Y212.502 E0.08578
G1 X177.32 Y214.015 E0.11213
G1 X185.985 Y222.68 E0.76869
G1 X187.102 Y223.469 E0.08578
G1 X188.845 Y223.865 E0.11213
G1 X211.155 Y223.865 E1.39939
G1 X212.502 Y223.633 E0.08578
G1 X214.015 Y222.68 E0.11213
G1 X222.68 Y214.015 E0.76869
G1 X223.469 Y212.898 E0.08578
G1 X223.865 Y211.155 E0.11213
G1 X223.865 Y188.845 E1.39939
G1 X223.633 Y187.498 E0.08578
G1 X222.68 Y185.985 E0.11213
G1 X214.015 Y177.32 E0.76869
G1 X212.898 Y176.531 E0.08578
G1 X211.155 Y176.135 E0.11213
G1 X188.845 Y176.135 E1.39939
G1 X187.498 Y176.367 E0.08578
G1 X185.985 Y177.32 E0.11213
G1 X181.653 Y181.653 E0.38435
G1 X182.145 Y182.145 F18000
G1 F1800
G1 X177.812 Y186.478 E0.38435
G1 X177.226 Y187.27 E0.06181
G1 X176.832 Y188.845 E0.10189
G1 X176.832 Y211.155 E1.39939
G1 X176.977 Y212.129 E0.06181
G1 X177.812 Y213.522 E0.10189
G1 X186.478 Y222.188 E0.76869
G1 X187.27 Y222.774 E0.06181
G1 X188.845 Y223.168 E0.10189
G1 X211.155 Y223.168 E1.39939
G1 X212.129 Y223.023 E0.06181
G1 X213.522 Y222.188 E0.10189
G1 X222.188 Y213.522 E0.76869
G1 X222.774 Y212.731 E0.06181
G1 X223.168 Y211.155 E0.10189
G1 X223.168 Y188.845 E1.39939
G1 X223.023 Y187.871 E0.06181
G1 X222.188 Y186.478 E0.10189
G1 X213.522 Y177.812 E0.76869
G1 X212.731 Y177.226 E0.06181
G1 X211.155 Y176.832 E0.10189
G1 X188.845 Y176.832 E1.39939
G1 X187.871 Y176.977 E0.06181
G1 X186.478 Y177.812 E0.10189
G1 X182.145 Y182.145 E0.38435
G1 E-1.2
; acceleration to travel
M204 S10000
G1 X207.973 Y210.508 F18000
; decel to extrusion
M204 S2000
G1 X213.139 Y216.18
; end travel
G1 E1.2 F1800
;HEIGHT:0.25
G1 X211.671 Y217.647 E0.13518
G1 X211.386 Y217.879 E0.02393
G1 X210.913 Y218.17 E0.03619
G1 X210.256 Y218.448 E0.04646
G1 X209.929 Y218.548 E0.02226
G1 X209.211 Y218.65 E0.04727
G1 X207.18 Y218.65 E0.13227
G1 X206.158 Y217.954 E0.08054
G1 X209.206 Y217.954 E0.19855
G1 X209.764 Y217.871 E0.03672
G1 X210.596 Y217.55 E0.05808
G1 X210.988 Y217.307 E0.03007
G1 X211.2 Y217.134 E0.01781
G1 X213.368 Y214.967 E0.19968
G1 X213.288 Y214.063 E0.05912
G1 X210.726 Y216.624 E0.23595
G1 X210.275 Y216.932 E0.03558
G1 X209.603 Y217.194 E0.04698
G1 X209.198 Y217.257 E0.02672
G1 X205.576 Y217.257 E0.23595
G1 X205.186 Y216.561 E0.05196
G1 X209.181 Y216.561 E0.26019
G1 X209.45 Y216.514 E0.01783
G1 X209.962 Y216.31 E0.03588
G1 X210.246 Y216.12 E0.02226
G1 X213.07 Y213.295 E0.26019
G1 X216.12 Y210.246 E0.2809
G1 X216.277 Y210.022 E0.01783
G1 X216.494 Y209.516 E0.03587
G1 X216.561 Y209.181 E0.02226
G1 X216.561 Y205.186 E0.26019
G1 X215.865 Y204.917 E0.04862
G1 X215.865 Y209.146 E0.27548
G1 X215.838 Y209.281 E0.00894
G1 X215.679 Y209.664 E0.02698
G1 X215.603 Y209.778 E0.00894
G1 X209.778 Y215.603 E0.53664
G1 X209.664 Y215.679 E0.00894
G1 X209.281 Y215.838 E0.02698
G1 X209.146 Y215.865 E0.00894
G1 X204.917 Y215.865 E0.27548
G1 X204.826 Y215.168 E0.04575
G1 X209.078 Y215.168 E0.27698
G1 X209.334 Y215.062 E0.01805
G1 X215.062 Y209.334 E0.5277
G1 X215.168 Y209.078 E0.01805
G1 X215.168 Y204.826 E0.27698
G1 E-1.2
G1 X217.257 Y205.576 F18000
G1 E1.2 F1800
G1 X217.257 Y209.198 E0.23595
G1 X217.156 Y209.734 E0.03558
G1 X216.883 Y210.365 E0.04477
G1 X216.624 Y210.726 E0.02894
G1 X214.063 Y213.288 E0.23595
G1 X214.967 Y213.368 E0.05913
G1 X217.123 Y211.213 E0.19856
G1 X217.493 Y210.701 E0.04115
G1 X217.819 Y209.945 E0.05366
G1 X217.925 Y209.495 E0.03007
G1 X217.954 Y209.206 E0.01892
G1 X217.954 Y206.158 E0.19855
G1 X218.65 Y207.18 E0.08053
G1 X218.65 Y209.219 E0.13284
G1 X218.616 Y209.585 E0.02392
G1 X218.522 Y210.028 E0.02953
G1 X218.228 Y210.789 E0.05312
G1 X218.101 Y211.041 E0.01837
G1 X217.859 Y211.413 E0.02897
G1 X217.624 Y211.696 E0.02393
G1 X216.181 Y213.138 E0.13287
G1 E-1.2
; acceleration to travel
M204 S10000
G1 X207.334 Y189.55 F18000
; decel to extrusion
M204 S2000
G1 X205.564 Y184.832
; end travel
G1 E1.2 F1800
G1 X209.078 Y184.832 E0.22888
G1 X209.334 Y184.938 E0.01805
G1 X215.062 Y190.666 E0.5277
G1 X215.168 Y190.922 E0.01805
G1 X215.168 Y195.174 E0.27698
G1 X215.865 Y195.083 E0.04575
G1 X215.865 Y190.854 E0.27548
G1 X215.838 Y190.719 E0.00894
G1 X215.679 Y190.336 E0.02698
G1 X215.603 Y190.222 E0.00894
G1 X209.778 Y184.397 E0.53664
G1 X209.664 Y184.321 E0.00894
G1 X209.281 Y184.162 E0.02698
G1 X209.146 Y184.135 E0.00894
G1 X205.821 Y184.135 E0.21665
G1 X206.19 Y183.445 E0.05103
G1 X209.249 Y183.446 E0.19924
G1 X209.516 Y183.506 E0.01783
G1 X209.962 Y183.69 E0.03144
G1 X210.246 Y183.88 E0.02226
G1 X216.12 Y189.754 E0.54109
G1 X216.31 Y190.038 E0.02226
G1 X216.514 Y190.55 E0.03588
G1 X216.561 Y190.819 E0.01783
G1 X216.561 Y194.814 E0.26019
G1 X217.257 Y194.424 E0.05196
G1 X217.257 Y190.802 E0.23595
G1 X217.185 Y190.364 E0.02894
G1 X216.932 Y189.725 E0.04477
G1 X216.624 Y189.274 E0.03558
G1 X214.063 Y186.712 E0.23595
G1 X213.94 Y186.59 E0.01131
G1 X210.726 Y183.376 E0.29606
G1 X210.244 Y183.054 E0.03778
G1 X209.734 Y182.844 E0.03589
G1 X209.232 Y182.744 E0.03337
G1 X206.752 Y182.744 E0.16156
G1 X207.726 Y182.047 E0.07803
G1 X209.223 Y182.047 E0.09756
G1 X209.747 Y182.125 E0.0345
G1 X210.025 Y182.209 E0.01892
G1 X210.701 Y182.507 E0.04811
G1 X211.2 Y182.866 E0.04004
G1 X214.02 Y185.686 E0.2598
G1 X213.792 Y184.475 E0.08024
G1 X211.671 Y182.353 E0.19548
G1 X211.063 Y181.911 E0.04894
G1 X210.405 Y181.617 E0.04694
G1 E-1.2
; acceleration to travel
M204 S10000
G1 X214.206 Y185.796 F18000
; decel to extrusion
M204 S2000
G1 X214.967 Y186.632
; end travel
G1 E1.2 F1800
G1 X217.134 Y188.8 E0.19969
G1 X217.307 Y189.012 E0.01781
G1 X217.55 Y189.404 E0.03007
G1 X217.854 Y190.17 E0.05366
G1 X217.954 Y190.794 E0.04115
G1 X217.954 Y193.842 E0.19855
G1 X218.65 Y192.82 E0.08054
G1 X218.65 Y190.789 E0.13227
G1 X218.616 Y190.415 E0.02448
G1 X218.522 Y189.972 E0.02953
G1 X218.166 Y189.08 E0.06256
G1 X217.883 Y188.621 E0.03508
G1 X217.688 Y188.373 E0.02059
G1 X216.174 Y186.859 E0.13945
G1 E-1.2
; acceleration to travel
M204 S10000
G1 X190.056 Y193.788 F18000
; decel to extrusion
M204 S2000
G1 X184.832 Y195.174
; end travel
G1 E1.2 F1800
G1 X184.832 Y190.922 E0.27698
G1 X184.938 Y190.666 E0.01805
G1 X190.666 Y184.938 E0.5277
G1 X190.922 Y184.832 E0.01805
G1 X195.174 Y184.832 E0.27698
G1 X195.083 Y184.135 E0.04575
G1 X190.854 Y184.135 E0.27548
G1 X190.719 Y184.162 E0.00894
G1 X190.336 Y184.321 E0.02698
G1 X190.222 Y184.397 E0.00894
G1 X184.397 Y190.222 E0.53664
G1 X184.321 Y190.336 E0.00894
G1 X184.162 Y190.719 E0.02698
G1 X184.135 Y190.854 E0.00894
G1 X184.135 Y195.083 E0.27548
G1 X183.439 Y194.814 E0.04862
G1 X183.439 Y190.819 E0.26019
G1 X183.506 Y190.484 E0.02226
G1 X183.723 Y189.978 E0.03587
G1 X183.88 Y189.754 E0.01783
G1 X186.93 Y186.705 E0.2809
G1 X189.754 Y183.88 E0.26019
G1 X190.038 Y183.69 E0.02226
G1 X190.55 Y183.486 E0.03588
G1 X190.819 Y183.439 E0.01783
G1 X194.814 Y183.441 E0.26023
G1 X194.425 Y182.743 E0.05204
G1 X190.802 Y182.743 E0.23597
G1 X190.364 Y182.815 E0.02894
G1 X189.725 Y183.068 E0.04477
G1 X189.274 Y183.376 E0.03558
G1 X186.712 Y185.937 E0.23595
G1 X186.632 Y185.033 E0.05912
G1 X188.8 Y182.866 E0.19968
G1 X189.012 Y182.693 E0.01781
G1 X189.404 Y182.45 E0.03007
G1 X190.186 Y182.141 E0.05477
G1 X190.794 Y182.046 E0.04004
G1 X193.842 Y182.046 E0.19855
G1 X192.82 Y181.35 E0.08055
G1 X190.789 Y181.35 E0.13227
G1 X190.415 Y181.384 E0.02448
G1 X189.98 Y181.476 E0.02897
G1 X189.08 Y181.834 E0.06311
G1 X188.614 Y182.121 E0.03563
G1 X188.329 Y182.353 E0.02393
G1 X186.861 Y183.82 E0.13518
G1 E-1.2
; acceleration to travel
M204 S10000
G1 X183.429 Y192.657 F18000
; decel to extrusion
M204 S2000
G1 X182.743 Y194.424
; end travel
G1 E1.2 F1800
G1 X182.743 Y190.802 E0.23595
G1 X182.844 Y190.266 E0.03558
G1 X183.117 Y189.635 E0.04477
G1 X183.376 Y189.274 E0.02894
G1 X185.937 Y186.712 E0.23595
G1 X185.033 Y186.632 E0.05913
G1 X182.877 Y188.787 E0.19856
G1 X182.507 Y189.299 E0.04115
G1 X182.181 Y190.055 E0.05366
G1 X182.075 Y190.505 E0.03007
G1 X182.046 Y190.794 E0.01892
G1 X182.046 Y193.842 E0.19855
G1 X181.35 Y192.82 E0.08053
G1 X181.35 Y190.781 E0.13284
G1 X181.384 Y190.415 E0.02392
G1 X181.478 Y189.972 E0.02953
G1 X181.772 Y189.211 E0.05312
G1 X181.899 Y188.959 E0.01837
G1 X182.141 Y188.587 E0.02897
G1 X182.376 Y188.304 E0.02393
G1 X183.819 Y186.862 E0.13287
G1 E-1.2
; acceleration to travel
M204 S10000
G1 X193.282 Y210.45 F18000
; decel to extrusion
M204 S2000
G1 X195.174 Y215.168
; end travel
G1 E1.2 F1800
G1 X190.922 Y215.168 E0.27698
G1 X190.666 Y215.062 E0.01805
G1 X184.938 Y209.334 E0.5277
G1 X184.832 Y209.078 E0.01805
G1 X184.832 Y204.826 E0.27698
G1 X184.135 Y204.917 E0.04575
G1 X184.135 Y209.146 E0.27548
G1 X184.162 Y209.281 E0.00894
G1 X184.321 Y209.664 E0.02698
G1 X184.397 Y209.778 E0.00894
G1 X190.222 Y215.603 E0.53664
G1 X190.336 Y215.679 E0.00894
G1 X190.719 Y215.838 E0.02698
G1 X190.854 Y215.865 E0.00894
G1 X195.083 Y215.865 E0.27548
G1 X194.814 Y216.561 E0.04862
G1 X190.819 Y216.561 E0.26019
G1 X190.484 Y216.494 E0.02226
G1 X189.978 Y216.277 E0.03587
G1 X189.754 Y216.12 E0.01783
G1 X186.93 Y213.295 E0.26019
G1 X186.705 Y213.07 E0.02071
G1 X183.88 Y210.246 E0.26019
G1 X183.69 Y209.962 E0.02226
G1 X183.486 Y209.45 E0.03588
G1 X183.439 Y209.181 E0.01783
G1 X183.439 Y205.186 E0.26019
G1 X182.743 Y205.576 E0.05196
G1 X182.743 Y209.198 E0.23595
G1 X182.806 Y209.603 E0.02672
G1 X183.068 Y210.275 E0.04698
G1 X183.376 Y210.726 E0.03558
G1 X185.937 Y213.288 E0.23595
G1 X185.033 Y213.368 E0.05912
G1 X182.866 Y211.2 E0.19968
G1 X182.693 Y210.988 E0.01781
G1 X182.45 Y210.596 E0.03007
G1 X182.129 Y209.764 E0.05808
G1 X182.046 Y209.206 E0.03672
G1 X182.046 Y206.158 E0.19855
G1 X181.35 Y207.18 E0.08054
G1 X181.35 Y209.211 E0.13227
G1 X181.452 Y209.929 E0.04727
G1 X181.552 Y210.256 E0.02226
G1 X181.83 Y210.913 E0.04646
G1 X182.121 Y211.386 E0.03619
G1 X182.353 Y211.671 E0.02393
G1 X183.82 Y213.139 E0.13518
G1 E-1.2
; acceleration to travel
M204 S10000
G1 X192.657 Y216.571 F18000
; decel to extrusion
M204 S2000
G1 X194.424 Y217.257
; end travel
G1 E1.2 F1800
G1 X190.802 Y217.257 E0.23595
G1 X190.266 Y217.156 E0.03558
G1 X189.635 Y216.883 E0.04477
G1 X189.274 Y216.624 E0.02894
G1 X186.712 Y214.063 E0.23595
G1 X186.632 Y214.967 E0.05913
G1 X188.787 Y217.123 E0.19856
G1 X189.299 Y217.493 E0.04115
G1 X190.055 Y217.819 E0.05366
G1 X190.505 Y217.925 E0.03007
G1 X190.794 Y217.954 E0.01892
G1 X193.842 Y217.954 E0.19855
G1 X192.82 Y218.65 E0.08053
G1 X190.781 Y218.65 E0.13284
G1 X190.415 Y218.616 E0.02392
G1 X189.972 Y218.522 E0.02953
G1 X189.211 Y218.228 E0.05312
G1 X188.959 Y218.101 E0.01836
G1 X188.587 Y217.859 E0.02897
G1 X188.304 Y217.624 E0.02393
G1 X186.862 Y216.181 E0.13287
; INIT printing object Voron_Design_Cube_v7 id:0 copy 0
G1 E-1.2
; printing object Voron_Design_Cube_v7 id:0 copy 0
; acceleration to travel
M204 S10000
G1 X190.661 Y214.671 F18000
; decel to extrusion
M204 S1000
G1 X191.041 Y214.52
; end travel
G1 E1.2 F1800
;TYPE:External perimeter
;WIDTH:0.6
;HEIGHT:0.24
G1 X185.48 Y208.959 E0.38735
G1 X185.48 Y191.041 E0.8826
G1 X191.041 Y185.48 E0.38735
G1 X208.959 Y185.48 E0.8826
M73 P1 R51
G1 X209.242 Y185.762 E0.01966
G1 X209.524 Y186.045 E0.01966
G1 X212.022 Y188.543 E0.17401
G1 X214.52 Y191.041 E0.17401
G1 X214.52 Y208.959 E0.8826
G1 X208.959 Y214.52 E0.38735
G1 X191.041 Y214.52 E0.8826
;WIPE_START
M204 S4000
G1 X191.041 Y213.92 F18000
;WIPE_END
M204 S2000
G1 X191.182 Y213.779
;TYPE:Internal perimeter
;WIDTH:0.75
G1 F1800
G1 X186.103 Y208.701 E0.45047
G1 X186.103 Y191.299 E1.09158
G1 X191.299 Y186.103 E0.46088
G1 X208.701 Y186.103 E1.09158
G1 X208.801 Y186.203 E0.00884
G1 X213.897 Y191.299 E0.45204
G1 X213.897 Y208.701 E1.09158
G1 X208.701 Y213.897 E0.46088
G1 X191.299 Y213.897 E1.09158
G1 X191.182 Y213.779 E0.01041
G1 X191.588 Y213.198 F18000
G1 F1800
G1 X186.802 Y208.412 E0.42458
G1 X186.802 Y191.588 E1.05528
G1 X191.588 Y186.802 E0.42458
G1 X208.412 Y186.802 E1.05528
G1 X213.198 Y191.588 E0.42458
G1 X213.198 Y208.412 E1.05528
G1 X208.412 Y213.198 E0.42458
G1 X191.588 Y213.198 E1.05528
; acceleration to travel
M204 S10000
G1 X195.381 Y207.502 F18000
; decel to extrusion
M204 S1000
G1 X195.76 Y206.932
; end travel
;TYPE:External perimeter
;WIDTH:0.6
G1 F1800
G1 X195.85 Y206.991 E0.00529
G1 X196.592 Y207.382 E0.04131
G1 X197.141 Y207.609 E0.02927
G1 X197.779 Y207.821 E0.03309
G1 X198.107 Y207.896 E0.01658
G1 X198.597 Y208.008 E0.02478
G1 X199.432 Y208.111 E0.04144
G1 X200.273 Y208.126 E0.04143
G1 X201.111 Y208.054 E0.04143
G1 X201.63 Y207.955 E0.02603
G1 X201.937 Y207.896 E0.0154
G1 X202.26 Y207.799 E0.0166
G1 X202.74 Y207.654 E0.0247
G1 X203.292 Y207.433 E0.02928
G1 X203.895 Y207.136 E0.0331
G1 X204.131 Y206.991 E0.01364
G1 X204.61 Y206.697 E0.0277
G1 X204.648 Y206.668 E0.00235
G1 X205.277 Y206.185 E0.03909
G1 X205.888 Y205.606 E0.04143
G1 X206.436 Y204.968 E0.04143
G1 X206.915 Y204.276 E0.04143
G1 X207.319 Y203.539 E0.04143
G1 X207.646 Y202.764 E0.04143
G1 X207.89 Y201.959 E0.04143
G1 X208.051 Y201.133 E0.04143
G1 X208.063 Y200.994 E0.0069
G1 X208.124 Y200.298 E0.03438
G1 X208.124 Y199.702 E0.0294
G1 X208.051 Y198.867 E0.04128
G1 X207.89 Y198.041 E0.04143
G1 X207.854 Y197.919 E0.00626
G1 X207.646 Y197.238 E0.03507
G1 X207.392 Y196.616 E0.03311
G1 X207.257 Y196.348 E0.01475
G1 X207.125 Y196.085 E0.01454
G1 X206.684 Y195.372 E0.04129
G1 X206.17 Y194.706 E0.04143
G1 X205.992 Y194.519 E0.01271
G1 X205.59 Y194.097 E0.02872
G1 X205.489 Y194.01 E0.00658
G1 X204.95 Y193.551 E0.03486
G1 X204.513 Y193.25 E0.02614
G1 X204.257 Y193.074 E0.01529
G1 X203.521 Y192.672 E0.04134
G1 X203.394 Y192.617 E0.0068
G1 X202.903 Y192.407 E0.0263
G1 X202.341 Y192.214 E0.02928
G1 X201.526 Y192.014 E0.0413
G1 X200.693 Y191.899 E0.04144
G1 X199.852 Y191.871 E0.04143
G1 X199.449 Y191.899 E0.01994
G1 X199.433 Y191.9 E0.00078
G1 X199.013 Y191.93 E0.02072
G1 X198.185 Y192.075 E0.04143
G1 X197.375 Y192.305 E0.04144
G1 X196.594 Y192.617 E0.04143
G1 X195.85 Y193.009 E0.04144
G1 X195.752 Y193.074 E0.00578
G1 X195.15 Y193.475 E0.03566
G1 X194.502 Y194.01 E0.04136
G1 X194.028 Y194.486 E0.03309
G1 X193.64 Y194.935 E0.02926
G1 X193.152 Y195.617 E0.04132
G1 X192.736 Y196.348 E0.04143
G1 X192.397 Y197.118 E0.04144
G1 X192.14 Y197.919 E0.04143
G1 X191.967 Y198.743 E0.04144
G1 X191.89 Y199.486 E0.03683
M73 P1 R50
G1 X191.88 Y199.579 E0.00461
G1 X191.88 Y200.421 E0.04144
G1 X191.967 Y201.257 E0.04143
G1 X192.14 Y202.081 E0.04144
G1 X192.396 Y202.879 E0.04132
G1 X192.585 Y203.323 E0.02375
G1 X192.629 Y203.426 E0.00551
G1 X192.785 Y203.731 E0.01689
G1 X192.935 Y204.024 E0.01619
G1 X193.388 Y204.731 E0.04137
G1 X193.576 Y204.968 E0.01491
G1 X193.912 Y205.389 E0.02652
G1 X194.501 Y205.989 E0.04143
G1 X195.15 Y206.525 E0.04143
