; generated by SuperSlicer 2.4 on 2022-10-20 at 22:32:43 UTC


;
;

;
;
; 

; external perimeters extrusion width = 0.60mm
; perimeters extrusion width = 0.75mm
; infill extrusion width = 1.08mm
; solid infill extrusion width = 0.84mm
; top infill extrusion width = 0.60mm

; object:{"name":"Voron_Design_Cube_v7","id":"Voron_Design_Cube_v7 id:0 copy 0","object_center":[200.000000,200.000000,0.000000],"boundingbox_center":[200.000000,200.000000,15.000000],"boundingbox_size":[30.000000,30.000000,30.000000]}
; plater:{"center":[200.000000,200.000000,0.000000],"boundingbox_center":[200.000000,200.000000,15.000000],"boundingbox_size":[30.000000,30.000000,30.000000]}

M73 P0 R63
;TYPE:Custom
; custom gcode: start_gcode
PRINT_START BED=65 HOTEND=215 CHAMBER=25
PRIME_NOZZLE
; custom gcode end: start_gcode
M107
G21 ; set units to millimeters
G90 ; use absolute coordinates
M83 ; use relative distances for extrusion
; custom gcode: start_filament_gcode
; Filament gcode
SET_PRESSURE_ADVANCE ADVANCE=0.014 ; comnmented out | Tune for filament
; custom gcode end: start_filament_gcode
M104 S215 ; set temperature
M109 S215 ; set temperature and wait for it to be reached
M190 S65 ; set bed temperature and wait for it to be reached
;LAYER_CHANGE
;Z:0.24
;HEIGHT:0.24
G1 Z0.24 F1800
G92 E0
G1 E-1.2
M204 S2000
G1 X184.696 Y184.696 F18000
G1 E1.2 F1800
;TYPE:Skirt
;WIDTH:0.75
G1 X181.828 Y187.564 E0.27564
G1 X180.835 Y189.02 E0.11975
G1 X180.439 Y190.916 E0.13164
G1 X180.439 Y209.084 E1.23453
G1 X180.767 Y210.815 E0.11975
G1 X181.828 Y212.436 E0.13164
G1 X187.564 Y218.172 E0.55128
G1 X189.02 Y219.165 E0.11975
G1 X190.916 Y219.561 E0.13164
G1 X209.084 Y219.561 E1.23453
G1 X210.815 Y219.233 E0.11975
G1 X212.436 Y218.172 E0.13164
G1 X218.172 Y212.436 E0.55128
G1 X219.165 Y210.98 E0.11975
G1 X219.561 Y209.084 E0.13164
G1 X219.561 Y190.916 E1.23453
G1 X219.233 Y189.185 E0.11975
G1 X218.172 Y187.564 E0.13164
G1 X212.436 Y181.828 E0.55128
G1 X210.98 Y180.835 E0.11975
G1 X209.084 Y180.439 E0.13164
G1 X190.916 Y180.439 E1.23453
G1 X189.185 Y180.767 E0.11975
G1 X187.564 Y181.828 E0.13164
G1 X184.696 Y184.696 E0.27564
G1 X185.188 Y185.188 F18000
G1 F1800
G1 X182.32 Y188.057 E0.27564
G1 X181.531 Y189.173 E0.09292
G1 X181.135 Y190.916 E0.12148
G1 X181.135 Y209.084 E1.23453
G1 X181.367 Y210.431 E0.09292
G1 X182.32 Y211.944 E0.12148
G1 X188.057 Y217.68 E0.55128
G1 X189.173 Y218.469 E0.09292
G1 X190.916 Y218.865 E0.12148
G1 X209.084 Y218.865 E1.23453
G1 X210.431 Y218.633 E0.09292
G1 X211.944 Y217.68 E0.12148
G1 X217.68 Y211.944 E0.55128
G1 X218.469 Y210.827 E0.09292
G1 X218.865 Y209.084 E0.12148
G1 X218.865 Y190.916 E1.23453
G1 X218.633 Y189.569 E0.09292
G1 X217.68 Y188.057 E0.12148
G1 X211.944 Y182.32 E0.55128
G1 X210.827 Y181.531 E0.09292
G1 X209.084 Y181.135 E0.12148
G1 X190.916 Y181.135 E1.23453
G1 X189.569 Y181.367 E0.09292
G1 X188.057 Y182.32 E0.12148
G1 X185.188 Y185.188 E0.27564
G1 X185.681 Y185.681 F18000
G1 F1800
G1 X182.812 Y188.549 E0.27564
G1 X182.226 Y189.341 E0.06696
G1 X181.832 Y190.916 E0.11038
G1 X181.832 Y209.084 E1.23453
G1 X181.977 Y210.058 E0.06696
G1 X182.812 Y211.451 E0.11038
G1 X188.549 Y217.188 E0.55128
G1 X189.341 Y217.774 E0.06696
G1 X190.916 Y218.168 E0.11038
G1 X209.084 Y218.168 E1.23453
G1 X210.058 Y218.023 E0.06696
G1 X211.451 Y217.188 E0.11038
G1 X217.188 Y211.451 E0.55128
G1 X217.774 Y210.659 E0.06696
G1 X218.168 Y209.084 E0.11038
G1 X218.168 Y190.916 E1.23453
G1 X218.023 Y189.942 E0.06696
G1 X217.188 Y188.549 E0.11038
G1 X211.451 Y182.812 E0.55128
G1 X210.659 Y182.226 E0.06696
G1 X209.084 Y181.832 E0.11038
G1 X190.916 Y181.832 E1.23453
G1 X189.942 Y181.977 E0.06696
G1 X188.549 Y182.812 E0.11038
G1 X185.681 Y185.681 E0.27564
; INIT printing object Voron_Design_Cube_v7 id:0 copy 0
G1 E-1.2
; printing object Voron_Design_Cube_v7 id:0 copy 0
; acceleration to travel
M204 S10000
G1 X192.058 Y192.038 F18000
; decel to extrusion
M204 S2000
G1 X193.334 Y193.31
; end travel
G1 E1.2 F1800
;TYPE:Internal perimeter
G1 X193.059 Y193.586 E0.0265
G1 X192.6 Y194.117 E0.04768
G1 X192.037 Y194.904 E0.06576
G1 X191.553 Y195.754 E0.06647
G1 X191.159 Y196.649 E0.06647
G1 X190.86 Y197.581 E0.06647
G1 X190.659 Y198.538 E0.06647
G1 X190.558 Y199.511 E0.06647
G1 X190.558 Y200.489 E0.06648
G1 X190.659 Y201.462 E0.06646
G1 X190.86 Y202.419 E0.06647
G1 X191.156 Y203.341 E0.06579
G1 X191.431 Y203.986 E0.04766
G1 X191.787 Y204.683 E0.05314
G1 X192.311 Y205.501 E0.06606
G1 X192.921 Y206.266 E0.06647
G1 X193.606 Y206.964 E0.06647
G1 X194.36 Y207.588 E0.06647
G1 X195.174 Y208.13 E0.06646
G1 X196.03 Y208.58 E0.06572
G1 X196.679 Y208.849 E0.04772
G1 X197.422 Y209.096 E0.05321
G1 X198.369 Y209.312 E0.06599
G1 X199.34 Y209.431 E0.06647
G1 X200.318 Y209.449 E0.06647
G1 X201.292 Y209.365 E0.06647
G1 X202.253 Y209.182 E0.06646
G1 X203.178 Y208.903 E0.06567
G1 X203.831 Y208.641 E0.04778
G1 X204.534 Y208.295 E0.05326
G1 X205.361 Y207.787 E0.06593
G1 X206.137 Y207.192 E0.06648
G1 X206.847 Y206.519 E0.06647
G1 X207.484 Y205.777 E0.06647
G1 X208.04 Y204.973 E0.06646
G1 X208.511 Y204.115 E0.06646
G1 X208.891 Y203.214 E0.06647
G1 X209.175 Y202.278 E0.06647
G1 X209.361 Y201.318 E0.06647
G1 X209.446 Y200.357 E0.06556
G1 X209.446 Y199.643 E0.04847
G1 X209.361 Y198.682 E0.06556
G1 X209.175 Y197.722 E0.06647
G1 X208.893 Y196.794 E0.06589
G1 X208.596 Y196.068 E0.05333
G1 X208.28 Y195.439 E0.04783
G1 X207.772 Y194.618 E0.0656
G1 X207.175 Y193.844 E0.06647
G1 X206.5 Y193.135 E0.06646
G1 X205.756 Y192.5 E0.06647
G1 X204.951 Y191.946 E0.06647
G1 X204.099 Y191.481 E0.06594
G1 X203.378 Y191.172 E0.05326
G1 X202.713 Y190.944 E0.04777
G1 X201.775 Y190.714 E0.06567
G1 X200.806 Y190.58 E0.06647
G1 X199.828 Y190.547 E0.06647
G1 X199.356 Y190.58 E0.03216
G1 X198.852 Y190.616 E0.03431
G1 X197.889 Y190.785 E0.06647
G1 X196.948 Y191.052 E0.06647
G1 X196.04 Y191.415 E0.06647
G1 X195.174 Y191.87 E0.06647
G1 X194.36 Y192.412 E0.06647
G1 X193.611 Y193.032 E0.06603
G1 X193.334 Y193.31 E0.02666
G1 X193.829 Y193.803 F18000
G1 F1800
G1 X193.571 Y194.061 E0.02481
G1 X193.149 Y194.549 E0.04381
G1 X192.626 Y195.281 E0.06113
G1 X192.178 Y196.068 E0.06155
G1 X191.813 Y196.897 E0.06156
G1 X191.537 Y197.76 E0.06155
G1 X191.35 Y198.646 E0.06156
G1 X191.257 Y199.547 E0.06155
G1 X191.257 Y200.453 E0.06156
G1 X191.35 Y201.354 E0.06155
G1 X191.537 Y202.24 E0.06155
G1 X191.812 Y203.097 E0.06115
G1 X192.064 Y203.69 E0.0438
G1 X192.394 Y204.334 E0.04917
G1 X192.88 Y205.094 E0.06131
G1 X193.444 Y205.803 E0.06155
G1 X194.079 Y206.449 E0.06155
G1 X194.777 Y207.026 E0.06155
G1 X195.531 Y207.528 E0.06155
G1 X196.327 Y207.947 E0.06111
G1 X196.923 Y208.194 E0.04384
G1 X197.61 Y208.422 E0.04922
G1 X198.489 Y208.623 E0.06127
G1 X199.388 Y208.733 E0.06155
G1 X200.294 Y208.75 E0.06155
G1 X201.196 Y208.673 E0.06155
G1 X202.086 Y208.502 E0.06155
G1 X202.947 Y208.243 E0.06108
G1 X203.546 Y208.003 E0.04388
G1 X204.196 Y207.683 E0.04925
G1 X204.964 Y207.211 E0.06123
G1 X205.683 Y206.66 E0.06156
G1 X206.34 Y206.037 E0.06155
G1 X206.93 Y205.349 E0.06155
G1 X207.446 Y204.605 E0.06155
G1 X207.881 Y203.811 E0.06155
G1 X208.233 Y202.976 E0.06155
G1 X208.496 Y202.109 E0.06155
G1 X208.669 Y201.22 E0.06155
G1 X208.748 Y200.326 E0.06101
G1 X208.748 Y199.674 E0.04429
G1 X208.669 Y198.78 E0.06101
G1 X208.496 Y197.891 E0.06155
G1 X208.235 Y197.029 E0.0612
G1 X207.96 Y196.358 E0.04929
G1 X207.67 Y195.78 E0.04391
G1 X207.197 Y195.016 E0.06103
G1 X206.644 Y194.299 E0.06155
G1 X206.019 Y193.643 E0.06155
G1 X205.33 Y193.055 E0.06155
G1 X204.584 Y192.542 E0.06155
G1 X203.793 Y192.11 E0.06124
G1 X203.127 Y191.825 E0.04925
G1 X202.516 Y191.615 E0.04387
G1 X201.644 Y191.401 E0.06108
G1 X200.746 Y191.277 E0.06155
G1 X199.841 Y191.247 E0.06155
G1 X199.405 Y191.277 E0.0297
G1 X198.937 Y191.31 E0.03185
G1 X198.045 Y191.466 E0.06155
G1 X197.174 Y191.714 E0.06155
G1 X196.333 Y192.05 E0.06155
G1 X195.531 Y192.472 E0.06155
G1 X194.777 Y192.974 E0.06155
G1 X194.082 Y193.549 E0.06129
G1 X193.829 Y193.803 E0.02438
M204 S1000
G1 X194.27 Y194.243 F18000
;TYPE:External perimeter
;WIDTH:0.6
G1 F1800
G1 X194.028 Y194.486 E0.0183
G1 X193.64 Y194.935 E0.0317
G1 X193.152 Y195.617 E0.04476
G1 X192.736 Y196.348 E0.04489
G1 X192.397 Y197.118 E0.04489
G1 X192.14 Y197.919 E0.04489
G1 X191.967 Y198.743 E0.04489
G1 X191.89 Y199.486 E0.03989
G1 X191.88 Y199.579 E0.00499
G1 X191.88 Y200.421 E0.04489
G1 X191.967 Y201.257 E0.04488
G1 X192.14 Y202.081 E0.04489
G1 X192.396 Y202.879 E0.04476
G1 X192.585 Y203.323 E0.02573
G1 X192.629 Y203.426 E0.00596
G1 X192.785 Y203.731 E0.0183
G1 X192.935 Y204.024 E0.01754
G1 X193.388 Y204.731 E0.04481
G1 X193.576 Y204.968 E0.01616
G1 X193.912 Y205.389 E0.02873
G1 X194.501 Y205.989 E0.04489
G1 X195.15 Y206.525 E0.04489
G1 X195.408 Y206.697 E0.01653
G1 X195.85 Y206.991 E0.02835
G1 X196.592 Y207.382 E0.04475
G1 X197.141 Y207.609 E0.03171
G1 X197.779 Y207.821 E0.03585
G1 X198.107 Y207.896 E0.01796
G1 X198.597 Y208.008 E0.02684
G1 X199.432 Y208.111 E0.04489
G1 X200.273 Y208.126 E0.04489
G1 X201.111 Y208.054 E0.04488
G1 X201.63 Y207.955 E0.0282
G1 X201.937 Y207.896 E0.01668
G1 X202.26 Y207.799 E0.01799
G1 X202.74 Y207.654 E0.02675
G1 X203.292 Y207.433 E0.03172
G1 X203.895 Y207.136 E0.03586
G1 X204.131 Y206.991 E0.01478
G1 X204.61 Y206.697 E0.03001
G1 X204.648 Y206.668 E0.00255
G1 X205.277 Y206.185 E0.04234
G1 X205.888 Y205.606 E0.04488
G1 X206.436 Y204.968 E0.04489
G1 X206.915 Y204.276 E0.04488
G1 X207.319 Y203.539 E0.04488
G1 X207.646 Y202.764 E0.04489
G1 X207.89 Y201.959 E0.04488
G1 X208.051 Y201.133 E0.04489
G1 X208.063 Y200.994 E0.00748
G1 X208.124 Y200.298 E0.03724
G1 X208.124 Y199.702 E0.03185
G1 X208.051 Y198.867 E0.04472
G1 X207.89 Y198.041 E0.04489
G1 X207.854 Y197.919 E0.00678
G1 X207.646 Y197.238 E0.038
G1 X207.392 Y196.616 E0.03587
G1 X207.257 Y196.348 E0.01598
G1 X207.125 Y196.085 E0.01575
G1 X206.684 Y195.372 E0.04473
G1 X206.17 Y194.706 E0.04489
G1 X205.992 Y194.519 E0.01377
G1 X205.59 Y194.097 E0.03112
G1 X205.489 Y194.01 E0.00712
G1 X204.95 Y193.551 E0.03776
G1 X204.513 Y193.25 E0.02832
G1 X204.257 Y193.074 E0.01657
G1 X203.521 Y192.672 E0.04479
G1 X203.394 Y192.617 E0.00737
G1 X202.903 Y192.407 E0.02849
G1 X202.341 Y192.214 E0.03172
G1 X201.526 Y192.014 E0.04474
G1 X200.693 Y191.899 E0.04489
G1 X199.852 Y191.871 E0.04488
G1 X199.449 Y191.899 E0.0216
G1 X199.433 Y191.9 E0.00085
G1 X199.013 Y191.93 E0.02244
G1 X198.185 Y192.075 E0.04489
G1 X197.375 Y192.305 E0.04489
G1 X196.594 Y192.617 E0.04488
G1 X195.85 Y193.009 E0.04489
G1 X195.752 Y193.074 E0.00626
G1 X195.15 Y193.475 E0.03863
G1 X194.502 Y194.01 E0.04481
G1 X194.27 Y194.243 E0.01755
;WIPE_START
M204 S4000
G1 X193.939 Y194.155 F18000
;WIPE_END
; acceleration to travel
M204 S10000
G1 X191.98 Y188.027
; decel to extrusion
M204 S2000
G1 X191.588 Y186.802
; end travel
;TYPE:Internal perimeter
;WIDTH:0.75
G1 F1800
G1 X208.412 Y186.802 E1.14322
G1 X213.198 Y191.588 E0.45997
G1 X213.198 Y208.412 E1.14322
G1 X208.412 Y213.198 E0.45997
G1 X191.588 Y213.198 E1.14322
G1 X186.802 Y208.412 E0.45997
G1 X186.802 Y191.588 E1.14322
G1 X191.588 Y186.802 E0.45997
G1 X191.299 Y186.103 F18000
G1 F1800
G1 X208.701 Y186.103 E1.18254
G1 X208.801 Y186.203 E0.00958
G1 X213.897 Y191.299 E0.48971
G1 X213.897 Y208.701 E1.18254
G1 X208.701 Y213.897 E0.49929
G1 X191.299 Y213.897 E1.18254
G1 X186.103 Y208.701 E0.49929
G1 X186.103 Y191.299 E1.18254
G1 X191.299 Y186.103 E0.49929
M204 S1000
G1 X191.041 Y185.48 F18000
;TYPE:External perimeter
;WIDTH:0.6
G1 F1800
G1 X208.959 Y185.48 E0.95615
G1 X209.242 Y185.762 E0.0213
G1 X209.524 Y186.045 E0.0213
G1 X212.022 Y188.543 E0.18851
G1 X214.52 Y191.041 E0.18851
G1 X214.52 Y208.959 E0.95615
G1 X208.959 Y214.52 E0.41963
G1 X191.041 Y214.52 E0.95615
G1 X185.48 Y208.959 E0.41963
G1 X185.48 Y191.041 E0.95616
G1 X191.041 Y185.48 E0.41963
;WIPE_START
M204 S4000
G1 X191.465 Y185.904 F18000
;WIPE_END
; acceleration to travel
M204 S10000
G1 X205.067 Y186.724
; decel to extrusion
M204 S2000
G1 X207.872 Y186.893
; end travel
;TYPE:Solid infill
;WIDTH:0.773979
G1 F3600
G1 X212.768 Y191.789 E0.48935
G1 X212.768 Y192.904 E0.07882
G1 X207.096 Y187.232 E0.56692
G1 X205.981 Y187.232 E0.07882
G1 X212.768 Y194.019 E0.67839
G1 X212.768 Y195.134 E0.07882
G1 X204.866 Y187.232 E0.78985
G1 X203.751 Y187.232 E0.07882
G1 X212.768 Y196.249 E0.90131
G1 X212.768 Y197.364 E0.07882
G1 X202.636 Y187.232 E1.01277
G1 X201.521 Y187.232 E0.07882
G1 X212.768 Y198.479 E1.12424
G1 X212.768 Y199.595 E0.07882
G1 X208.833 Y195.66 E0.39331
G1 X206.801 Y192.816 E0.24702
G1 X204.614 Y191.441 E0.18257
G1 X200.405 Y187.232 E0.42072
G1 X199.29 Y187.232 E0.07882
G1 X202.544 Y190.486 E0.32528
G1 X201.847 Y190.287 E0.05129
G1 X201.194 Y190.251 E0.04621
G1 X198.175 Y187.232 E0.30174
G1 X197.06 Y187.232 E0.07882
G1 X200.014 Y190.186 E0.29522
G1 X199.315 Y190.147 E0.04948
G1 X198.951 Y190.239 E0.02648
G1 X195.945 Y187.232 E0.3005
G1 X194.83 Y187.232 E0.07882
G1 X198.06 Y190.463 E0.32292
G1 X197.17 Y190.687 E0.06493
G1 X193.715 Y187.232 E0.34533
G1 X192.6 Y187.232 E0.07882
G1 X196.279 Y190.911 E0.36774
G1 X195.854 Y191.018 E0.03095
G1 X195.516 Y191.264 E0.02952
G1 X191.626 Y187.373 E0.38892
G1 X191.068 Y187.931 E0.05573
G1 X194.871 Y191.734 E0.38015
G1 X194.226 Y192.204 E0.05642
G1 X190.51 Y188.488 E0.37138
G1 X189.953 Y189.046 E0.05573
G1 X193.581 Y192.674 E0.36261
G1 X192.935 Y193.143 E0.05642
G1 X189.395 Y189.603 E0.35384
G1 X188.838 Y190.161 E0.05573
G1 X192.441 Y193.765 E0.36021
G1 X192.015 Y194.453 E0.05724
G1 X188.28 Y190.719 E0.37329
G1 X187.723 Y191.276 E0.05573
G1 X191.588 Y195.141 E0.38636
G1 X191.161 Y195.83 E0.05724
G1 X187.232 Y191.901 E0.39272
G1 X187.232 Y193.016 E0.07882
G1 X190.746 Y196.53 E0.35122
G1 X190.513 Y197.411 E0.06447
G1 X187.232 Y194.131 E0.32789
G1 X187.232 Y195.246 E0.07882
G1 X190.279 Y198.293 E0.30456
G1 X190.232 Y198.471 E0.01303
G1 X190.188 Y199.317 E0.05987
G1 X187.232 Y196.361 E0.29546
G1 X187.232 Y197.476 E0.07882
G1 X190.133 Y200.377 E0.28997
G1 X190.125 Y200.531 E0.01088
G1 X190.442 Y201.801 E0.09254
G1 X187.232 Y198.591 E0.32086
G1 X187.232 Y199.706 E0.07882
G1 X191.279 Y203.753 E0.40447
G1 E-1.2 F1800
; acceleration to travel
M204 S10000
G1 X205.934 Y197.965 F18000
; decel to extrusion
M204 S2000
G1 X208.866 Y196.807
; end travel
G1 E1.2 F1800
G1 F3600
G1 X212.768 Y200.71 E0.39005
G1 X212.768 Y201.825 E0.07882
G1 X209.671 Y198.728 E0.30955
G1 X209.884 Y199.626 E0.06525
G1 X209.826 Y199.999 E0.02666
G1 X212.768 Y202.94 E0.294
G1 X212.768 Y204.055 E0.07882
G1 X209.676 Y200.964 E0.309
G1 X209.526 Y201.929 E0.06903
G1 X212.768 Y205.17 E0.32401
G1 X212.768 Y206.285 E0.07882
G1 X209.376 Y202.894 E0.33901
G1 X209.306 Y203.343 E0.03217
G1 X209.112 Y203.745 E0.03151
G1 X212.768 Y207.4 E0.3654
G1 X212.768 Y208.234 E0.05889
G1 X212.627 Y208.374 E0.01409
G1 X208.749 Y204.496 E0.38764
G1 X208.408 Y205.2 E0.05525
G1 X208.377 Y205.24 E0.00358
G1 X212.069 Y208.932 E0.36902
G1 X211.512 Y209.49 E0.05573
G1 X207.892 Y205.87 E0.36184
G1 X207.406 Y206.499 E0.05619
G1 X210.954 Y210.047 E0.35467
G1 X210.397 Y210.605 E0.05573
G1 X206.841 Y207.049 E0.35539
G1 X206.187 Y207.51 E0.05657
G1 X209.839 Y211.162 E0.36509
G1 X209.281 Y211.72 E0.05573
G1 X205.532 Y207.97 E0.37479
M73 P1 R63
G1 X204.877 Y208.431 E0.05657
G1 X208.724 Y212.277 E0.38449
G1 X208.234 Y212.768 E0.04902
G1 X208.099 Y212.768 E0.00949
G1 X204.223 Y208.891 E0.38748
G1 X204.009 Y209.041 E0.01846
G1 X203.398 Y209.182 E0.0443
G1 X206.984 Y212.768 E0.35842
G1 X205.869 Y212.768 E0.07882
G1 X202.492 Y209.39 E0.33758
G1 X201.585 Y209.599 E0.06575
G1 X204.754 Y212.768 E0.31675
G1 X203.639 Y212.768 E0.07882
G1 X200.678 Y209.807 E0.29591
G1 X200.331 Y209.887 E0.02518
G1 X199.507 Y209.751 E0.05902
G1 X202.524 Y212.768 E0.30151
G1 X201.409 Y212.768 E0.07882
G1 X198.172 Y209.531 E0.32352
G1 X196.837 Y209.311 E0.09565
G1 X200.294 Y212.768 E0.34553
G1 X199.178 Y212.768 E0.07882
G1 X187.232 Y200.822 E1.1941
G1 X187.232 Y201.937 E0.07882
G1 X198.063 Y212.768 E1.08264
G1 X196.948 Y212.768 E0.07882
G1 X187.232 Y203.052 E0.97118
G1 X187.232 Y204.167 E0.07882
G1 X195.833 Y212.768 E0.85972
G1 X194.718 Y212.768 E0.07882
